/* XPM */
static char *dobbscoin16[] = {
/* columns rows colors chars-per-pixel */
"16 16 187 2 ",
"   c #292826",
".  c #3B382E",
"X  c #373737",
"o  c #3B3B3C",
"O  c #4B4739",
"+  c #574731",
"@  c #5B4A31",
"#  c #5F4E30",
"$  c #68562B",
"%  c #735F25",
"&  c #745D39",
"*  c #796224",
"=  c #796126",
"-  c #7B6E3E",
";  c #474644",
":  c #4D4D4E",
">  c #514F4B",
",  c #535048",
"<  c #51504C",
"1  c #4F4F51",
"2  c #575757",
"3  c #5D5B56",
"4  c #625C4E",
"5  c #666769",
"6  c #6D6E6F",
"7  c #727374",
"8  c #737374",
"9  c #757575",
"0  c #77787A",
"q  c #797979",
"w  c #7C7D7F",
"e  c #825F22",
"r  c #83672E",
"t  c #8E7035",
"y  c #8C7A51",
"u  c #9C803F",
"i  c #AB8D3D",
"p  c #BC9B3B",
"a  c #C8821E",
"s  c #CC861F",
"d  c #D38D22",
"f  c #DA9122",
"g  c #DC9122",
"h  c #D99421",
"j  c #D99124",
"k  c #DD9527",
"l  c #D69129",
"z  c #D5942E",
"x  c #D9992E",
"c  c #D99D2C",
"v  c #C39D37",
"b  c #C0903F",
"n  c #C3993F",
"m  c #DB9732",
"M  c #DF9B34",
"N  c #DF9E36",
"B  c #DC9D3A",
"V  c #E49C22",
"C  c #E59E24",
"Z  c #E19B2B",
"A  c #E09C2B",
"S  c #E19F2A",
"D  c #CBAA3F",
"F  c #D7A834",
"G  c #DFB43C",
"H  c #E6A123",
"J  c #EDAB26",
"K  c #E7A32B",
"L  c #E6A22E",
"P  c #E4A62D",
"I  c #E8A428",
"U  c #E9A72F",
"Y  c #E7A82C",
"T  c #ECAC28",
"R  c #E8A82D",
"E  c #EEB12B",
"W  c #EFB12C",
"Q  c #F1B02A",
"!  c #E1A033",
"~  c #E3A236",
"^  c #E2A735",
"/  c #E6AD36",
"(  c #E6AE37",
")  c #EEAF32",
"_  c #EEB536",
"`  c #EAB83F",
"'  c #F2B734",
"]  c #F2B836",
"[  c #F7BF37",
"{  c #F8BF33",
"}  c #F2BB38",
"|  c #F6BE3B",
" . c #F5C13A",
".. c #F9C239",
"X. c #FBC43F",
"o. c #BD9946",
"O. c #B39149",
"+. c #AC8A53",
"@. c #AA925C",
"#. c #928169",
"$. c #918A77",
"%. c #928B78",
"&. c #A79A6A",
"*. c #ADA07F",
"=. c #DAA955",
"-. c #EBAF42",
";. c #E5AF4C",
":. c #EDBB46",
">. c #F1BF43",
",. c #E2B256",
"<. c #EDBC54",
"1. c #E7BA5F",
"2. c #DCAF62",
"3. c #DBB461",
"4. c #DDB467",
"5. c #C0AF78",
"6. c #E6BE69",
"7. c #E5BD74",
"8. c #E6BF75",
"9. c #EFC246",
"0. c #F4C545",
"q. c #FCCD41",
"w. c #F8CC44",
"e. c #F0C34B",
"r. c #F7C44A",
"t. c #F8C649",
"y. c #F5CF49",
"u. c #FBD44C",
"i. c #E9C85A",
"p. c #F1C250",
"a. c #F1CB54",
"s. c #FBCF57",
"d. c #F2CD59",
"f. c #FADA59",
"g. c #F8D85A",
"h. c #F9DB5A",
"j. c #F2CB6A",
"k. c #F1D362",
"l. c #F1D365",
"z. c #F2D966",
"x. c #E4C77A",
"c. c #F3CF78",
"v. c #F1D871",
"b. c #F0D975",
"n. c #F1DB7C",
"m. c #888888",
"M. c #8F9091",
"N. c #919191",
"B. c #949494",
"V. c #969697",
"C. c #979797",
"Z. c #9F9F9F",
"A. c #A39D90",
"S. c #9FA0A2",
"D. c #A3A3A3",
"F. c #A1A2A5",
"G. c #A3A4A6",
"H. c #A5A5A5",
"J. c #ABAAA5",
"K. c #ACACAC",
"L. c #AFAFAF",
"P. c #B5B2AD",
"I. c #B2B3B5",
"U. c #B3B3B5",
"Y. c #B5B6B7",
"T. c #B7B7B7",
"R. c #BAB9B8",
"E. c #BABABA",
"W. c #BCBCBC",
"Q. c #BEBEBE",
"!. c #BEBFBF",
"~. c #E9CC87",
"^. c #EECF8B",
"/. c #ECD592",
"(. c #E3D09C",
"). c #EDD79C",
"_. c #F7DB92",
"`. c #ECDAA6",
"'. c #F9E4A7",
"]. c #F1E2AC",
"[. c #F7E7B2",
"{. c #C4C4C4",
"}. c #C5C5C5",
"|. c #C6C6C6",
" X c #C8C8C8",
".X c #D1D1D1",
"XX c None",
/* pixels */
"XXXXXXXXXXXXn.b.k.d.XXXXXXXXXXXX",
"XXXXXXXXb.z.g.f.u.w. .>.XXXXXXXX",
"XXXXXXk.g.y.D p v F } ] <.XXXXXX",
"XXXXa.q.9.= . > 3 4 r c -.;.XXXX",
"XXe.[ X.i   o X : 1 ; e Z A ^ XX",
"XX_ ' r.- 0 E.N.B.Q.S.# d k j XX",
":.R U t.% w }..X.X}.G.@ s g f z ",
"1.! ~ | = 5 q Z.T.m.M.@ a V H x ",
"7.m M _ t D.D.V.W.K.U.& h T W / ",
"6.B M L b P.Q.I.}. XR.O.E { ..` ",
"XXA V K l #.6 2 G.V.%.G 0.s.p.XX",
"XXP J Q I +.7 9 E.U.&.i.j.c.,.XX",
"XXXXY / o.u < 7 Y.J.5._.'.8.XXXX",
"XXXXXXn , O y %.A.*.).[.~.XXXXXX",
"XXXXXXXX$ @.^.`.(.]./.x.XXXXXXXX",
"XXXXXXXXXXXX=.2.4.3.XXXXXXXXXXXX"
};
