/* XPM */
static char *dobbscoin64[] = {
/* columns rows colors chars-per-pixel */
"64 64 238 2 ",
"   c #030303",
".  c #0C0C0C",
"X  c #0D0A06",
"o  c #17130B",
"O  c #131313",
"+  c #1C1C1C",
"@  c #181716",
"#  c #0D0E10",
"$  c #221E16",
"%  c #251D0E",
"&  c #29241B",
"*  c #352B15",
"=  c #3D3113",
"-  c #242424",
";  c #2C2C2C",
":  c #272828",
">  c #312E25",
",  c #343434",
"<  c #3C3C3C",
"1  c #383735",
"2  c #3B3429",
"3  c #1F1F21",
"4  c #493B19",
"5  c #423A26",
"6  c #413E35",
"7  c #584218",
"8  c #6E511A",
"9  c #4F4834",
"0  c #725B27",
"q  c #69542F",
"w  c #7B682E",
"e  c #424242",
"r  c #4B4B4B",
"t  c #4A4843",
"y  c #535353",
"u  c #5B5B5B",
"i  c #595856",
"p  c #555146",
"a  c #645A46",
"s  c #73674D",
"d  c #646464",
"f  c #6B6B6B",
"g  c #6B6A66",
"h  c #737374",
"j  c #7C7C7C",
"k  c #787368",
"l  c #885C19",
"z  c #8A621D",
"x  c #95671B",
"c  c #9C741F",
"v  c #BA7D1E",
"b  c #A8731D",
"n  c #8A6C25",
"m  c #8C7538",
"M  c #8C6D2B",
"N  c #A77A29",
"B  c #825C25",
"V  c #C77F1A",
"C  c #C37F21",
"Z  c #8C7A52",
"A  c #847D67",
"S  c #98833A",
"D  c #B88525",
"F  c #AD8B2E",
"G  c #B6A03B",
"H  c #CC831D",
"J  c #CD891D",
"K  c #D28A1E",
"L  c #D5891E",
"P  c #DB941F",
"I  c #D5911D",
"U  c #C88824",
"Y  c #D48B21",
"T  c #DA8D21",
"R  c #D98F28",
"E  c #CB9428",
"W  c #D49423",
"Q  c #DD9222",
"!  c #DD9A23",
"~  c #DC942B",
"^  c #DD9A2A",
"/  c #D4992A",
"(  c #C68B36",
")  c #C89837",
"_  c #DC9B33",
"`  c #DC9D3B",
"'  c #D59A37",
"]  c #E09622",
"[  c #E39B23",
"{  c #E29C2B",
"}  c #E29E31",
"|  c #DBA32B",
" . c #CBA43A",
".. c #D9A737",
"X. c #DDB338",
"o. c #E5A225",
"O. c #EAA424",
"+. c #EEAA24",
"@. c #E4A32C",
"#. c #EBA629",
"$. c #E5AC2D",
"%. c #ECAB2B",
"&. c #F0AE2B",
"*. c #F1AE25",
"=. c #EEB22C",
"-. c #F3B226",
";. c #F4B42C",
":. c #F7B92D",
">. c #F9BC2C",
",. c #E4A334",
"<. c #E4AB33",
"1. c #EBAC32",
"2. c #E4AC3C",
"3. c #E6A738",
"4. c #EDBA3C",
"5. c #E9B436",
"6. c #F5BB33",
"7. c #F9BD31",
"8. c #F3BD3C",
"9. c #F2B735",
"0. c #FDC334",
"q. c #FFC837",
"w. c #FBC53B",
"e. c #FECB3B",
"r. c #F3C23A",
"t. c #FFD13E",
"y. c #F7C335",
"u. c #9A884E",
"i. c #B3934F",
"p. c #8F876D",
"a. c #A7966E",
"s. c #B7A56E",
"d. c #C7994C",
"f. c #D59D43",
"g. c #C59E54",
"h. c #C58E43",
"j. c #CBA548",
"k. c #D5A24C",
"l. c #DDAC4C",
"z. c #D9A745",
"x. c #D4B446",
"c. c #C9A255",
"v. c #D5A955",
"b. c #D9B558",
"n. c #E4AB47",
"m. c #EAB946",
"M. c #E6B956",
"N. c #EAB34A",
"B. c #DAB867",
"V. c #DBB974",
"C. c #CEAD67",
"Z. c #E6BC68",
"A. c #E2BB74",
"S. c #E9C548",
"D. c #FDCC43",
"F. c #F5C748",
"G. c #FFD443",
"H. c #FDD44B",
"J. c #FFDB4C",
"K. c #F9D448",
"L. c #E9C459",
"P. c #F5CB57",
"I. c #FDD454",
"U. c #FEDE52",
"Y. c #FCD35C",
"T. c #F9D959",
"R. c #EFD34E",
"E. c #FEE155",
"W. c #FEE15B",
"Q. c #DBC56C",
"!. c #EAC668",
"~. c #F4CB67",
"^. c #FEDB6C",
"/. c #F9D667",
"(. c #E8C678",
"). c #FDDC73",
"_. c #FCDC7C",
"`. c #F5D877",
"'. c #EDD071",
"]. c #FFE167",
"[. c #FEE478",
"{. c #DFC34A",
"}. c #7E7F80",
"|. c #848484",
" X c #8B8B8B",
".X c #878788",
"XX c #939393",
"oX c #9B9B9B",
"OX c #979798",
"+X c #9D9683",
"@X c #B6A783",
"#X c #BDB091",
"$X c #A4A4A4",
"%X c #ACACAC",
"&X c #B3B3B3",
"*X c #BBBBBB",
"=X c #BAB7B3",
"-X c #B1ADA3",
";X c #A19D92",
":X c #C8BA8B",
">X c #C0BFBF",
",X c #DAC894",
"<X c #E6C785",
"1X c #EBD787",
"2X c #F7D987",
"3X c #E9D496",
"4X c #F5DC99",
"5X c #E6CC91",
"6X c #FEE283",
"7X c #FEE48C",
"8X c #F9E788",
"9X c #FDE593",
"0X c #FEEA9C",
"qX c #FAE898",
"wX c #F8ED99",
"eX c #ECDAA5",
"rX c #ECDBAA",
"tX c #FEECAB",
"yX c #FBE6A6",
"uX c #FEF3A4",
"iX c #FEF5A9",
"pX c #FDEDB4",
"aX c #FBEDBA",
"sX c #F5E9BA",
"dX c #FFF1BC",
"fX c #EEE3B0",
"gX c #C4C4C4",
"hX c #CECECE",
"jX c #D1D1D1",
"kX c #DBDBDB",
"lX c #FEF4C5",
"zX c #FDF6CB",
"xX c #FEF8CE",
"cX c #F6F0C3",
"vX c #FEFBD2",
"bX c #F5ECC2",
"nX c #EDEDED",
"mX c None",
/* pixels */
"mXmXmXmXmXmXmXmXmXmXmXmXmXmXmXmXmXmXmXmXmXmXmXmXmXmXmXmXmXmXmXmXmXmXmXmXmXmXmXmXmXmXmXmXmXmXmXmXmXmXmXmXmXmXmXmXmXmXmXmXmXmXmXmX",
"mXmXmXmXmXmXmXmXmXmXmXmXmXmXmXmXmXmXmXmXmXmXmXmXmXmX2X6X8X8X9X9X7X7X6X[.)./.mXmXmXmXmXmXmXmXmXmXmXmXmXmXmXmXmXmXmXmXmXmXmXmXmXmX",
"mXmXmXmXmXmXmXmXmXmXmXmXmXmXmXmXmXmXmXmXmXmX2X7XuXuXuXuXwXwX8X`.`.`.`.[.[.].[.^./.~.mXmXmXmXmXmXmXmXmXmXmXmXmXmXmXmXmXmXmXmXmXmX",
"mXmXmXmXmXmXmXmXmXmXmXmXmXmXmXmXmXmXmXmX9XuXiXuX1X'.Q.x.x.x.x.X.x.X.x. ...x.m.F.I.I.Y.T.mXmXmXmXmXmXmXmXmXmXmXmXmXmXmXmXmXmXmXmX",
"mXmXmXmXmXmXmXmXmXmXmXmXmXmXmXmXmX`.wXiXiXwXQ.x.x.{.R.R.E.E.E.E.J.J.J.J.K.S.5.X.| X.r.K.I.P.P.mXmXmXmXmXmXmXmXmXmXmXmXmXmXmXmXmX",
"mXmXmXmXmXmXmXmXmXmXmXmXmXmXmXmXwXiXuX1XC.x.{.E.W.W.E.E.E.U.W.].U.J.J.G.K.G.t.t.t.5.| / 5.D.Y./.mXmXmXmXmXmXmXmXmXmXmXmXmXmXmXmX",
"mXmXmXmXmXmXmXmXmXmXmXmXmXmX2XuXuX1Xb.x.R.E.E.E.W.E.U.U.J.W.`.`./.G.G.t.I.T.K.e.e.q.q.6.o.| m.T.).~.mXmXmXmXmXmXmXmXmXmXmXmXmXmX",
"mXmXmXmXmXmXmXmXmXmXmXmXmX7XuXqXQ.x.R.E.E.E.E.8X8XK.J.G.G.].'.R.!.e.t.t.F.R.4.q.q.0.q.0.0.9.^ z./.7X2XmXmXmXmXmXmXmXmXmXmXmXmXmX",
"mXmXmXmXmXmXmXmXmXmXmXmXwXuX1Xx.S.U.U.U.J.J.U./.8XR.G.t.t.I././.S.e.e.q.K.F.6.0.0.0.0.D.q.0.7.%. .(.yX4XmXmXmXmXmXmXmXmXmXmXmXmX",
"mXmXmXmXmXmXmXmXmXmXmXwXuX!. .R.U.J.J.J.J.G.G.K.[.R.t.t.t.q.S.S.r.q.q.0.D.5.7.0.0.0.F.m.m.9.7.7.;.' (.aXyXmXmXmXmXmXmXmXmXmXmXmX",
"mXmXmXmXmXmXmXmXmXmXwXwXQ.X.J.J.E.8X[.J.t.t.t.t.T.S.r.X.$.5.5.4.r.5.5.y.:.=.0.0.7.0.F.%.I.5.:.;.;.;.^ V.cXyXmXmXmXmXmXmXmXmXmXmX",
"mXmXmXmXmXmXmXmXmX9XwXb.X.J.G.J.[.!.`./.t.t.t.y. .M 7 * * * 5 9 a 9 4 8 w F D $.;.>.m.P.M.1.;.&.;.&.%.~ V.aXyXmXmXmXmXmXmXmXmXmX",
"mXmXmXmXmXmXmXmX8X8Xb.X.t.G.t.t./.[.R.'.y.q.X.8 % . @ O O 3 + # @ O : # @ < : 4 n | 5.2.%.;.&.&.&.&.&.#.~ B.tX4XmXmXmXmXmXmXmXmX",
"mXmXmXmXmXmXmX2X8XQ.X.t.t.t.t.t.e.~.'.S.q...=     . 3 e < ; f y 3 y y u ; d j e @ 8 E U D #.&.%.#.!.2X3.#.R B.9X1XmXmXmXmXmXmXmX",
"mXmXmXmXmXmX).8X~...e.e.e.e.q.q.q.y.9.0...4   . + d i r j e d %Xy ; oX Xu h XXu e ; 8 z 8 ! #.#.N.4XA.} [ [ E !._.Z.mXmXmXmXmXmX",
"mXmXmXmXmXmX[./. .y.q.I.].e.0.0.0.0.0.X.4 # 3 : e h XXy d }.e *X$X1 OXXX.Xe .Xi i y & n J o.O.<.2XA.} [ [ { Q E P./.mXmXmXmXmXmX",
"mXmXmXmXmX).[.z.1.q.q.P.'./.w.0.7.0.r.w   . O . 3 ; : + ; h < .X&Xf h XX X- e d r r # O 7 U { { } { ] { ] ] ] Y ' H.L.mXmXmXmXmX",
"mXmXmXmXmX[.S.| 0.0.0.7.5.P.F.7.7.w.V.&         X       X < < u  Xu 1 u u . 3 ; - + O     7 U ] { ] ] Q ] P ] ] U =.H.mXmXmXmXmX",
"mXmXmXmX^.T...=.0.0.7.7.0.;.=.>.8.2XA . X   O < r ; .     O - @ ; :   y - . # . 3 f i   + & z Y ] ] ] Q ,.N.,.Q Y U 0.M.mXmXmXmX",
"mXmXmXmX/.S./ 0.7.7.7.7.:.:.6.9._.4X2 $ O @ u }.|..Xg ;   . #       - i + : i }.%XhX|.  ; e 4 v Q Q Q } m.3.1.^ T V O.F.mXmXmXmX",
"mXmXmX/.I.| %.7.7.7.:.:.;.:.;.~.wXQ.& : : i .XoX$X$X%XoXd 1 @     # u h $X*XhXhXhXhX%X$ ; r > v R Q T ,.3.} 5.~ Y Y K ;.M.mXmXmX",
"mXmXmX/.r./ 6.6.P.F.8.:.;.&.8.9X[.i.@ @ 1 }.$XgXhXhXhXhXhX>XOXu r j gXjXjXjXhXhXhXhXgXu O y * b ] T T T { <.Q L T T V [ m.mXmXmX",
"mXmXP.I.| [ ;.8.m.%.8.=.&.&.`.[.].u.O . e .X&XjXhXjXhXhXhXhXjXhXgXjXhXhXhXhXhXhXhXjXgX|.O i > c ] Q T T L Y T T T T Y J 5.k.mXmX",
"mXmXP.G./ %.;.9.w.8.m.#.+.N.7XW.E.S     e .X&XhXhXjXhXhXhXhXhXjXhXhXhXhXhXhXhXhXhXjXgXXX+ t $ x Q ] Y T T T T T T T T V o.l.mXmX",
"mXmXY.8.Y %.;.%.@.5.<.o.#.~.^.I.J.S     e .X&XhXhXjXhXjXhXhXhXhXhXjXhXhXjXhXhXhXjXhX*XXX+ r $ z L ] L T T T L P T T P V P n.mXmX",
"mXmXI.5.Q &.%.#.#.o.{ #.1._.H.D.t.n     1 }.&XhXhXhXhXhXhXjXhXhXhXhXhXhXhXhXhXhXjX>X*XXX@ e $ l T ] L L T Q T ] ~ ] Q J H 3.mXmX",
"mXL.I...] #.+.#.#.#.O.[ N.).e.e.y.F     , }.%XhXhXhXhXjXhXhXhXhXjXjXhXjXhXhXhXhXhX&X>XXX@ r $ l L Q T L Q Q [ { } Y Q P H ` d.mX",
"mX~.Y.' [ #.[ [ [ [ [ [ M.Y.q.q.q.) X   e h oXhXhXhXhXjXjXhXjXjXjXhXhXhXjXjXjXhXjX&X&XoX# ; $ z Y T T V ] ] P L Y L ] ] V ~ k.mX",
"mX~.^.( [ o.3.3.,.[ ] ] ~.F.q.q.y.E o   t d .Xh r r y .XhXhXhXhXhXjXjXjX%Xf u u j &X&X%X$ 3 $ l U T T V P [ P ] [ [ [ o.H R k.mX",
"mX_.`.( [ { ~.~.`.Z.Q ~ ~.D.0.7.y.w @   y i e ; i y ; + }.hXhXhXjXhXjX%Xr 1 e e , d $X>X1 X : q V Y T H P [ O.[ O.O.O.O.K T k.mX",
"mX2X2X( ] ] n.' } ` T { ~.8.7.7.=.n @ O u d d $X&X&XoXr - .XhXhXhXhX&Xh  X%X>X>X*X}.}.gXu . + 8 V T T H P O.O.O.+.+.+.+.K Q k.mX",
"mX4XyX( ] ] T T T T T } ~.7.7.7.:.c   : j .X X}.$X.X.Xd 3 : %XhXhX=X}.h f |.OXXX$XgXoX*Xf   o l V T T L P O.+.+.+.+.+.*.! ^ l.mX",
"mX4XsXh.] Q Q Q T Q R ~ ~.>.;.:.;.c   < XX&XoX}.>Xr h %X;   i hXhX$X.Xd $Xu d &X|.%X%X&Xh   % x L T ] L P *.*.1.,.%.-.-.! O.l.mX",
"mX4XsXC T T T T T T T R !.;.;.&.&.c   e oX*XgX&XhX%X&X$Xh r g hXhXgXhX$X$X$X&XjX*XgXgX*Xf   * b P ] [ L o.-.=.| O.<.%.-.| =.l.mX",
"mX4XbXh.T T T Q R T T T M.:.&.&.*.D X e oX>XjXgX%X%X$XXX%X XXXhXjXjXkXgXXX$X*XgXhXjXgX>Xg   7 H [ [ #.Q O.-.%.%.8.4.%.:.@.6.b.mX",
"mX4XaXf.V T ` A.<XZ.R T M.9.*.&.#.U & u %X*XhXhX&X%X%XgXhX$X%XjXjXjXjXjXhX%X&XgXhXhXhXgX}.@ 8 P O.#.%.W -.>.:.-.%.%.>.0.@.q.b.mX",
"mX<XtXv.T T Z.Z.} Z.} T N.N.#.#.O.W s |.*X*XjXhXjXhXhXjXhX%X*XjXjXjXhXhXhXjXhXjXjXjXhXhXXX2 x | &.&.-.W >.>.>.0.>.0.0.0.$.D.v.mX",
"mXA.yXB.V T n.Z.Z.M.R T } N.[ [ o.^ Z .X*X&XhXjXjXjXjXjX*XoXgXhXhXhXhXhXhXhXjXjXjXjXgXgX;Xg b $.;.:.%.| 0.0.0.0.0.0.q.y.=.F.c.mX",
"mXmX2X!.C T T } } T T Q ] M.[ [ [ ] U Z =XOXgXjXjXkXkX&XoXoXhXjXhXgXhX*X>XhXjXjXjXjX%X>Xp.s D -.7.7.@.$.0.0.q.q.q.e.e.4.9.F.mXmX",
"mXmX`.~.C T T T T ] Q ] ] N.,.[ ] ] L U #X}.$XkXkXjX%X X XoXhXjXhX*X&X%X%X%XkXkXkX*XXX&Xm D | y.7.0./ 0.q.e.e.D.D.D.K.4.6.M.mXmX",
"mXmX!./.E T ] Q P ] ] ] [ @.n.] ] Q Q T @Xh h *XhXoXoXd - < XX*X$Xf .XgX>X}.%XhX&X}.h -XF | y.q.q.5.| e.D.8.9.8.8.I.I.2.8.k.mXmX",
"mXmXb.Y.<.J ] ] ] ! [ O.O.[ n.{ Q Q T T i.d r h  XXXu O     O - e XXgXhXjXoXd j d r h +XF y.q.e.e./ F.H.H.P.F.1...Y.P.$.m.d.mXmX",
"mXmXmXP.7.J ] [ [ #.9.=.[ O.#.2.T T T T N t f d XXh O       O , XXkXhX*X%XXXi f j u f u.E e.t.t.X.X.I.I.Y.Y./././.).M.#.l.mXmXmX",
"mXmXmXM.w.P P O.#.9.@.P o.+.+.1.} T T T C 5  X.X*X$X+ . , - y &XhX%X|.f : - }.gXgX}.f m X.t.G.r. .Y.T././.^.).)._._.3.,.j.mXmXmX",
"mXmXmXmXF.+.I O.O.[ [ +.*.*.*.-.3.~ T T R q }. X&XgXy ; &XkXkXkXkXjXkXgXi  XhXhXgX.Xk F r.K.K. .L.^.^./.)._._.6X7X!.] n.mXmXmXmX",
"mXmXmXmXM.;.I o.+.+.*.*.*.-.-.-.;.,.R T R x h OXoXhX.X, ; f kXnXnXnXkX%X$XhXjXjXgX}.Z  .J.R. .Z.[.).M.` n._.9X9X4Xz.{ d.mXmXmXmX",
"mXmXmXmXmXm.o.I -.-.-.-.;.-.>.>.>.;.} ~ R C a $XoXjX%X,   + |.&X>X%X%X*XhXhXjXjX%Xd m {.K.x.Q.[.2X_.} (.f.Z.yXyX(.T f.mXmXmXmXmX",
"mXmXmXmXmXl.%.I O.-.>.:.>.7.3.@.;.0.7.} ] { B OX$XgXf   . : |.gXgXhXgXgXhXhXjXhX|.q G S. .Q.8X7X9X4Xl.n.M.Z.tX4X` ~ d.mXmXmXmXmX",
"mXmXmXmXmXmXn.] I -.>.>.>.,./ @.] 0.0.0.$.^ D k $Xd . - f + < f j h j $XgXjXjX*Xi w G c.`.4X0X0XyXtXqXA.A.yXpXC.T f.mXmXmXmXmXmX",
"mXmXmXmXmXmXj.n.P W >.0.7.Q 4.,.| 0.y.S.r.9.E Z i O #  Xj 3 e d f j $XgXjXjXjX.X9 m C.9XyX0XyXtXtXtXpXpXaXlX<XY _ i.mXmXmXmXmXmX",
"mXmXmXmXmXmXmXk._ J o.0.0.@.~ ^ b.s.k +Xi.m.S.w 1 ; d OX- g >XjXhXjXhXhXjXjX&Xt q ,XyXyXtXZ.A.pXdXpXaXlXlX3X' _ h.mXmXmXmXmXmXmX",
"mXmXmXmXmXmXmXmXk.^ J <.e.w.D.M.p.; 1 }.; S m 1 < : oXr : %XjXjXjXjXjXhXhX*Xg p s.4XpXpXpX<X` 2XpXlXlXzXeXf.~ g.mXmXmXmXmXmXmXmX",
"mXmXmXmXmXmXmXmXmXk.~ Y 5.K.P.@Xy y XXr   & , e & 9 k , ; &XjXhXhXjXjXhX=Xf t a.3XpXdXdXlXaXZ.z.eXzXvXrXz._ k.mXmXmXmXmXmXmXmXmX",
"mXmXmXmXmXmXmXmXmXmXf.{ E m.B.p.h u OXh . . < & q a.k , @ f XXOX%X%X%XoXu e p.C.v.A.aXlXzXzXsX3XlXvXeXk.,.v.mXmXmXmXmXmXmXmXmXmX",
"mXmXmXmXmXmXmXmXmXmXmXk.,.^ j.7   X d oX3   @ 9 s.(.i.0 5 6 9 e y p r t r p.:Xz.5Xl.eXxXzXzXvXvXzX5Xz...c.mXmXmXmXmXmXmXmXmXmXmX",
"mXmXmXmXmXmXmXmXmXmXmXmXv.4.<.M X   e OX-   2 a.1XM.!.b.i.:X@X@Xa.0 u.+X:XrXbXn.3X!.3XxXxXvXvXsXV...n.v.mXmXmXmXmXmXmXmXmXmXmXmX",
"mXmXmXmXmXmXmXmXmXmXmXmXmXv.m.5.7   - y O > p.3XyXn.A.l.<XsXsXbXrX' :XbXzXxXxX3XB.(.cXvXvXzX3Xb.n.M.g.mXmXmXmXmXmXmXmXmXmXmXmXmX",
"mXmXmXmXmXmXmXmXmXmXmXmXmXmXi.M.) = X . & p.,XpXpX5XB.A.bXlXlXzXaXf.V.zXxXxXxXxXcXxXvXzX3XB.X.M.b.i.mXmXmXmXmXmXmXmXmXmXmXmXmXmX",
"mXmXmXmXmXmXmXmXmXmXmXmXmXmXmXmXc.i.w 0 M s.4XaXlXlXlXlXlXzXzXxXlXeXsXxXvXvXvXvXxXsX5XB.x.m.b.c.mXmXmXmXmXmXmXmXmXmXmXmXmXmXmXmX",
"mXmXmXmXmXmXmXmXmXmXmXmXmXmXmXmXmXmXi.j.5.=.3.b.<XeXsXzXxXvXvXvXvXvXvXxXxXbXfX5XV.l.X.m.M.c.mXmXmXmXmXmXmXmXmXmXmXmXmXmXmXmXmXmX",
"mXmXmXmXmXmXmXmXmXmXmXmXmXmXmXmXmXmXmXmXc.n.n.#.{ ~ ` v.B.A.<X<X<X<XA.V.C.k...2.N.b.b.c.mXmXmXmXmXmXmXmXmXmXmXmXmXmXmXmXmXmXmXmX",
"mXmXmXmXmXmXmXmXmXmXmXmXmXmXmXmXmXmXmXmXmXmXmXd.f.f.` ~ R T Y R R ~ _ 3.2.n.b.v.g.mXmXmXmXmXmXmXmXmXmXmXmXmXmXmXmXmXmXmXmXmXmXmX",
"mXmXmXmXmXmXmXmXmXmXmXmXmXmXmXmXmXmXmXmXmXmXmXmXmXmXmXi.d.d.d.d.g.g.g.g.i.mXmXmXmXmXmXmXmXmXmXmXmXmXmXmXmXmXmXmXmXmXmXmXmXmXmXmX",
"mXmXmXmXmXmXmXmXmXmXmXmXmXmXmXmXmXmXmXmXmXmXmXmXmXmXmXmXmXmXmXmXmXmXmXmXmXmXmXmXmXmXmXmXmXmXmXmXmXmXmXmXmXmXmXmXmXmXmXmXmXmXmXmX"
};
