/* XPM */
static char *dobbscoin128[] = {
/* columns rows colors chars-per-pixel */
"128 128 251 2 ",
"   c #020202",
".  c #0B0B0B",
"X  c #080807",
"o  c #16130C",
"O  c #131313",
"+  c #1B1B1B",
"@  c #1A1815",
"#  c #110F0A",
"$  c #231E13",
"%  c #271F0C",
"&  c #292317",
"*  c #352B16",
"=  c #232323",
"-  c #2C2C2C",
";  c #292824",
":  c #343433",
">  c #3C3C3C",
",  c #3B3933",
"<  c #383427",
"1  c #1E1F20",
"2  c #48391C",
"3  c #533B16",
"4  c #433D2D",
"5  c #623E10",
"6  c #57431C",
"7  c #664A18",
"8  c #79551A",
"9  c #6C501B",
"0  c #594A26",
"q  c #514A34",
"w  c #68552D",
"e  c #766633",
"r  c #444444",
"t  c #4C4C4C",
"y  c #535353",
"u  c #5C5C5C",
"i  c #5B5A58",
"p  c #545044",
"a  c #72684D",
"s  c #646464",
"d  c #6B6B6B",
"f  c #696866",
"g  c #737373",
"h  c #7C7C7C",
"j  c #7A7975",
"k  c #71716F",
"l  c #635D49",
"z  c #855A17",
"x  c #94691B",
"c  c #AA6C18",
"v  c #AB741B",
"b  c #B87819",
"n  c #B36D16",
"m  c #886828",
"M  c #957130",
"N  c #A97825",
"B  c #A87A38",
"V  c #B37925",
"C  c #805A22",
"Z  c #C47C1B",
"A  c #C67F21",
"S  c #8A7751",
"D  c #A57C43",
"F  c #837C64",
"G  c #BA821E",
"H  c #AC8428",
"J  c #B78828",
"K  c #AB8633",
"L  c #B68937",
"P  c #B99536",
"I  c #B5942F",
"U  c #9D8332",
"Y  c #CC831D",
"T  c #C6861D",
"R  c #D48B1E",
"E  c #D98C1F",
"W  c #D2861E",
"Q  c #DA941E",
"!  c #E49A1F",
"~  c #CA8925",
"^  c #D48B21",
"/  c #DA8D21",
"(  c #D28924",
")  c #C89427",
"_  c #D59323",
"`  c #DD9222",
"'  c #DB9B25",
"]  c #DC9B2C",
"[  c #D7962A",
"{  c #CA9739",
"}  c #D79A37",
"|  c #CA8D36",
" . c #E19622",
".. c #E49C24",
"X. c #E29C2B",
"o. c #E19E35",
"O. c #DAA32C",
"+. c #D9A637",
"@. c #D1AC39",
"#. c #E6A125",
"$. c #EAA324",
"%. c #EEAA24",
"&. c #E4A42A",
"*. c #EAA529",
"=. c #EDAB2A",
"-. c #E4AB2B",
";. c #F1AE25",
":. c #F0AE2B",
">. c #EDB22D",
",. c #F3B226",
"<. c #F4B42C",
"1. c #F7B92E",
"2. c #F9BC2C",
"3. c #E5A937",
"4. c #E9B638",
"5. c #F4BC33",
"6. c #F9BD31",
"7. c #F3B838",
"8. c #FCC02F",
"9. c #FDC434",
"0. c #FFC837",
"q. c #FECC3B",
"w. c #F7C43B",
"e. c #FFD13E",
"r. c #EDC33C",
"t. c #A98347",
"y. c #B68A46",
"u. c #B89450",
"i. c #948A68",
"p. c #928A70",
"a. c #A9996E",
"s. c #B7A674",
"d. c #A08C50",
"f. c #C89848",
"g. c #C69D54",
"h. c #D39B45",
"j. c #D8A848",
"k. c #DBB746",
"l. c #CAA659",
"z. c #D6A957",
"x. c #DAB55B",
"c. c #CBA74C",
"v. c #E5AA45",
"b. c #E9B847",
"n. c #F2BC47",
"m. c #E6B659",
"M. c #E9B554",
"N. c #D2AC64",
"B. c #DAB667",
"V. c #D6B776",
"C. c #CCAD6B",
"Z. c #E4BB66",
"A. c #E6BE70",
"S. c #C39D67",
"D. c #E9C648",
"F. c #FECD43",
"G. c #FCCC4B",
"H. c #F6C546",
"J. c #FFD443",
"K. c #FED24B",
"L. c #FFDB4B",
"P. c #FDD748",
"I. c #EAC457",
"U. c #F6C857",
"Y. c #FED454",
"T. c #FEDD52",
"R. c #FED65B",
"E. c #FEDB5C",
"W. c #F5D857",
"Q. c #EDD14E",
"!. c #FEE155",
"~. c #FDE459",
"^. c #DCC56F",
"/. c #E9C669",
"(. c #F5CB67",
"). c #FFDB64",
"_. c #FEDB6B",
"`. c #F8D469",
"'. c #E9C775",
"]. c #F2CD7A",
"[. c #FEDD74",
"{. c #FDDD7B",
"}. c #F7D777",
"|. c #EAD377",
" X c #FFE16B",
".X c #FEE374",
"XX c #FEE37C",
"oX c #FFE97E",
"OX c #DDC248",
"+X c #7F7F80",
"@X c #848484",
"#X c #8C8C8C",
"$X c #8F8D86",
"%X c #939393",
"&X c #9C9C9C",
"*X c #989796",
"=X c #B4AA8B",
"-X c #A4A4A4",
";X c #ACACAC",
":X c #B4B4B4",
">X c #BCBCBC",
",X c #BBB8B1",
"<X c #B3AEA6",
"1X c #A49F93",
"2X c #D0BA86",
"3X c #C0BAB0",
"4X c #DAC997",
"5X c #D6C28C",
"6X c #E8CB86",
"7X c #F8DA86",
"8X c #E9D499",
"9X c #F4DA94",
"0X c #E9D28A",
"qX c #FEE284",
"wX c #FEE38B",
"eX c #FCEA88",
"rX c #FEE593",
"tX c #FDED94",
"yX c #FEEA9D",
"uX c #FBE699",
"iX c #FEF39C",
"pX c #FEF195",
"aX c #EEE18D",
"sX c #E7D8A7",
"dX c #EDDEAE",
"fX c #FEEAA4",
"gX c #FEECAC",
"hX c #F7E4A6",
"jX c #FEF5A3",
"kX c #FEF6AC",
"lX c #FEEDB4",
"zX c #F8EAB8",
"xX c #FFF1BC",
"cX c #FEF5B5",
"vX c #EDE3B7",
"bX c #D0CAB2",
"nX c #C4C4C4",
"mX c #CECECE",
"MX c #C7C7C8",
"NX c #D2D2D2",
"BX c #D9D9D9",
"VX c #F5EEC2",
"CX c #FEF3C4",
"ZX c #FEF6CB",
"AX c #FEF8CE",
"SX c #F6F2C7",
"DX c #FEFBD1",
"FX c #FBF7D0",
"GX c #E8E8E8",
"HX c #F8F8F8",
"JX c None",
/* pixels */
"JXJXJXJXJXJXJXJXJXJXJXJXJXJXJXJXJXJXJXJXJXJXJXJXJXJXJXJXJXJXJXJXJXJXJXJXJXJXJXJXJXJXJXJXJXJXJXJXJXJXJXJXJXJXJXJXJXJXJXJXJXJXJXJXJXJXJXJXJXJXJXJXJXJXJXJXJXJXJXJXJXJXJXJXJXJXJXJXJXJXJXJXJXJXJXJXJXJXJXJXJXJXJXJXJXJXJXJXJXJXJXJXJXJXJXJXJXJXJXJXJXJXJXJXJXJXJXJX",
"JXJXJXJXJXJXJXJXJXJXJXJXJXJXJXJXJXJXJXJXJXJXJXJXJXJXJXJXJXJXJXJXJXJXJXJXJXJXJXJXJXJXJXJXJXJXJXJXJXJXJXJXJXJXJXJXJXJXJXJXJXJXJXJXJXJXJXJXJXJXJXJXJXJXJXJXJXJXJXJXJXJXJXJXJXJXJXJXJXJXJXJXJXJXJXJXJXJXJXJXJXJXJXJXJXJXJXJXJXJXJXJXJXJXJXJXJXJXJXJXJXJXJXJXJXJXJXJX",
"JXJXJXJXJXJXJXJXJXJXJXJXJXJXJXJXJXJXJXJXJXJXJXJXJXJXJXJXJXJXJXJXJXJXJXJXJXJXJXJXJXJXJXJXJXJXJXJXJXJXJXJXJXJXJXG.U.`.`.}.{.7X7X7X7X7X{.{.}.`.U.U.H.JXJXJXJXJXJXJXJXJXJXJXJXJXJXJXJXJXJXJXJXJXJXJXJXJXJXJXJXJXJXJXJXJXJXJXJXJXJXJXJXJXJXJXJXJXJXJXJXJXJXJXJXJXJXJX",
"JXJXJXJXJXJXJXJXJXJXJXJXJXJXJXJXJXJXJXJXJXJXJXJXJXJXJXJXJXJXJXJXJXJXJXJXJXJXJXJXJXJXJXJXJXJXJXJXJXJXU.`.7XrXfXlXkXkXkXjXkXfXiXpXpXpXyXtXtXtXiXuXrXwX7X}.(.U.JXJXJXJXJXJXJXJXJXJXJXJXJXJXJXJXJXJXJXJXJXJXJXJXJXJXJXJXJXJXJXJXJXJXJXJXJXJXJXJXJXJXJXJXJXJXJXJXJXJX",
"JXJXJXJXJXJXJXJXJXJXJXJXJXJXJXJXJXJXJXJXJXJXJXJXJXJXJXJXJXJXJXJXJXJXJXJXJXJXJXJXJXJXJXJXJXJXU.`.aXjXkXcXkXkXjXjXiXpXpXpXpXeXeXeXeXeXoXoXXX.X.X.X.X X.XXXqXqXqX}.(.n.JXJXJXJXJXJXJXJXJXJXJXJXJXJXJXJXJXJXJXJXJXJXJXJXJXJXJXJXJXJXJXJXJXJXJXJXJXJXJXJXJXJXJXJXJXJX",
"JXJXJXJXJXJXJXJXJXJXJXJXJXJXJXJXJXJXJXJXJXJXJXJXJXJXJXJXJXJXJXJXJXJXJXJXJXJXJXJXJXJXJXU.{.yXkXcXcXkXjXiXiXiXiXiXpXpXpXaXeXaXXX.X}..X.X.X.X.X X X X X X XE.E.E. X.XXX{.(.H.JXJXJXJXJXJXJXJXJXJXJXJXJXJXJXJXJXJXJXJXJXJXJXJXJXJXJXJXJXJXJXJXJXJXJXJXJXJXJXJXJXJXJX",
"JXJXJXJXJXJXJXJXJXJXJXJXJXJXJXJXJXJXJXJXJXJXJXJXJXJXJXJXJXJXJXJXJXJXJXJXJXJXJXJXG.[.uXcXcXkXkXjXjXjXjXiXpXaX|.^.x.c.P P I K I K K J I J K P { @.k.I.I.E.E.E.T.Y.Y.Y.E._.{.}.U.b.JXJXJXJXJXJXJXJXJXJXJXJXJXJXJXJXJXJXJXJXJXJXJXJXJXJXJXJXJXJXJXJXJXJXJXJXJXJXJXJX",
"JXJXJXJXJXJXJXJXJXJXJXJXJXJXJXJXJXJXJXJXJXJXJXJXJXJXJXJXJXJXJXJXJXJXJXJXJXJXU.wXgXxXcXkXjXjXjXjXpX0XB.c.P K H I P @.k.OXOXD.D.Q.Q.D.D.OXOX@.@.@.I J J J ) +.D.G.K.K.J.J.J.Y._..X`.n.JXJXJXJXJXJXJXJXJXJXJXJXJXJXJXJXJXJXJXJXJXJXJXJXJXJXJXJXJXJXJXJXJXJXJXJXJXJX",
"JXJXJXJXJXJXJXJXJXJXJXJXJXJXJXJXJXJXJXJXJXJXJXJXJXJXJXJXJXJXJXJXJXJXJXJXU.rXcXcXkXjXjXkXkXaX^.l.I K I @.OXQ.W.!.~.~.~.~.!.!.!.!.!.!.L.!.!.!.!.L.P.P.e.4.@.I G G I 4.r.P.e.e.q.J.R.[.`.n.JXJXJXJXJXJXJXJXJXJXJXJXJXJXJXJXJXJXJXJXJXJXJXJXJXJXJXJXJXJXJXJXJXJXJXJX",
"JXJXJXJXJXJXJXJXJXJXJXJXJXJXJXJXJXJXJXJXJXJXJXJXJXJXJXJXJXJXJXJXJXJXU.7XcXcXkXjXjXjXiX|.l.I K @.OXW.~.~.~.~.~.~.!.!.!.~.!.!.!.L.L.!.L.L.L.L.P.P.P.P.L.P.P.P.e.r.O.G G ) 4.w.q.0.q.F.R.[.`.n.JXJXJXJXJXJXJXJXJXJXJXJXJXJXJXJXJXJXJXJXJXJXJXJXJXJXJXJXJXJXJXJXJXJX",
"JXJXJXJXJXJXJXJXJXJXJXJXJXJXJXJXJXJXJXJXJXJXJXJXJXJXJXJXJXJXJXJXD.7XcXcXkXkXjXjXaXC.K I @.OXW.~.~.~.~.~.!.!.!.!.!.!.!.T.!.!.P.!.L.L.L.L.P.P.P.P.P.P.J.P.P.e.e.P.e.e.4.O.G G O.r.q.q.q.J.R.{.(.v.JXJXJXJXJXJXJXJXJXJXJXJXJXJXJXJXJXJXJXJXJXJXJXJXJXJXJXJXJXJXJXJX",
"JXJXJXJXJXJXJXJXJXJXJXJXJXJXJXJXJXJXJXJXJXJXJXJXJXJXJXJXJXJXJX`.kXcXkXjXjXjXaXl.U I OXW.~.~.~.~.~.~.!.~.!.!.!.!.L.T.!.L.!..XoX X!.L.P.P.P.P.P.J.J.e.e.e.e.e.e.e.e.q.e.e.w.-.J G ) 5.q.F.F.G._.{.I.JXJXJXJXJXJXJXJXJXJXJXJXJXJXJXJXJXJXJXJXJXJXJXJXJXJXJXJXJXJXJX",
"JXJXJXJXJXJXJXJXJXJXJXJXJXJXJXJXJXJXJXJXJXJXJXJXJXJXJXJXJXG.9XxXkXjXjXiXaXx.H I Q.~.~.~.~.!.!.!.!.!.!.L.!.L.!.L.L.L.L.!.pXtX0XpX.XP.P.P.P.J.J.J.J.J.E.T.P.q.q.e.q.q.q.q.0.q.0.>.) b ) D.G.K.G.).qX}.b.JXJXJXJXJXJXJXJXJXJXJXJXJXJXJXJXJXJXJXJXJXJXJXJXJXJXJXJXJX",
"JXJXJXJXJXJXJXJXJXJXJXJXJXJXJXJXJXJXJXJXJXJXJXJXJXJXJXJX`.lXcXjXkXkXpXC.I I OX~.~.~.~.~.!.!.!.!.!.!.!.!.!.L.L.L.L.L.L..XiXx.4.`.eXD.e.e.e.J.e.e.J.[..X XD.r.q.q.0.0.0.0.0.0.0.0.9.>.) b } Q.R.R.).7X7X(.JXJXJXJXJXJXJXJXJXJXJXJXJXJXJXJXJXJXJXJXJXJXJXJXJXJXJXJX",
"JXJXJXJXJXJXJXJXJXJXJXJXJXJXJXJXJXJXJXJXJXJXJXJXJXJXH.7XcXkXjXjXiX^.K I OX~.~.!.!.!.~.!.!.L.~.eXhXW.L.L.P.L.P.P.P.P.P.oXaXk.J. XeXk.e.e.e.e.F.q.F.k.U.E.+.9.0.0.0.0.0.0.0.0.0.9.9.9.9.>.~ V k.`._._.7XuX].4.JXJXJXJXJXJXJXJXJXJXJXJXJXJXJXJXJXJXJXJXJXJXJXJXJXJX",
"JXJXJXJXJXJXJXJXJXJXJXJXJXJXJXJXJXJXJXJXJXJXJXJXJXG.yXcXjXjXjXaXc.H @.!.~.W.!.!.!.!.L.!.!.!.eXkXkX^.P.P.P.P.L.P.P.P.P.oX{.k.e. XXXk.q.e.e.q.q.q.0.H.).W.+.0.0.0.0.0.9.9.0.9.9.9.9.9.9.9.9.&.b { (.7XXXwXfX9XM.JXJXJXJXJXJXJXJXJXJXJXJXJXJXJXJXJXJXJXJXJXJXJXJXJX",
"JXJXJXJXJXJXJXJXJXJXJXJXJXJXJXJXJXJXJXJXJXJXJXJX(.gXkXjXjXiX^.K I P.!.!.!.T.!.!.L.!.L.L.L.L..X6XiX0XD.P.P.P.J.J.J.J.J..X.Xb.e. X}.@.q.q.q.q.0.0.0.Y.E.b.>.q.9.0.9.9.9.9.9.9.6.9.9.9.6.9.9.6.1.~ V B.wXuXuXfXfXZ.JXJXJXJXJXJXJXJXJXJXJXJXJXJXJXJXJXJXJXJXJXJXJXJX",
"JXJXJXJXJXJXJXJXJXJXJXJXJXJXJXJXJXJXJXJXJXJXJX}.kXjXiXiXtXl.H @.!.!.!.!.T.L.L.L.L.L.L.L.L.L.D.Q.pXwXD.P.e.J.e.e.e.J.q.W..X`.~.oXI.4.q.0.0.0.0.0.0.Y.Y.+.5.0.0.9.9.9.9.9.9.9.G.Y.G.F.6.6.6.6.6.6.*.b g.9XfXfXlXzX'.JXJXJXJXJXJXJXJXJXJXJXJXJXJXJXJXJXJXJXJXJXJXJX",
"JXJXJXJXJXJXJXJXJXJXJXJXJXJXJXJXJXJXJXJXJXJX}.cXjXiXiXaXP J Q.!.!.L.T.L.L.L.L.L.L.L.P.P.P.e.e.P.eXpXOXJ.e.e.e.e.q.e.e.r.k./.`.x.@.w.0.0.0.0.0.0.q.T.K.+.8.9.9.9.9.6.9.9.w.Y.R.w.7.F.7.6.6.6.6.1.6.<.T L 0XkXlXlXxX].JXJXJXJXJXJXJXJXJXJXJXJXJXJXJXJXJXJXJXJXJXJX",
"JXJXJXJXJXJXJXJXJXJXJXJXJXJXJXJXJXJXJXJXJX{.kXiXiXpX|.K { P.!.T.L.L.L.P.L.P.L.P.P.e.P.P.P.P.e.e. XeX|.q.e.e.q.q.q.q.q.q.5.4.+.>.5.0.0.0.9.9.0.9.w.b.4.O.9.9.9.5.6.9.6.6.G.Y.4.[ -.H.n.:.6.6.1.1.1.1.1.^ B 6XzXlXCXCX6XJXJXJXJXJXJXJXJXJXJXJXJXJXJXJXJXJXJXJXJXJX",
"JXJXJXJXJXJXJXJXJXJXJXJXJXJXJXJXJXJXJXJX7XkXiXpXpX^.J @.!.L.L.L.L.L.E.eXoX~.P.P.e.P.e.e.P.e.e.e.W.eX'.4.e.0.0.q.q.q.0.0.0.0.9.0.9.9.w.w.9.9.9.9.w.>.O.>.9.9.6.9.6.6.6.6.Y.H.] <.0.R.b.-.1.<.7.1.1.<.1.<.' V 2XCXxXxXCX6XJXJXJXJXJXJXJXJXJXJXJXJXJXJXJXJXJXJXJXJX",
"JXJXJXJXJXJXJXJXJXJXJXJXJXJXJXJXJXJXJX{.lXiXpXeXx.G @.L.L.L.L.L.P._.kXhXjXpXW.e.e.e.e.e.e.e.e.e.q.k.+.r.w.r.4.4.4.O.O.4.4.4.4.b.4.D.4.4.4.>.>.5.8.9.8.8.6.6.6.6.6.6.6.w.Y.3.&.5.U.`.j.=.1.2.<.<.<.<.<.<.<...V V.xXCXCXCX6XJXJXJXJXJXJXJXJXJXJXJXJXJXJXJXJXJXJXJX",
"JXJXJXJXJXJXJXJXJXJXJXJXJXJXJXJXJXJX}.kXpXpXpXx.H r.L.P.P.P.P.e.T.jX6Xk./.iXqXH.e.e.e.e.e.e.0.q.0.0.r.+.U e 6 6 6 * * 0 w l F i.a.=Xi.w e m M { ) O.-.4.>.<.5.6.6.6.1.7.H.b.>.U.[.U.} 7.1.<.<.<.<.<.:.:.:.:...V V.xXxXxXCX'.JXJXJXJXJXJXJXJXJXJXJXJXJXJXJXJXJXJX",
"JXJXJXJXJXJXJXJXJXJXJXJXJXJXJXJXJX`.gXpXtXeXx.H r.P.P.P.P.P.P.e.T.iX|.w.D.|.tXI.e.e.e.0.e.0.0.0.4.K 0 % #     X       X     X O O + .       # $ % < 0 9 M H O.>.>.<.1.1.4.U.).[.(.} *.<.:.<.:.:.:.<.:.:.:.:.:...v C.zXlXcXzXA.JXJXJXJXJXJXJXJXJXJXJXJXJXJXJXJXJX",
"JXJXJXJXJXJXJXJXJXJXJXJXJXJXJXJXU.jXpXpXeXx.H 4.P.P.e.P.e.P.e.e.P.tXaXD.e.W.tX/.9.q.0.0.0.w.@.M * #   . O # O + O + + O .     + 1 .   . = O     . 1 - 1 . O 6 M | O.-.<.-.+.j.j.} &.<.:.:.:.:.:.:.:.:.:.:.=.=.=.X.v V.lXgXgXgXx.JXJXJXJXJXJXJXJXJXJXJXJXJXJXJXJX",
"JXJXJXJXJXJXJXJXJXJXJXJXJXJXJXH.yXpXeXeXI.H 4.P.e.e.P.e.e.e.e.e.q.`.pX}.F.K.eXx.r.0.0.9.w.I *     . . @ 1 : 1 . . + - > - : + . 1 : - O t y 1 X @ 1 r f r O   . & 9 ) O.=.=.=.*.<.<.<.:.:.:.:.:.=.=.*.:.:.*.*.*.=...v V.fXfXfXhXj.JXJXJXJXJXJXJXJXJXJXJXJXJXJXJX",
"JXJXJXJXJXJXJXJXJXJXJXJXJXJX7.rXiXeXoX/.H @.J.e.e.e.e.e.e.q.e.e.q.H.|.eXoXXX|.+.9.0.0.r.M o     X     . + - : > - O O y s s y O   - s > @ t u : + - : f @Xy t O   @ w J O.-.%.%.O.&.:.=.:.:.:.:.=.=.v.9XuXM.*.*.*.*./ V '.yXrXyX9X} JXJXJXJXJXJXJXJXJXJXJXJXJXJX",
"JXJXJXJXJXJXJXJXJXJXJXJXJXJX{.yXeXoX|.H O.e.e.e.e.e.e.e.q.q.q.q.q.q.4./.|./.@.7.0.9.w.H o           .   1 + : f g r . : +Xg g f 1 X u #Xg - @Xh > 1 g #X;Xh @Xt # - o 6 N ' O.z 7 N *.:.*.:.*.*.*.*.v.8XCXlXv.*...*.*.^ B ].wXqXuX'.JXJXJXJXJXJXJXJXJXJXJXJXJXJX",
"JXJXJXJXJXJXJXJXJXJXJXJXJXU.iXoXoX.XP ) e.e.e.e.q.e.q.0.q.0.0.0.0.0.9.>.3.-.9.9.9.r.K $     X X   + y r - y : > @X+Xr O d &X&X%Xd   X y >X@X@X>Xf O k -X*X+Xt k + , = . 2 J G 7 % 8 ' =.=.*.*.*.$.*.A.zXCX2X] $.*...*.*.Z L {.XX{.rXx.JXJXJXJXJXJXJXJXJXJXJXJXJX",
"JXJXJXJXJXJXJXJXJXJXJXJXn.uXeXoX.Xc.G w.e.q.q.0.q.0.0.0.0.0.0.0.0.0.0.9.0.9.9.9.5.N o . .     O . - g -Xd y f r +X*Xk + + #XNX;X#Xt   + -XNXf +X>X: - %X-X#X- @Xy : d + $ m G 7 3 z #.*.*.*.*.$.*.].xXzXV.| ......X.......n f..X_..X7X+.JXJXJXJXJXJXJXJXJXJXJXJX",
"JXJXJXJXJXJXJXJXJXJXJXJX7XtX.X.Xk.H >.q.q.0.0.G. XJ.0.0.9.0.0.0.9.9.9.9.9.9.9.r.K o   + - + + : > : g ;XmXk u g : %X%Xu X > NXmX-X:X=   +XBX#Xi -Xd O u ;X;X> y #X- %X: @ 0 v J T O.$.$.*.*.#.3.].CXzXV./ $.$.X.....X..... .n z.).).{.'.JXJXJXJXJXJXJXJXJXJXJXJX",
"JXJXJXJXJXJXJXJXJXJXJXU.tX.X X`.J O.q.q.0.0.q.XXtX.Xe.0.9.0.9.9.9.9.9.9.9.9.8.P $ X O + ; ; - > t y r d MX+X1 h - k ;X&X= y nXBX:X>Xs   g NX-Xg ;X%X- r g ;Xt t @XO @Xt O O 2 m T Q #.#.#.#.$.3.8XhXN./ X...................^ v I.Y.R.}.x.JXJXJXJXJXJXJXJXJXJXJX",
"JXJXJXJXJXJXJXJXJXJXn.7XXX X X{ ~ 9.0.0.9.0.F.eXeXeX.XF.9.9.9.9.9.9.6.9.8.8.4.0   . O O O # . O + r t - s =   y : > -X-X- + g :X&X>X:X+ y :X>X@X&X%X:   : +X> s g O @X> O + @ # 7 J _ ' X.$.....h.g./ X..... ...X. . .X. . .X.Z ~ U.G.R.].{ JXJXJXJXJXJXJXJXJXJX",
"JXJXJXJXJXJXJXJXJXJX`.eX X XD.v 4.0.0.0.9.9.w.Z.j./.oX.XG.0.9.6.6.9.6.6.1.w.a.@       . O X       O - # X     O O . : #Xy . u :X:X:X;X1 r :X+X+Xg -X-   @ y t @Xu + #X- X O .     2 N T ` ..X.....` ......X.X. . . . . . . . ./ c +.F.F.).B.JXJXJXJXJXJXJXJXJXJX",
"JXJXJXJXJXJXJXJXJXn.wX X XW.J [ 0.0.0.9.9.9.9.>.O.3.I._.).H.6.6.6.6.6.2.H.8Xp                                   . . . +Xd + : ;X;X@X>X- r g > @Xs %XO   . r - u > + r .   #         6 N ~ ' ..........X. . . . . . . . . .X./  .Y b w.q.F.`.h.JXJXJXJXJXJXJXJXJX",
"JXJXJXJXJXJXJXJXJX}.XX).~.j.b 5.9.9.9.9.9.9.6.9.9.9.3.k.(.+.7.6.6.6.2.G.iX1X#                 O O         X     . #   f r O = #Xd y &XO = + = +Xt : X   O : . . . . + . 1 #           0 V R _ .. . . . . . . . . .`  ./  .` ` ` ` n ) 0.9.T.B.JXJXJXJXJXJXJXJXJX",
"JXJXJXJXJXJXJXJXn.qX).E.U.G O.9.9.9.6.9.9.6.6.6.9.8.6.>.} -.6.6.6.2.H.fXdXq . X             O : > 1 .     X     X     : : = # > 1 > f .   . = +X: . . X 1 O   . . . 1 r #X=     . O X @ e G R '  . . . . . .`  . .` ` X.X. ./  .` ( n <.0.0.`.{ JXJXJXJXJXJXJXJX",
"JXJXJXJXJXJXJXJX}.XXT.E.{ G 9.8.9.9.9.6.6.6.6.6.6.6.6.6.<.6.6.1.1.7.hXxXs.+ . # O         + y f d f u > O             # - =   . . > =   . . r #X= # . . + X . 1 O = @XMX:X=   X = - > @ 6 v T R  .`  . . . .` /  .v.(.U.U.3. ./ / / n T 9.2.Y.B.JXJXJXJXJXJXJXJX",
"JXJXJXJXJXJXJXn.7XE.T.H.b -.9.8.9.6.6.6.6.6.6.6.2.6.1.1.1.7.1.1.6.9XcXeXa X O @ +     X r f g @X@X@X@X@Xd > O         . = .       X     . . #Xu X . . O @ + - u +X;XmXmX>X-     + : s : o x G T / ` /  ./  ./ o.Z.R.G.7.4.7.X./ / ` W n =.8.9.(.{ JXJXJXJXJXJXJX",
"JXJXJXJXJXJXJX(..XK.L.{ G 6.2.9.6.6.6.6.6.6.6.6.6.6.1.1.1.1.<.<.7XxXtX|.4 X 1 - = O   > d h #X@X@X#X%X#X%X@Xd -       @ O .             . t *X= . O 1 : g ;X:XMXmXmXmXMXMXt     + > y t # 6 H T / `  . ./ ` / M.Y.4.) A ( 7.*.^ / / / b T 2.,.G.x.JXJXJXJXJXJXJX",
"JXJXJXJXJXJXJX{.E.K.F.v -.8.6.6.6.6.6.6.1.1.1.1.1.1.6.<.<.<.<.U.cXpXoX^.< O - : : + - s h @X#X#X%X%X*X*X&X&X*X@Xr O . 1 + .       X O   = s - : #X&X:XnXmXmXmXmXMXmXmXMXmX#X#   O i u y @ 2 v ) / ` ` / / ` ` n.7.~ ( / 3.G.&.A / / / W c ;.,.6./.JXJXJXJXJXJXJX",
"JXJXJXJXJXJXI.[.K.P.+.b 1.5.6.2.6.2.1.1.1.1.1.1.7.<.<.<.<.<.n.gXjXoX.Xa.# + = + = : u j @X#X&X;X:X:X:X:X:X;X:X:X-X#Xs : #   O X . @ # X s %X#X>XNXNXNXNXmXmXmXmXmXmXMXmXmXnXr   . r u r . 2 v T o./ ` / / / / :.7.] o.M.G.6.( ( / / / / n R ,.,.U.j.JXJXJXJXJXJX",
"JXJXJXJXJXJX`.).J.F.G _ 6.6.6.1.7.U.U.H.7.1.1.<.<.:.<.<.<.<.7XkXoX.X.Xw   = : O O t h #X%X-XnXmXmXmXmXMXmXMXMXMXMXmXMX:X%Xy : + + O = u :XNXNXNXmXmXmXmXmXmXmXmXmXmXmXmXMXmX#X.   1 s r   2 x J X. ./ / / / / / >.w.F.0.<./ A / / / / / T n ;.,.n.m.JXJXJXJXJXJX",
"JXJXJXJXJXn.{.K.J.4.v :.1.1.1.7._.E.Y.E.Y.7.<.:.:.<.:.<.<.M.cXeX.X X}.w   + + . + y h #X%X>XmXmXmXmXmXmXmXNXNXNXmXmXmXNXNXnX&Xg t s ;XMXNXmXmXmXmXNXmXmXmXmXmXmXmXmXmXmX>XMX:X1   @ d g . 2 m T  .../ / / / / / ~ _ ' ( A A / E / ^ ^ E R n Q %.=./.{ JXJXJXJXJX",
"JXJXJXJXJXU.[.q.F.) A 6.<.1.<.G.U.O.O.3.H.J.7.:.:.:.:.:.:.uXfX X X XW.q @ @ . . 1 s @X#X&XnXmXmXmXmXNXmXNXmXmXNXmXmXNXmXmXmXNXmXMXmXNXmXmXNXmXmXmXNXmXmXmXmXmXmXmXmXNXNX>XnXnX>   + d d + * z G [ ..` / / / / ^ / ( A E / / E E / / ^ / / Z Z %.%.M.c.JXJXJXJXJX",
"JXJXJXJXJX`.Y.F.w.b ' <.<.<.<.G.D.&.=.&.] 7.4.*.:.:.:.:.(.cX.X X X~.W.0 . O O   + u +X#X-XmXmXmXmXNXNXmXNXmXmXmXmXmXmXmXNXmXmXmXNXmXmXmXmXmXmXmXmXmXmXmXmXmXmXmXmXmXBXNXnX>XmXi   # u d @ & z J _ ....R ^ / / ^ / ^ / / / / A / ^ E / / / W n ! $.4.Z.JXJXJXJXJX",
"JXJXJXJX4.[.J.q.4.v :.<.<.<.:.n.F.w.7.:.=.w.3...:.:.*.:.hXtXE.).~.E.Q.q         = u h #X-XMXmXmXmXNXmXNXNXmXmXmXmXNXmXmXmXmXmXmXmXmXmXNXmXmXmXmXmXmXmXmXmXmXmXmXmXmXBXNXnX>XmXf   1 f =   & 8 N _ ...._ W / / / ^ / E ^ / / / ^ / / / / / / n R $.$./.| JXJXJXJX",
"JXJXJXJXI._.q.q.) T <.<.:.:.:.=.4.F.F.H.U.Y.X.*.*.:.;.Z.kX XE.T.T.T.Q.0         - s h #X;XmXmXmXmXmXmXNXmXmXNXmXmXmXmXmXmXmXmXNXmXNXmXmXmXmXNXmXmXmXmXmXmXmXmXmXmXNXNXNX>X>XmXd X + k y . & 8 v ( ' ..` W / / / / / / / / E / / / / / / E E Z Z ! ! m.f.JXJXJXJX",
"JXJXJXJX(.R.q.q.b _ <.:.:.:.:.:.X.] 7.q.F.3._ =.*.=.*.9XrXT.T.Y.Y.P.D.0         - u +X%X-XmXmXmXmXmXmXNXmXmXNXmXmXmXNXNXmXmXmXmXmXmXmXmXNXmXmXNXmXmXmXmXmXmXmXmXmXNXNXNX:X>XmXd # + t g # & 8 v ( `  . .W E / / / / / / / / / / E / E ` ` E R n ! ! v.z.JXJXJXJX",
"JXJXJXJX}.J.q.7.n #.<.=.:.=.:.*.=.&._ [ ) _ *.*.*.*.n.lX).Y.L.K.K.F.@.*         1 u h #X;XMXmXmXmXmXNXmXmXNXmXmXmXmXmXmXmXmXmXmXNXmXNXmXmXmXmXmXmXmXmXmXmXmXmXmXmXNXBXMX;X>XmXf . 1 i >   + 8 v ~  . . ./ A / / / / / E / ` E ` / ` E ` E  .` n R  .X.B.JXJXJXJX",
"JXJXJX4.[.F.e.+.n :.:.:.=.=.=.:.*.=.*.*.$.*.*.*.*...].yXL.K.J.J.J.q.@.*         = y g #X-XMXmXmXmXmXmXmXmXmXmXmXmXmXmXmXmXmXmXNXmXmXmXNXmXmXmXmXNXNXmXmXmXmXmXmXmXNXBX>X;X>XmXs . O r y   & 9 c Y `  . .` Z / / / / E / E ` ` E ` /  .` E ` ` b Z ! ` m.| JXJXJX",
"JXJXJXM._.q.J.) Z :.*.=.=.*.*.*.*.*.*.*.*.*.$.&.$.*.hX.XJ.J.F.F.q.q.4.<         + y g #X&XnXmXmXNXmXmXNXmXmXNXNXmXmXNXmXNXmXmXmXNXmXNXmXNXmXNXmXmXmXmXNXmXmXmXmXmXNXmX;X;XnXmXs . O y t X 1 8 c Y _ ` `  .W ^ E E ` ` ` E ` ` E ` 3.o.`  .`  .Y Z E  .M.f.JXJXJX",
"JXJXJX/.).F.G.J ^ =.*.*.*.*.*.*.*.*.*.=...*.X.....b.gXY.e.q.e.q.q.w.4.0         O t +X#X&XnXmXmXNXmXmXNXmXNXNXmXNXmXNXNXmXmXmXmXmXmXNXNXmXNXNXmXNXmXmXmXmXmXmXmXmXNXnX-X;XMXmXs . O s s . $ 8 c T E ` ` ` E Z ` ` ` ` E `  .X.o.v.}  .^ `  . .R n / / v.l.JXJXJX",
"JXJXJX(.).G.H.v  .*.*.*.$.*.*.*...*.......*.*... .(.uXq.q.q.q.q.q.0.r.e         # y @X#X#XnXmXmXmXmXmXmXmXmXmXmXmXmXmXmXmXNXmXmXmXNXmXmXmXmXmXNXmXNXmXmXmXmXmXmXmXmX>X&X:XmXmXf   # t y O $ 8 c ( _ ` ` ` E Z E ` ` ` ` 3.v.v.3.o.X. .Z E  .! ! n / / o.l.JXJXJX",
"JXJXJX}.R.Y.n.v X.*...*...*.*.$.X.*.*.....X.X.....9X.X0.q.q.q.q.0.9.5.M X       + u h g @X>XmXmXmXmXmXmXNXmXNXmXmXNXNXNXNXmXmXNXNXmXmXNXNXNXmXmXmXmXNXmXmXmXmXmXmXmX>X&X;XMXNXd   X - -   $ 8 c ~ / / `  .E Z E E  . . . . .Q R ( Z Z Z E ..! ..b Y E o.B.JXJXJX",
"JXJXJX].).).m.n ..*.*.*.*.....*.*...............o.hXW.0.q.0.w.q.0.0.8.K #       = s d f +X>XmXmXNXNXNXNXNXNXNXmXmXNXmXNXmXmXNXmXmXNXNXNXmXmXmXmXmXNXmXNXNXNXmXNXmXmXMX;X&XnXmXh X   > r   < z c Y / / / E  .Z A  . . . .` Z Z Y W E  . ...! ..! Z Z / ` B.JXJXJX",
"JXJXv.7X)._.j.n *.*...*.................X. .X. .v.hXG.9.q.9.9.9.0.r.8.P &       = s f u h :X>X-X#X@X@X@X*X*X;XmXmXmXmXNXNXmXNXmXmXNXNXmXmXNXmXNXNXmX:X-X-X-X-X;X;XnXmX:X-X>XNX*X.   : r   2 C n Y / / / / / W Z ! Q ! !  . ...! ! ! $.! $.! ! $.Y Z / / Z.L JXJX",
"JXJXb.wX[.[.f.b ........v.n.v.3.X.X..... . . . .M.uXF.9.9.9.9.9.8.8.5.I &       : f s y d &Xy + . X   X X . = @XmXmXmXmXmXNXmXNXNXNXmXNXNXmXmXmXnXg : + + + O @ 1 u ;XnX;X:XmX:X=   + = X * 8 c T ^ / / / / W Z ! ! ! ! ! ! ! ! ! $.! $.$.! $.! R n E E m.y.JXJX",
"JXJXm.rX[.XXf.Z X...X...M.[.{.7X{.].].v. .X. . ./.7X9.9.9.8.8.8.8.8.I < 1       > d s t u t X . + 1 O .       1 &XmXmXmXmXmXmXNXmXmXmXmXmXmXNXnXs .       X .     X s :X;X;XmXMXt     X O > p m b ~ E / / / ^ b ! ! ! ! ! $.! ! $.$.! ! %.! $.%.Q n Q E m.f.JXJX",
"JXJXm.uX7X7Xy.Z ........(.{.(.].7X9XuXz./  .` ` 6X{.9.9.w.8.w.w.8.w.M ; - @     r k u t : O = u #X-X&X%Xg > 1 . - *XmXNXmXmXNXmXNXmXNXmXmXNXnX+X> t u u d h h k u : + u &X;XMXmXk       - : r m n ~ W / ^ / W Z Q %.! ! ! ! $.$.! $.%.! %.%.$.$.! b E ` z.f.JXJX",
"JXJXZ.fXwXrXL Z X... . .v.A.h.( | h.N.| / ` ` ` 7X`.9.6.9.6.8.8.8.>.) 4 - +   . t k s i t t %X>XMXnXnXnXnX#Xt - . 1 #XNXNXmXmXNXmXmXmXNXNXnX@Xy h ;X>X>XMXMXMXMXMX:Xd - i &X>XmX%X.   1 - @ 3 z n A / / / / / Z Q ! ! ! ! $.! $.%.! %.$.%.%.$.%.$.b / ` M.f.JXJX",
"JXJX/.fXuXuXB Y .. .X. .` ( | ` ` ` / / ` ` ` ` 9XR.2.6.9.6.1.8.1.5.O.7 @ X   + u g d s g #X:X>X-X-X-X&X&X@Xd t - X - ;XmXmXmXmXmXNXmXmXnX@Xs g %X&X&X:X:X>X>X>XmXNXMX%Xu @X:XmX;X+   + . o 3 z n A / / / / ^ Z R %.%.%.%.$.%.$.%.%.%.%.%.%.%.%.$.b `  .M.f.JXJX",
"JXJX/.lXfXfXB W .. . . . .` ` ` ` ` ` ` ` ` / ` 9XU.6.6.1.1.1.5.1.>.O.7 X     , d h d g @X#X*X@X&X:X>X>X:X;X#Xy > @ . u >XNXNXmXmXmXmXnX#Xs +X#Xg s @X>X>X>X:X%X-XnXNXmX&X@X;XmX:X1       $ 7 x A ( / / / / E Z R ! $.$.%.$.%.$.%.%.%.%.;.%.;.;.%.b ' ..M.l.JXJX",
"JXJX'.lXfXhXB W  .` ` ` ` ` ` ` ` ` ` ` ` / ` ` 9Xn.6.6.1.1.1.1.1.1.-.7       t @X#X#X;X%X+Xu g &X-Xg t t g d - - O X O g >XmXmXNXNXnX%Xk +X@Xk y u +Xg k +X@Xg +X&XnXmX:X*X;XmX>X-       % 8 c Z ^ E ` / / E Z R %.%.$.%.%.%.%.;.%.;.;.;.;.;.,.%.Z ....M.g.JXJX",
"JXJXA.xXzXzXV Z  .` ` ` ` ` / ` ` ` ` ` ` / / ` 9XG.1.1.1.1.1.1.1.>.-.7     . u #X%X-XnX:Xh t +XGX>X> = t @XBXh = X X X = %XmXmXmXmX;X@X@X+Xu r s :Xf = > s ;X%Xs h ;XnX;X&X-XnX>X-       2 8 n ( ^ / ` ` `  .A R %.%.%.%.;.n.n.b.4.7.:.,.,.,.,.;.T X.*.n.l.JXJX",
"JXJXA.CXlXzXy.A ` ` ` ` / ` ` ` / / / / / / / ` 0XQ.1.1.1.<.<.<.,.:.-.7     O d %X&X;XMXMX#Xt ;XHXnXr - u @XHXNXt O . X # +XmXmXmXmX:X&X*X@Xs u MXGXd - +Xg BXGX%Xd -X:X>X-X-XnX>X-       2 z n ( / ` `  . . .Z R %.%.;.%.r.v.] ` &.=.4.=.,.,.,.%.T -.%.I.g.JXJX",
"JXJXA.CXzXzXD Z ` ` ` / ` / ` / / / / / / / ` / 0XU.,.1.,.>.<.>.>.;.O.7     O d *X-X;XmXmX;X#X:XMX>X-X%X&X>XnX-Xh t > - - #XmXmXmXmX>X>XmXnX;X#X:XmX-Xh #X-XBXBX>X*X,XMXmX:X-XnX>X-     X 5 z b ^ `  . . .....A Q ;.,.,.,.4._ R _ _ / 3.#.;.,.2.;.T >.>.I.g.JXJX",
"JXJXA.CXxXCXD Z ..A / ` / / / / / / / / / / E E 6XU.,.<.<.>.:.;.:.:.#.7     O f &X-X;XMXmXNXMXMXMXNXNXNXNX>X-X#Xh #X@Xu r -XNXNXNXmXMXNXNXBXnX#X+X&X;XnXmXNXmXmXmXMXmXNXmX>X;XnX:X+     @ 9 x T /  . .......&.Z Q ,.,.,.,.>.' =.,.<.=.:.O.%.2.1.;.T >.1.U.g.JXJX",
"JXJXZ.CXVXCXg.Z  . .A  ./ / / / / / / A / / / E A.(.,.,.<.=.=.,.;.%.&.m X   + f #X-X:XMXmXmXmXnXMXMXMXnX:X-X#X+X#X;X*Xk u :XmXmXmXNXNXBXNXBXNX>X+X+X&X:XnXmXNXNXNXmXmXmXNX>X-XMX:X+     & 8 v R  ...........*.Z ! ,.,.,.,.=.=.7.H.H.G.H.] :.2.2.>.T 5.1.(.u.JXJX",
"JXJXx.VXVXVXS.n A  .A  ./ / A / / / A  ./ / / A Z.].:.,.:.:.=.=.=.-.O.N #   + d %X-X;XmXmXmXmX:X%X%X%X*X%X#X#X&X:X>X;X+Xg >XNXmXNXmXNXBXBXBXNXNX>X#X#X*X;X;X:X>XMXmXNXmXmXnX:XmX;X=     2 z v ( ......$.*.*.*.b %.,.,.,.2.=.] =.6.6.H.-.' 2.8.8.;._ 5.6.(.y.JXJX",
"JXJXz.zXzXzXN.n A  . .A / / v.A.6X].M.o.E / / / v.7X;.;.;.=.;.*.*.*.&.J $   + h ;X-X;XmXmXNXNXMX:X%X#X#X#X-X>XmXMXMX>X#X+XnXNXmXmXNXNXNXNXNXNXNXNXnX-X%X*X;X:X>XmXNXNXmXmXMX>XmX:Xy X # 7 x Z ' X.*.$.*.*.=.&.b ;.2.,.2.1.1.<.' [ ] ' ' >.8.8.8.-.' 9.9.(.L JXJX",
"JXJX} zXzXzX6Xn !  .A  ./ A.hXlXuXhXfXA./ A / E h.7X:.=.*.=.*.%.%.*.$.) 2 = r @XnX;X;XnXmXmXNXNXmXMXnXnX>XnXmXNXMXMX>X#X%XmXNXNXNXmXNXNXNXNXmXNXmXmXMX>XnXnXmXNXNXNXNXmXNXMX>XmX>Xu . $ 7 c T #.*.*.*.=.:.<.#.b ,.2.2.2.2.2.2.2.1.1.1.2.8.8.8.8.O.O.0.q.'.B JXJX",
"JXJXJXhXzXgX6Xc E E E E o.fX6Xz.h.f.z.7X} E / E ` 9X3.%.*.*.*.$.*.$.#._ 8 y d #XMX:X;XnXmXmXNXmXmXNXmXmXmXmXNXmXmXMX>X*X-XmXNXNXNXNXNXNXmXNXmXNXNXNXmXmXNXNXNXNXNXNXNXNXNXmXnXmX>Xd @ * 8 v _ %.*.:.:.:.:.<.Q T 8.2.2.2.2.2.8.8.8.8.8.8.8.8.8.9.O.;.0.q.^.JXJXJX",
"JXJXJX8XlXfX8Xc A / / A v.uX} A A Z } 7Xh.W / / / ].M.%.*.*.*.%.#.$.#.Q m g #X#XmX>X;XnXmXNXmXNXmXNXNXNXmXNXNXmXNXMX>X&X:XNXNXNXNXmXNXNXNXmXNXNXNXmXNXmXNXNXNXNXNXBXNXNXNXmXnXNX:X+X> < z G O.-.:.:.:.:.>.1.G ' 8.8.2.8.8.2.8.8.9.8.9.8.0.9.0.9._ 5.0.K.B.JXJXJX",
"JXJXJX'.gXuXuXB Z / / / o.7XA.M.v.m.{.{.| E / / E m.(.*.*.*.....#.#...' B j #X#XMXMX;X>XmXNXNXNXNXNXNXNXNXNXNXNXmXnX:X&X>XNXmXNXNXmXmXmXmXmXmXmXmXmXNXNXNXNXNXNXNXNXNXNXmXnX>XNX;X$Xd q x G ' ;.<.<.<.1.1.1.b ;.8.8.8.8.2.9.6.9.9.8.9.9.9.0.0.w.) 8.0.Y.l.JXJXJX",
"JXJXJXZ.gXrXwXy.Z / / / ( z.7X7X7X{.`.h.W ` / / ` o.].=...$...*.......' K g @Xg nXnX-X:XmXNXNXmXNXNXNXNXNXNXNXNXnX&X#X#XMXNXmXNXNXmXmXmXmXmXMXMXmXmXNXNXNXNXNXNXNXNXNXNXmX:X>XmX:X@X1Xk x J -.-.<.1.1.1.8.-.G 8.8.8.8.8.9.9.0.9.0.0.0.9.0.0.q.7.O.0.0.W.u.JXJXJX",
"JXJXJXz.hXwXwXc.n / / / E / | h.j.{ ~ W E /  ./ ` ` ].v...*...........' ~ S a S nXMX%X&XMXBXNXNXNXNXNXBXBXNXNXnX%X%X%X%XMXNXNXNXmXmXnXnXmXmXnXnXnXMXmXmXNXNXNXNXNXNXBXNXnX-X,XBX:Xs g a x ) %.8.7.1.6.6.0._ ) 8.8.9.9.9.9.0.9.0.0.0.q.q.q.q.F.>.O.0.0.(.y.JXJXJX",
"JXJXJX} 9XqXXXZ.n E / / E E E E ^ E /  . .E E  .` ` m.m...............` ~ J c M 3XnX$XF :XBXBXNXBXBXBXBXBXBX>X#X#X;X#X&XNXNXNXmXmXmX>X:XMXnX>X:X:XnXmXNXNXNXNXNXNXBXBXNX:X*X>XNXp.0 0 e H ) >.8.6.6.6.6.w.b -.9.9.0.9.0.9.0.0.0.0.q.q.q.q.F.F.+.>.0.w./.B JXJXJX",
"JXJXJXJX6XqX[.`.N A ` E ` ` ` ` E ` E  .` `  .`  .` o.].*..... . . . . ./ ~ b N 3XnX@Xd &XmXBXBXBXBXBXBXNX:X%Xg *X;X#X;XNXmXNXNXmXmX>X>XMX>X;X:X-X&X>XNXBXNXNXBXBXBXNXnX&X#X>XmXS 8 x H ) -.r.8.6.6.9.0.-.b 0.9.0.0.0.q.0.0.F.q.q.F.F.F.F.K.K.{ 5.8.G.B.JXJXJXJX",
"JXJXJXJXB.wX).).A Z ` ` E ` ` ` ` `  .` ` `  .!  . . .(.v. . . ...` `  . ./ ^ A s.MX@Xs +X;XNXBXBXBXNXMX&X#X-Xh +X-X@X&XmXNXmXmXmXmX>X:X>X;X&XnXnX#X@X>XNXBXBXBXBXNXnX-Xh @XnXMXe x G O.-.>.8.8.9.9.0.q.J _ q.0.0.0.K.K.F.F.F.G.G.F.G.G.K.K.H.O.8.5.U.g.JXJXJXJX",
"JXJXJXJXj.wX).E.{ b  .Q / ` ` ` `  .`  . . . .!  .! ! v.A. . . .` ..` `  .` / ~ S.nX@Xs d #XnXNXBXNX>X%X#X;X:Xu = t r d >XmXNXNXNXMX&Xh h @X;XmXNX:Xd @X:XNXBXNXNXnX-Xh u h nX,Xm H @.r.,.8.9.0.0.0.q.4.v 5.q.q.q.F.G.7.6.H.G.G.H.n.G.Y.Y.Y.b.O.6.6.(.t.JXJXJXJX",
"JXJXJXJXJX].R.Y.b.c E `  . . .`  .!  .! !  ... .! ......(.3. . .` ` ` ` ` ` ` R f.,X+Xu i d -XMXNX:X%X+X-X-Xd = X . X + y -X>X>X;X+Xt > u -XnXmXmXmX#Xi +X:XMXmX>X-Xg i i h MX1X8 G >.8.8.0.8.0.0.0.e.) ) F.F.F.F.J.b.] -.=.7.7.:.+.G.Y.R.E.@.>.7.7.B.JXJXJXJXJX",
"JXJXJXJXJXA._.F.F.V Y Q `  .!  . . . .! ! ! ! ..$.! ! ! v.Z. .` ` ` ` ` ` / / ^ y.<XF y r y g -X-X+X@X;X&Xu = .           = : - = > i @X:XmXmXmXmXmX:Xs y h &X&X+Xs t y y +XMXi.x ) r.9.0.0.0.0.q.e.7.v 7.K.G.F.G.G.G.G.b.} ] *.*.} R.).E.U.} >.<.n.l.JXJXJXJXJX",
"JXJXJXJXJXc.[.F.J.[ b ! ! ` ! ! ! ! ....! ! ..*.....! $.$.A.o.` ` ` ` ` ` / / ^ A $Xg r > r y d g @X-X-Xu + X X         X X     + y ;XmXNXmXmXmXmXmXmX@Xt u d u y t t t t F >XS H ) r.0.q.q.e.e.e.e.J ) J.F.G.G.K.K.Y.Y.R.Y.M.+.~ j.).)._.I.] :.:.(.y.JXJXJXJXJX",
"JXJXJXJXJXJX|.J.q.5.n Q ! ! ..! ! ! ..! $.3.n.H.$.! $.$.$.=.Z.` _ / / / / / / ^ Z S u : i d t y j %X*Xf O             X X X . + t &XNXBXBXNXNXNXmXmXmX>Xd r r t y i y t y @X-Xm H -.9.0.e.e.e.e.e.-.v D.G.Y.Y.Y.Y.Y.R.R.R.).).).(.`._._._.j.*.:.7.B.JXJXJXJXJXJX",
"JXJXJXJXJXJXB.R.9.8.T T ! ..! ......*.4.H.H.5.;.R $.$.$.$.$.M.v./ / / / / / / / A B r - g &Xs s -X;X@Xt .             X . + : f :XBXBXBXBXmX>X:X&X%X@Xh s r g #X*X&Xh y u +Xp.m I >.q.e.e.e.e.e.e.H @.T.Y.Y.Y.R.R.).).).).).)._._._.[.[.`.{ =.=.n.l.JXJXJXJXJXJX",
"JXJXJXJXJXJXf.`.9.0.$.n ! $...$...4.H.H.<.*.Q T Q $.%.$.%.%.%.m.o./ / / / / / / E Z 2 + +X:X+Xg :XmX:X@X+               ; f &XmXBXBXNXMX;X+Xu r = + O # = +XMXNXmXMX*Xi s k a N @.r.e.e.e.e.J.P.) J Y.R.R.R.R.).).).).`._.[._.[..X{.{.{.x.] *.*.Z.B JXJXJXJXJXJX",
"JXJXJXJXJXJXJX/.F.8.2.b R $.! $.#.-.<.,._ R Q %.%.%.%.%.%.%.%.>.M./ / / / / / / / A w O h :X#Xg >XmXmX&Xr     - r t r = : +X>XmXmX:X#Xf y i i u -   X : #XMXNXmXNXMX#Xs h s e H @.w.e.J.e.P.P.@.N I.R.).).).).`._._._.[.[.[.[.XX{.XXXX{.{ #.$.3.N.JXJXJXJXJXJXJX",
"JXJXJXJXJXJXJXc.R.1.2.' b $.$.$.$.$.! %.Q #.%.%.%.%.;.;.;.;.,.;.v.j./ / / / / / / A m $ g :X&Xf ;XmXmX:Xs 1 X u NXHXGXmX:X:X>X>XnX>XnX>XnXGXGXGXg + t &XMXmXmXmXmXMX@Xg %Xa e I @.e.e.P.P.P.D.N j.).)._._._._.[.[.[.[.{.{.XX7XXXqXqXwXA.` ....m.y.JXJXJXJXJXJXJX",
"JXJXJXJXJXJXJXJX/.w.2.,.b Q $.$.$.$.Q R Q %.%.;.;.;.;.;.;.;.,.,.:.v.o.( / / / / / / c ; s ;X;Xd %XmXmX>X@Xt = 1 @XBXHXHXHXHXHXHXHXHXHXHXHXHXGX;Xt s &XnXmXmXNXmXNXmX@Xh 1Xa U @.r.P.P.P.L.P.H { _._._.[._.{.}.`.[.7XXXqXqXqXqXwXwXwXwXf. . .3.N.JXJXJXJXJXJXJXJX",
"JXJXJXJXJXJXJXJXz.R.<.2.Q Z %.%.%.%.%.;.%.;.;.;.;.;.,.,.,.,.,.,.<.<.v.} / / E / / / A 3 t -X:Xg j MXmXnX&Xu > = : y u nXGXHXHXGXHXHXHXGXGXGXBXf d -XMXmXmXNXNXNXNXMXj h p.e H @.P.P.P.L.K.J L _.[.[.[.[.{.M.X.X.v.`.wX7XwXwXwXwXrXuXA.[  . .M.u.JXJXJXJXJXJXJXJX",
"JXJXJXJXJXJXJXJXJ /.5.,.%.b Q %.%.;.;.;.;.;.;.;.,.,.,.,.,.,.,.,.2.<.:.j./ / E E / / A C : %X>X#Xf nXNXmX:Xg t = O X   : MXHXGXGXGXHXGXGXGXBX:X%X:XmXmXmXNXNXNXmXNX>Xs h F m I OXP.L.L.P.I K `.[..X{.XX{.m.( h.( E X.].9XrXrXuXuXuXuXh.`  .o.N.M JXJXJXJXJXJXJXJX",
"JXJXJXJXJXJXJXJXJXc.U.,.;.Q b ;.;.;.,.;.,.,.,.,.,.,.2.,.,.2.,.2.2.2.,.:.+.[ / ` `  .^ V ; k >X-Xf :XNXNXMX%Xy +       : &X>XBXBXGXMXnX;X&X*X&X:XmXNXmXmXNXNXmXNXNX;Xy g a U @.Q.P.!.!.I K |.XX{.qX{.7X}.X.h.7X'.} A o.9XuXuXyXuXfXV.(  .` M.y.JXJXJXJXJXJXJXJXJX",
"JXJXJXJXJXJXJXJXJXJX/.7.;.%.G Q ,.,.,.,.,.,.,.,.,.,.,.2.2.2.2.2.2.2.2.2.>.} } `  . ._ ( 3 y :X>Xg -XBXNXNX:X>       O - > s #X%X*X%X&X&X-X:XnXmXNXmXNXmXmXmXmXmXmX#Xr a e I OXQ.!.P.K K |.XXqXqXqXwXwX}.` } ].uX6X| A 7XfXfXfXfX9X{ / / o.N.JXJXJXJXJXJXJXJXJXJX",
"JXJXJXJXJXJXJXJXJXJXf.U.%.%.Q b %.,.,.,.,.2.,.2.,.2.2.2.n.n.7.7.2.2.2.2.8.<.} [  . . ./ M 4 *XnX%X&XNXNXmXg .       + : f -XnXnXnXnXnXMXmXNXNXNXNXmXNXNXNXNXmXmX>Xd > a U I Q.~.Q.H I .XqXwXwXwXwXrXrX9Xh.W o.].uXM.A 0XgXfXgXgXN.^ / ` m.t.JXJXJXJXJXJXJXJXJXJX",
"JXJXJXJXJXJXJXJXJXJXJXx.1.! %.Y R ,.2.,.,.2.2.2.2.2.2.H.v.[ ( ` =.8.8.8.8.9.1.} [ X.X.X.A 4 g >X;X#XnXNXg X       O + : g :XNXBXNXBXBXNXmXnX>XnXmXmXmXNXNXNXNXmX&Xt q e I OXQ.OXU I aXeXwXeXwXuXuXuXuXuX7X| W X.M.} g.hXgXgXlX6X| E E v.S.JXJXJXJXJXJXJXJXJXJXJX",
"JXJXJXJXJXJXJXJXJXJXJXy./.*.$.! Z ! 2.2.2.2.2.2.2.2.n.o.( A _ ^ ^ >.9.8.9.9.9.w.O.) ..*.' m r -X>X%X:X+XO     X y t 1 + > d *X;X:X;X-X*X#X+X%X;XnXmXmXNXNXNXNXnX+X: 0 U @.OXI B B.wXrXuXrXrXyX9XuXyXyXfXfX0Xg.( A g.8XzXlXlXdXf.E E ` B.B JXJXJXJXJXJXJXJXJXJXJX",
"JXJXJXJXJXJXJXJXJXJXJXJXz.M.! ..E b ;.2.2.2.2.2.2.9.3.Z ( <.9.b.W ] 9.9.9.0.9.0.0.>.) _ #.J q h >X%Xf O       i nXh = X # = > r t r > > t d #X:XnXmXNXNXNXNXmX-Xu < e U P M L 6XrXrXuX9XyXyXfXfXfXfXgXfXgXgXlX8X8XgXlXlXcXzXN.( E / z.u.JXJXJXJXJXJXJXJXJXJXJXJX",
"JXJXJXJXJXJXJXJXJXJXJXJXJXB.b. .! Y T 8.8.8.8.8.8.5.[ ~ 6.q.H.3.Y O.0.9.0.0.9.0.q.q.w.O.) ) M i ;Xi         : >XnXg +   O 1 - - : > t s @X-X:XMXmXmXNXNXmXNXnXh : q e m m C.rXyXyXyXuXfXfXfXgXfXgXgXgXgXlXlXzXzXcXzXzXzXCX5X( / / v.N.JXJXJXJXJXJXJXJXJXJXJXJXJX",
"JXJXJXJXJXJXJXJXJXJXJXJXJXL Z...Q Q G _ 9.8.8.8.9.<.^ / H.M.o.( ~ 8.0.r.r.b.b.b.7.r.H.F.4.I N a y + ; #   @ &XmX&X- . - u h #X%X%X&X-X:X:XnXmXmXmXmXmXNXNXmX-Xy 1 6 7 d.0XyX9XfXfXfXgXfXuXgXgXgXgXlXlXlXlXzXcXzXxXxXxXCXsX| E / [ B.M JXJXJXJXJXJXJXJXJXJXJXJXJX",
"JXJXJXJXJXJXJXJXJXJXJXJXJXJXf.Z.Q  ./ b #.9.9.8.9.9.[ ( [ [ ( ~ 7.H.b.C.s.=X1X1Xg.k.D.H.K.H.c.0 . > u = X g mX-X: X - h ;XnXmXmXNXNXmXmXmXmXmXmXmXmXmXNXmXnXd = < e a.0XhXfXfXfXfXfXuXZ.m.gXlXlXlXcXcXzXcXxXxXxXCXCXCXvXf.( / / Z.D JXJXJXJXJXJXJXJXJXJXJXJXJXJX",
"JXJXJXJXJXJXJXJXJXJXJXJXJXJXJXz.b.E / E b =.0.0.0.0.9.O.( ( +.w.H.s.=Xp.i t @X-Xj e @.D.U.Q.U o - s > X y MX>Xy X @ s ;XmXNXBXBXBXNXBXNXNXmXmXmXmXmXmXmX>X#X> : e a.5XaXfXgXfXgXgXlXZ.E / 6XxXlXxXzXxXzXCXxXCXCXCXCXzXg.( [ / M.g.JXJXJXJXJXJXJXJXJXJXJXJXJXJXJX",
"JXJXJXJXJXJXJXJXJXJXJXJXJXJXJXJXN.v.E / W G >.0.0.0.q.q.w.F.0.b.s.*Xs +   # +X&Xr $ d.k.I.U @ = u r . + &XnX#X= X > #XMXmXBXBXNXNXNXNXmXmXNXmXNXmXNXmXMX-Xu ; l i.s.sXhXgXgXgXlXlXlXdXh./ h.hXxXxXCXCXCXCXCXCXCXCXVXC.( ` ` v.C.JXJXJXJXJXJXJXJXJXJXJXJXJXJXJXJX",
"JXJXJXJXJXJXJXJXJXJXJXJXJXJXJXJXL B.o.E / Y T 4.q.F.q.F.F.F.U.s.%Xr   . : u &Xh O   0 u.t.& = u y + X > *X:Xu . . t -XMXmXmXNXNXmXmXmXNXmXNXmXmXmXmXMX-Xd : q i.s.4XdXkXlXlXlXlXxXlXxX6X} ] Z.0XhXCXCXCXCXZXZXZXCXV.| / [ v.C.M JXJXJXJXJXJXJXJXJXJXJXJXJXJXJXJX",
"JXJXJXJXJXJXJXJXJXJXJXJXJXJXJXJXJXL Z.} E / Z ~ 7.K.F.F.K.G.C.1Xu X + > @X&X+X-     & w @ = s y + . < > g -Xt . # y &XMXmXmXmXmXNXmXmXmXmXmXNXmXmXnX&Xs : q a s.4XhXlXlXzXcXzXxXxXxXCXxXB.} 3.v.V.CXZXZXZXZXAXSXV.( ] ] v.B.B JXJXJXJXJXJXJXJXJXJXJXJXJXJXJXJXJX",
"JXJXJXJXJXJXJXJXJXJXJXJXJXJXJXJXJXJXy.Z.X.E / ~ J n.K.K.K.I.=X-Xd > d *X-X&Xi + X       + i y = X 4 e q t %Xt # X t &XnXmXmXmXmXmXNXmXmXNXmXmXmX>X%Xs : : a p.2XsXkXzXzXxXxXxXCXxXCXCXCXlXz.3.} 4XZXZXZXAXAXVXV.| X.[ 3.B.D JXJXJXJXJXJXJXJXJXJXJXJXJXJXJXJXJXJX",
"JXJXJXJXJXJXJXJXJXJXJXJXJXJXJXJXJXJXJXf.Z.} / ` W ~ b.Y.Y.B.*X&X-X&X&X@X%XnX@X> O     X t u =   = e d.d.p g y + . - +X:X>X>X:XnXnXnXmXmXmXMXnX:X%Xs : : a i.=X2Xz.v.Z.hXCXCXCXCXCXCXCXZXZX8Xf.2XCXAXZXAXFXVXC.[ ] ] v.B.t.JXJXJXJXJXJXJXJXJXJXJXJXJXJXJXJXJXJXJX",
"JXJXJXJXJXJXJXJXJXJXJXJXJXJXJXJXJXJXJXJXy.Z.o.` .._ J b.W./.a d d y > - s >X>Xi 1     + u -   = l d.s.C.a.l , = # # > k h g j @X#X%X&X-X&X%X#X+Xy = = a p.=X^.) P | / z.zXCXZXCXZXZXZXZXAXCXvXFXFXFXFXFXvXC.} ] ] v.A.t.JXJXJXJXJXJXJXJXJXJXJXJXJXJXJXJXJXJXJXJX",
"JXJXJXJXJXJXJXJXJXJXJXJXJXJXJXJXJXJXJXJXJXy.A.3.X...] ~ j.I.w X       X r #XmXj - X   . - . @ q d.a.^.0Xx.K 0 < O . O = = - : r i s f f f u y , + - a p.=X4Xh.~ sX8X] } 8XZXZXZXZXZXAXZXAXAXDXDXFXFXDXdXl.[ &.3.b.V.D JXJXJXJXJXJXJXJXJXJXJXJXJXJXJXJXJXJXJXJXJX",
"JXJXJXJXJXJXJXJXJXJXJXJXJXJXJXJXJXJXJXJXJXJXy.Z.v.&.*.*.) f.d..         - g MX#X: X       . q d.a.^.9XI._ y.t.x w l p y q p > , 4 , ; & = - , > l p.p.=XsXdX} | sXCXm.] 2XAXZXZXAXAXAXAXAXAXAXDXDXAX4Xf.] &.+.M.V.D JXJXJXJXJXJXJXJXJXJXJXJXJXJXJXJXJXJXJXJXJXJX",
"JXJXJXJXJXJXJXJXJXJXJXJXJXJXJXJXJXJXJXJXJXJXJXL Z.b.=.=.>.) B <         = u >X%X: .       q a a.5X8X7X>.{ 4X6X~ N a.s.a.a.a.p.p.p.F 9 5 l a i.p.a.1X3XsXzXvXv.[ 4XDX6X3.V.AXAXAXAXDXAXAXAXDXDXDXVXV.} &.3.3.I.C.B JXJXJXJXJXJXJXJXJXJXJXJXJXJXJXJXJXJXJXJXJXJXJX",
"JXJXJXJXJXJXJXJXJXJXJXJXJXJXJXJXJXJXJXJXJXJXJXJXB B.I.7.1.>.O.m #       + y ;X%X:       6 a a.2X8XyX(.#.z.gX9X] V 5X4X4X4X4XbX5X2X2XN x a.<X5X=X4XsXvXVXZXZXA.] m.CX7X&.2XDXAXAXAXDXDXDXDXDXAXsXl.} +.3.v./.C.M JXJXJXJXJXJXJXJXJXJXJXJXJXJXJXJXJXJXJXJXJXJXJXJX",
"JXJXJXJXJXJXJXJXJXJXJXJXJXJXJXJXJXJXJXJXJXJXJXJXJXJXl.(.n.6.>.O.0       @ > @Xd =     - a i.2X4XhXhXn.` A.zX].` f.dXzXvXgXvXvXvXvXsX| b 2XdXdXvXVXVXCXZXZXAXdXh.4./.M.l.dXDXDXDXDXDXDXDXDXzXV.f.+.3.3.M.'.a.JXJXJXJXJXJXJXJXJXJXJXJXJXJXJXJXJXJXJXJXJXJXJXJXJXJX",
"JXJXJXJXJXJXJXJXJXJXJXJXJXJXJXJXJXJXJXJXJXJXJXJXJXJXJXu./.U.5.4.K %     X - r : O   & a d.=X8XhXgXzXm.E Z.fXv.( 2XCXlXxXCXCXxXCXSXzX} ( 2XVXSXZXZXZXFXFXFXFXAX8Xz.l.C.vXDXDXDXDXAXDXDXSX4Xl.+.3.3.b.I.A.t.JXJXJXJXJXJXJXJXJXJXJXJXJXJXJXJXJXJXJXJXJXJXJXJXJXJXJX",
"JXJXJXJXJXJXJXJXJXJXJXJXJXJXJXJXJXJXJXJXJXJXJXJXJXJXJXJXB N.`.r.+.M o     . # .   & l i.=X8XhXzXlXxX9Xh.( ] ( g.lXCXCXCXCXCXCXZXZXzXv./ M.5XFXFXFXFXFXFXFXFXAXFXSXSXFXDXDXDXAXDXDXZXsXl.+.+.3.4.D.'.C.M JXJXJXJXJXJXJXJXJXJXJXJXJXJXJXJXJXJXJXJXJXJXJXJXJXJXJXJX",
"JXJXJXJXJXJXJXJXJXJXJXJXJXJXJXJXJXJXJXJXJXJXJXJXJXJXJXJXJXJXu.'.Q.@.m %       X ; l i.=X4XhXzXcXlXCXzXdX2XV.5XzXCXCXZXCXCXZXZXZXZXzXj._ | 2XFXDXFXFXFXFXDXDXFXFXDXDXDXDXDXDXDXSXsXN.@.+.4.4.b.I.^.y.JXJXJXJXJXJXJXJXJXJXJXJXJXJXJXJXJXJXJXJXJXJXJXJXJXJXJXJXJXJX",
"JXJXJXJXJXJXJXJXJXJXJXJXJXJXJXJXJXJXJXJXJXJXJXJXJXJXJXJXJXJXJXB S.^.k.U 0 < q 0 w e a.4XvXxXxXxXCXxXCXCXCXZXZXCXCXZXZXZXAXZXZXAXAXVXV.V.2XFXDXDXDXDXDXFXDXDXDXDXDXDXDXDXDXVX4Xz.@.+.4.4.b.I.'.s.M JXJXJXJXJXJXJXJXJXJXJXJXJXJXJXJXJXJXJXJXJXJXJXJXJXJXJXJXJXJXJX",
"JXJXJXJXJXJXJXJXJXJXJXJXJXJXJXJXJXJXJXJXJXJXJXJXJXJXJXJXJXJXJXJXJXK l.l.P U x M H J L l.5XvXxXZXCXCXCXCXCXZXZXZXZXZXZXZXFXFXFXAXAXFXFXDXDXDXDXDXDXDXDXFXDXDXDXDXDXAXSXsXV.c.+.+.4.3.b.I.|.C.D JXJXJXJXJXJXJXJXJXJXJXJXJXJXJXJXJXJXJXJXJXJXJXJXJXJXJXJXJXJXJXJXJX",
"JXJXJXJXJXJXJXJXJXJXJXJXJXJXJXJXJXJXJXJXJXJXJXJXJXJXJXJXJXJXJXJXJXJXJXt.l.l.{ ) ' -.>.-.&.h.C.4XvXSXZXZXAXZXAXAXAXAXAXAXFXFXFXFXFXDXDXDXDXDXDXDXDXDXFXFXDXAXFXVXsX2Xl.j.+.3.4.4.b.I.|.V.t.JXJXJXJXJXJXJXJXJXJXJXJXJXJXJXJXJXJXJXJXJXJXJXJXJXJXJXJXJXJXJXJXJXJXJX",
"JXJXJXJXJXJXJXJXJXJXJXJXJXJXJXJXJXJXJXJXJXJXJXJXJXJXJXJXJXJXJXJXJXJXJXJXJXd.l.Z.b.>.>.<.:.=.*.] h.z.2XsXvXVXAXFXDXDXDXFXFXFXFXFXFXDXDXDXDXDXDXDXDXFXFXzXdX4XV.c.+.+.3.+.4.b.b./.'.C.t.JXJXJXJXJXJXJXJXJXJXJXJXJXJXJXJXJXJXJXJXJXJXJXJXJXJXJXJXJXJXJXJXJXJXJXJXJX",
"JXJXJXJXJXJXJXJXJXJXJXJXJXJXJXJXJXJXJXJXJXJXJXJXJXJXJXJXJXJXJXJXJXJXJXJXJXJXJXt.l.A.M.7.=.*...*... .` | { g.N.2X4XsXdXvXzXVXSXSXSXSXSXVXzXvXsX4X5XV.N.f.@.} ] +.3.3.4.b.D.(.6XS.D JXJXJXJXJXJXJXJXJXJXJXJXJXJXJXJXJXJXJXJXJXJXJXJXJXJXJXJXJXJXJXJXJXJXJXJXJXJXJX",
"JXJXJXJXJXJXJXJXJXJXJXJXJXJXJXJXJXJXJXJXJXJXJXJXJXJXJXJXJXJXJXJXJXJXJXJXJXJXJXJXJXB u.B.Z.M.7..... . . . .` E / ( / | f.f.f.h.g.g.g.f.f.f.{ | [ [ ] ] ] 3.3.3.3.b.b./.'.C.u.M JXJXJXJXJXJXJXJXJXJXJXJXJXJXJXJXJXJXJXJXJXJXJXJXJXJXJXJXJXJXJXJXJXJXJXJXJXJXJXJXJX",
"JXJXJXJXJXJXJXJXJXJXJXJXJXJXJXJXJXJXJXJXJXJXJXJXJXJXJXJXJXJXJXJXJXJXJXJXJXJXJXJXJXJXJXJXB u.N.Z.M.v.o. .E E E ` / A E E A E E / / / / ` [ ` ] o.O.+.&.3.4.b.I./.A.C.u.D JXJXJXJXJXJXJXJXJXJXJXJXJXJXJXJXJXJXJXJXJXJXJXJXJXJXJXJXJXJXJXJXJXJXJXJXJXJXJXJXJXJXJXJX",
"JXJXJXJXJXJXJXJXJXJXJXJXJXJXJXJXJXJXJXJXJXJXJXJXJXJXJXJXJXJXJXJXJXJXJXJXJXJXJXJXJXJXJXJXJXJXJXM y.g.z.N.m.M.o.o.o.` / E E / / ` ` ` [ ] ] o.3.3.b.m././.V.V.S.t.S JXJXJXJXJXJXJXJXJXJXJXJXJXJXJXJXJXJXJXJXJXJXJXJXJXJXJXJXJXJXJXJXJXJXJXJXJXJXJXJXJXJXJXJXJXJXJX",
"JXJXJXJXJXJXJXJXJXJXJXJXJXJXJXJXJXJXJXJXJXJXJXJXJXJXJXJXJXJXJXJXJXJXJXJXJXJXJXJXJXJXJXJXJXJXJXJXJXJXJXM D y.g.S.N.z.B.N.x.Z.x.m.m.Z.Z.Z.B.B.B.V.N.s.t.D M JXJXJXJXJXJXJXJXJXJXJXJXJXJXJXJXJXJXJXJXJXJXJXJXJXJXJXJXJXJXJXJXJXJXJXJXJXJXJXJXJXJXJXJXJXJXJXJXJXJXJX",
"JXJXJXJXJXJXJXJXJXJXJXJXJXJXJXJXJXJXJXJXJXJXJXJXJXJXJXJXJXJXJXJXJXJXJXJXJXJXJXJXJXJXJXJXJXJXJXJXJXJXJXJXJXJXJXJXJXM M B D D D t.t.t.D B D M m JXJXJXJXJXJXJXJXJXJXJXJXJXJXJXJXJXJXJXJXJXJXJXJXJXJXJXJXJXJXJXJXJXJXJXJXJXJXJXJXJXJXJXJXJXJXJXJXJXJXJXJXJXJXJXJXJX",
"JXJXJXJXJXJXJXJXJXJXJXJXJXJXJXJXJXJXJXJXJXJXJXJXJXJXJXJXJXJXJXJXJXJXJXJXJXJXJXJXJXJXJXJXJXJXJXJXJXJXJXJXJXJXJXJXJXJXJXJXJXJXJXJXJXJXJXJXJXJXJXJXJXJXJXJXJXJXJXJXJXJXJXJXJXJXJXJXJXJXJXJXJXJXJXJXJXJXJXJXJXJXJXJXJXJXJXJXJXJXJXJXJXJXJXJXJXJXJXJXJXJXJXJXJXJXJXJX",
"JXJXJXJXJXJXJXJXJXJXJXJXJXJXJXJXJXJXJXJXJXJXJXJXJXJXJXJXJXJXJXJXJXJXJXJXJXJXJXJXJXJXJXJXJXJXJXJXJXJXJXJXJXJXJXJXJXJXJXJXJXJXJXJXJXJXJXJXJXJXJXJXJXJXJXJXJXJXJXJXJXJXJXJXJXJXJXJXJXJXJXJXJXJXJXJXJXJXJXJXJXJXJXJXJXJXJXJXJXJXJXJXJXJXJXJXJXJXJXJXJXJXJXJXJXJXJXJX"
};
