/* XPM */
static char *dobbscoin32[] = {
/* columns rows colors chars-per-pixel */
"32 32 204 2 ",
"   c #0C0B0A",
".  c #0F0F10",
"X  c #151514",
"o  c #1B1914",
"O  c #1D1C1B",
"+  c #151209",
"@  c #201C11",
"#  c #24211C",
"$  c #222222",
"%  c #2A2822",
"&  c #2C2C2D",
"*  c #282622",
"=  c #322F28",
"-  c #343434",
";  c #3B3C3C",
":  c #353638",
">  c #34332D",
",  c #563F1E",
"<  c #4C3413",
"1  c #5C4B1E",
"2  c #654819",
"3  c #68531D",
"4  c #4A4539",
"5  c #59523B",
"6  c #6A4F21",
"7  c #785A23",
"8  c #454544",
"9  c #4B4B4B",
"0  c #4F4C47",
"q  c #5A5344",
"w  c #565656",
"e  c #5C5C5C",
"r  c #655C41",
"t  c #7C715A",
"y  c #756A45",
"u  c #646464",
"i  c #6A6B6B",
"p  c #7D7667",
"a  c #747474",
"s  c #7B7B7B",
"d  c #7A7870",
"f  c #916318",
"g  c #856823",
"h  c #9A7B27",
"j  c #8A7235",
"k  c #977B34",
"l  c #91692B",
"z  c #A97427",
"x  c #847653",
"c  c #907E64",
"v  c #9D8035",
"b  c #BA8924",
"n  c #B48D36",
"m  c #BAA13E",
"M  c #CB831F",
"N  c #D58A1F",
"B  c #DA8D1E",
"V  c #DB911F",
"C  c #CA8A22",
"Z  c #D58C22",
"A  c #D98D21",
"S  c #D48F28",
"D  c #DC9322",
"F  c #DB9926",
"G  c #DB942B",
"H  c #DC992B",
"J  c #D3972B",
"K  c #C9933E",
"L  c #D79631",
"P  c #DE9A31",
"I  c #D69A3C",
"U  c #C49435",
"Y  c #E39C23",
"T  c #E29C2A",
"R  c #E19721",
"E  c #E19E37",
"W  c #CAA02F",
"Q  c #DBA42C",
"!  c #C9A239",
"~  c #DCA23B",
"^  c #EAA425",
"/  c #EDAA25",
"(  c #E5A42C",
")  c #E9A62A",
"_  c #E5A92C",
"`  c #ECAB2D",
"'  c #E7A423",
"]  c #F0AE29",
"[  c #F1AE25",
"{  c #ECB02E",
"}  c #F4B52C",
"|  c #F9BD2E",
" . c #E2A335",
".. c #E5A93B",
"X. c #E6AA34",
"o. c #ECB333",
"O. c #EAB43A",
"+. c #E6B838",
"@. c #ECBA3B",
"#. c #EDBA35",
"$. c #F1B433",
"%. c #F5BB33",
"&. c #F0BD3E",
"*. c #F9BD31",
"=. c #FCC334",
"-. c #F4C23D",
";. c #FBC43B",
":. c #FBCC3D",
">. c #FEC937",
",. c #FFD13F",
"<. c #9A8548",
"1. c #978458",
"2. c #AA8A45",
"3. c #B8934C",
"4. c #8C826B",
"5. c #908066",
"6. c #888476",
"7. c #BFA761",
"8. c #B5A676",
"9. c #D29C42",
"0. c #C19943",
"q. c #C8A84C",
"w. c #DAA545",
"e. c #D9A94A",
"r. c #DDB04B",
"t. c #DDAC5B",
"y. c #DDB257",
"u. c #E4AD44",
"i. c #E1A445",
"p. c #E5B142",
"a. c #ECB944",
"s. c #E9B746",
"d. c #F1BD43",
"f. c #F0B847",
"g. c #E4B256",
"h. c #D5B868",
"j. c #E5BB68",
"k. c #E3BC75",
"l. c #E8C24D",
"z. c #FBCA42",
"x. c #F5C44C",
"c. c #F4C745",
"v. c #FDD343",
"b. c #FBD34B",
"n. c #FBD94C",
"m. c #E8C959",
"M. c #F5CC54",
"N. c #F2CB5A",
"B. c #F6C957",
"V. c #FDDB54",
"C. c #FADD5B",
"Z. c #F8D456",
"A. c #ECD255",
"S. c #E8CD63",
"D. c #E9C867",
"F. c #F2CC6A",
"G. c #FAD965",
"H. c #FCDC6D",
"J. c #F8D56A",
"K. c #E8C57B",
"L. c #E8D578",
"P. c #EAD576",
"I. c #F6D878",
"U. c #FCE160",
"Y. c #FDE07F",
"T. c #7E7F81",
"R. c #848483",
"E. c #8C8C8C",
"W. c #949494",
"Q. c #9B9B9B",
"!. c #A49E82",
"~. c #A49D93",
"^. c #A3A3A3",
"/. c #ACACAC",
"(. c #B3B3B3",
"). c #BABABA",
"_. c #CBBE90",
"`. c #DDC080",
"'. c #EACC88",
"]. c #EFD284",
"[. c #F4DE8C",
"{. c #F8D985",
"}. c #EBD395",
"|. c #F3D791",
" X c #F5DB98",
".X c #FBE289",
"XX c #FAE696",
"oX c #EFDEA4",
"OX c #F2DDA1",
"+X c #FBE7AA",
"@X c #F5E6B2",
"#X c #FBEEBC",
"$X c #F7ECBD",
"%X c #BFC0C0",
"&X c #C3C3C3",
"*X c #CDCDCD",
"=X c #D1D1D1",
"-X c #DEDEDE",
";X c #F7EFC0",
":X c #F9EEC1",
">X c #FBF2C4",
",X c #FDF7CD",
"<X c #FFFBD2",
"1X c None",
/* pixels */
"1X1X1X1X1X1X1X1X1X1X1X1X1X1X.X.XY.Y.1X1X1X1X1X1X1X1X1X1X1X1X1X1X",
"1X1X1X1X1X1X1X1X1X1XXXXX.XL.P.S.m.A.m.M.M.Z.1X1X1X1X1X1X1X1X1X1X",
"1X1X1X1X1X1X1X1XXXXXL.S.A.Z.V.C.n.v.v.-.+.@.x.B.1X1X1X1X1X1X1X1X",
"1X1X1X1X1X1X1XXXL.m.n.U.U.n.V.J.A.,.M.:.>.=.o.a.I.1X1X1X1X1X1X1X",
"1X1X1X1X1X1X.XS.A.n.n.V.G.,.v.A.:.>.c.;.>.-.%.} s.|.1X1X1X1X1X1X",
"1X1X1X1X1XI.l.b.H.G.v.,.! h g k v h b Q %.d.f.} ] u.}.1X1X1X1X1X",
"1X1X1X1XP.s.:.v.Z.N.+.3 o $ & ; & ; 4 q g J Q ] f.s.w.].1X1X1X1X",
"1X1X1XI.l.:.b.>.>.+.3 X 8 e e T.i R.i i 8 2 b ` j.i.R ..F.1X1X1X",
"1X1XH.l.*.z.B.&.;.k     O X : e s u 0 - : o 2 A T Y Y A ..x.1X1X",
"1X1XN.o.*.*.} *.F.4 . 8 e & . X X - & 8 s ; * l R T ..T Z O.1X1X",
"1XZ.@.o.&.*.$.B.h.% 9 ^.).(.R.8 8 W.(.&X=Xs - 7 A R  .H Z F p.1X",
"1Xx._ $.d.$.$.H.q.X u %X=X=X=X*X&X=X=X*X=XQ.: 6 A A A A Z Z ..1X",
"1Xc.) ] ` ( f.V.m   e %X=X=X*X*X=X*X=X*X*XQ.- 1 Z A A D D N L 1X",
"1Xs.Y T Y T B.:.W + w (.&X&X=X=X*X=X*X&X&XQ.& 2 N A D F A D S 1X",
"I.g.Y s.u.E x.>.b @ 9 i u e /.=X=X%Xa u s ^.& , C N R R Y Y S 9.",
"].j.D P E T d.*.b # i 6.Q.i 9 ).%XE.c Q.Q.^.; < M N R / / / F I ",
"|.k.A A B G d.} b = ^./.Q.W.9 W.*XQ.E.^.(.).; 2 A D ' ` ` / _ e.",
" X`.Z E i.G f.] C 4 /.*X(.(.^.).=X=X(.%X=X&X0 f ^ Y / } o.} o.r.",
"1Xk.Z g.g.G u.) J 5.(.*X*X*X).&X=X*X=X=X=X&Xd b } _ | =.=.*.&.1X",
"1XK.S G T D  .T R n ~.&X=X(.W.&X%X).).=X&X/.<.Q *.` =.;.:.c.@.1X",
"1XB.H R R R T  .R S c T.^.w $ u R.)./.W.T.R.! >.%.d.z.f.x.d.u.1X",
"1X1XX.R ^ _ / ) G A l a E.$ $ w (.^.i T.R.x +.:.s.Z.G.H.J.p.1X1X",
"1X1XO.Y / / [ }  .A z R.(.w a =X-X).W.*X^.<.c.l.J.N.F..XF.I 1X1X",
"1X1Xu.Y / } } ] |  .S c (.w $ W.%X).*X*X6.m m.L.{.g.j.XXi.K 1X1X",
"1X1X1X~ Y | ` ( o.@.+.2.w ; 8 u R./.=X(.y h.[.+X+X XOXk.I 1X1X1X",
"1X1X1X1XL _ %.p.1.t <.j - u u %X*X*X&Xd 8.+X|.K.#X>X'.I 1X1X1X1X",
"1X1X1X1X1XL O.7.e i O - r q w /.(./.a 5.'.#X>X'.#X}.w.1X1X1X1X1X",
"1X1X1X1X1X1X..v o u $ q h.3.x 6.x p !.`.j.+X<X;X'.e.1X1X1X1X1X1X",
"1X1X1X1X1X1X1Xw.2 % 4 `.|.k.oX$XK.}.,X;XoX;XoXj.e.1X1X1X1X1X1X1X",
"1X1X1X1X1X1X1X1X2.j 0.K. X@X,X,X$X$X;X@X}.D.r.q.1X1X1X1X1X1X1X1X",
"1X1X1X1X1X1X1X1X1X1X1X~ 9.i.t.t.j.h.y.e.e.1X1X1X1X1X1X1X1X1X1X1X",
"1X1X1X1X1X1X1X1X1X1X1X1X1X1X1XK K 1X1X1X1X1X1X1X1X1X1X1X1X1X1X1X"
};
