/* XPM */
static char *dobbscoin256[] = {
/* columns rows colors chars-per-pixel */
"256 256 254 2 ",
"   c #010101",
".  c #0B0B0B",
"X  c #0B0905",
"o  c #131313",
"O  c #1B1B1B",
"+  c #1B1914",
"@  c #14120C",
"#  c #251E11",
"$  c #2D2617",
"%  c #232323",
"&  c #2C2C2C",
"*  c #2A2823",
"=  c #333333",
"-  c #3C3C3C",
";  c #3C3933",
":  c #39342A",
">  c #4E350F",
",  c #7A3B04",
"<  c #673201",
"1  c #453C29",
"2  c #79430E",
"3  c #7A4812",
"4  c #715015",
"5  c #514834",
"6  c #6D572E",
"7  c #756431",
"8  c #654E19",
"9  c #444444",
"0  c #4C4C4C",
"q  c #4C4A43",
"w  c #545454",
"e  c #5C5C5C",
"r  c #5B5955",
"t  c #595547",
"y  c #665C47",
"u  c #736A4E",
"i  c #646464",
"p  c #6B6B6B",
"a  c #6F6B60",
"s  c #737373",
"d  c #7B7B7B",
"f  c #7E7B74",
"g  c #767369",
"h  c #813E03",
"j  c #884808",
"k  c #8D590D",
"l  c #95570D",
"z  c #834D13",
"x  c #885815",
"c  c #965B14",
"v  c #914E0A",
"b  c #A35D14",
"n  c #986617",
"m  c #916A1B",
"M  c #A76817",
"N  c #B56C18",
"B  c #AA741B",
"V  c #B8771A",
"C  c #AD630F",
"Z  c #8D5B24",
"A  c #946F2D",
"S  c #A97926",
"D  c #B57A25",
"F  c #A87A38",
"G  c #A96D2A",
"H  c #C47B1B",
"J  c #D07E14",
"K  c #C37D21",
"L  c #89774D",
"P  c #9B7C52",
"I  c #BB821E",
"U  c #B98726",
"Y  c #B78837",
"T  c #B08B30",
"R  c #A38C34",
"E  c #C4831D",
"W  c #CC831E",
"Q  c #CB8A1C",
"!  c #DA8B1C",
"~  c #D5881B",
"^  c #DB931D",
"/  c #CF901D",
"(  c #E3981D",
")  c #EBA41E",
"_  c #F7AF1F",
"`  c #C88923",
"'  c #D48B21",
"]  c #DA8D21",
"[  c #D28822",
"{  c #C99528",
"}  c #DD9222",
"|  c #DD9B2C",
" . c #D89726",
".. c #D99B35",
"X. c #C79437",
"o. c #E19622",
"O. c #E49B23",
"+. c #E59E28",
"@. c #E19E35",
"#. c #DAA42A",
"$. c #DAA634",
"%. c #D0AB39",
"&. c #E6A125",
"*. c #EAA324",
"=. c #EEAA24",
"-. c #EBA528",
";. c #EDAB2A",
":. c #E4A72B",
">. c #F1AD24",
",. c #F1AE2B",
"<. c #EBB22E",
"1. c #F4B226",
"2. c #F4B42C",
"3. c #F7B92D",
"4. c #FABC2C",
"5. c #FAB525",
"6. c #E4AD3A",
"7. c #E3A835",
"8. c #E5B33C",
"9. c #E9B736",
"0. c #F4BB32",
"q. c #F9BD31",
"w. c #F4B937",
"e. c #FDC12E",
"r. c #FDC434",
"t. c #FFC936",
"y. c #FFCC3B",
"u. c #F8C439",
"i. c #FFD13E",
"p. c #ECC23D",
"a. c #968655",
"s. c #B69659",
"d. c #B18D4C",
"f. c #948A6A",
"g. c #AD996C",
"h. c #B6A574",
"j. c #B8A84A",
"k. c #C79A4C",
"l. c #D2AC50",
"z. c #E4A946",
"x. c #E8B746",
"c. c #E7B857",
"v. c #F1BA49",
"b. c #CFB16F",
"n. c #E7BC68",
"m. c #C39A62",
"M. c #E9C649",
"N. c #FECD43",
"B. c #F9C948",
"V. c #FFD443",
"C. c #FFD945",
"Z. c #FFD34C",
"A. c #FFDB4B",
"S. c #F5D44B",
"D. c #F7C956",
"F. c #FFD453",
"G. c #FEDD52",
"H. c #FED55B",
"J. c #FFDB5C",
"K. c #F4D755",
"L. c #EBC757",
"P. c #FEE155",
"I. c #FDE459",
"U. c #FFEA5C",
"Y. c #FFE14C",
"T. c #DCC478",
"R. c #EBC669",
"E. c #F4CA66",
"W. c #FFDB64",
"Q. c #FFDB6B",
"!. c #FBD567",
"~. c #E9C778",
"^. c #FFDD73",
"/. c #FEDE7B",
"(. c #F6D578",
"). c #EFCF75",
"_. c #FFE26C",
"`. c #FFE364",
"'. c #FEE474",
"]. c #FEE37C",
"[. c #FEE97B",
"{. c #DDC349",
"}. c #848484",
"|. c #8B8B8B",
" X c #8C8A87",
".X c #939393",
"XX c #9C9C9C",
"oX c #9C9A93",
"OX c #9B9687",
"+X c #B5AB8B",
"@X c #A3A3A3",
"#X c #ABABAB",
"$X c #ACABA7",
"%X c #B3B3B3",
"&X c #BBBBBB",
"*X c #BAB7B2",
"=X c #B6B5A9",
"-X c #A39D8D",
";X c #C9B989",
":X c #CFB88A",
">X c #C3BEB8",
",X c #D7C792",
"<X c #EAD589",
"1X c #F7DA86",
"2X c #E9D697",
"3X c #F4DC97",
"4X c #E5CB8A",
"5X c #FFE283",
"6X c #FEEB84",
"7X c #FFE48C",
"8X c #FEEC8B",
"9X c #F4E388",
"0X c #FEE594",
"qX c #FEEC93",
"wX c #FDE69B",
"eX c #FFEA9C",
"rX c #F5E49B",
"tX c #FEF295",
"yX c #FEF39C",
"uX c #FFF89D",
"iX c #FDF08B",
"pX c #D8CEA7",
"aX c #E8D9A7",
"sX c #EADCAF",
"dX c #FEEAA3",
"fX c #FEECAC",
"gX c #F6E5A8",
"hX c #FEF5A3",
"jX c #FEF4AB",
"kX c #FFFAA6",
"lX c #FEEEB4",
"zX c #FEEEB9",
"xX c #F4E7B8",
"cX c #FEF4B3",
"vX c #FFF1BC",
"bX c #FEF9B8",
"nX c #ECE2B4",
"mX c #C4C4C4",
"MX c #CDCDCD",
"NX c #D2D2D2",
"BX c #D9D9D9",
"VX c #FFF3C4",
"CX c #FEF6CB",
"ZX c #FEF9CE",
"AX c #FDF9C4",
"SX c #FEFBD1",
"DX c #FFFEDB",
"FX c #FDF6D2",
"GX c #F4ECC3",
"HX c #E7E7E7",
"JX c #FFFFE3",
"KX c #FEFEFE",
"LX c #F4F4F4",
"PX c None",
/* pixels */
"PXPXPXPXPXPXPXPXPXPXPXPXPXPXPXPXPXPXPXPXPXPXPXPXPXPXPXPXPXPXPXPXPXPXPXPXPXPXPXPXPXPXPXPXPXPXPXPXPXPXPXPXPXPXPXPXPXPXPXPXPXPXPXPXPXPXPXPXPXPXPXPXPXPXPXPXPXPXPXPXPXPXPXPXPXPXPXPXPXPXPXPXPXPXPXPXPXPXPXPXPXPXPXPXPXPXPXPXPXPXPXPXPXPXPXPXPXPXPXPXPXPXPXPXPXPXPXPXPXPXPXPXPXPXPXPXPXPXPXPXPXPXPXPXPXPXPXPXPXPXPXPXPXPXPXPXPXPXPXPXPXPXPXPXPXPXPXPXPXPXPXPXPXPXPXPXPXPXPXPXPXPXPXPXPXPXPXPXPXPXPXPXPXPXPXPXPXPXPXPXPXPXPXPXPXPXPXPXPXPXPXPXPXPXPXPXPXPXPXPXPXPXPXPXPXPXPXPXPXPXPXPXPXPXPXPXPXPXPXPXPXPXPXPXPXPXPXPXPXPXPXPXPXPXPXPX",
"PXPXPXPXPXPXPXPXPXPXPXPXPXPXPXPXPXPXPXPXPXPXPXPXPXPXPXPXPXPXPXPXPXPXPXPXPXPXPXPXPXPXPXPXPXPXPXPXPXPXPXPXPXPXPXPXPXPXPXPXPXPXPXPXPXPXPXPXPXPXPXPXPXPXPXPXPXPXPXPXPXPXPXPXPXPXPXPXPXPXPXPXPXPXPXPXPXPXPXPXPXPXPXPXPXPXPXPXPXPXPXPXPXPXPXPXPXPXPXPXPXPXPXPXPXPXPXPXPXPXPXPXPXPXPXPXPXPXPXPXPXPXPXPXPXPXPXPXPXPXPXPXPXPXPXPXPXPXPXPXPXPXPXPXPXPXPXPXPXPXPXPXPXPXPXPXPXPXPXPXPXPXPXPXPXPXPXPXPXPXPXPXPXPXPXPXPXPXPXPXPXPXPXPXPXPXPXPXPXPXPXPXPXPXPXPXPXPXPXPXPXPXPXPXPXPXPXPXPXPXPXPXPXPXPXPXPXPXPXPXPXPXPXPXPXPXPXPXPXPXPXPXPXPXPXPX",
"PXPXPXPXPXPXPXPXPXPXPXPXPXPXPXPXPXPXPXPXPXPXPXPXPXPXPXPXPXPXPXPXPXPXPXPXPXPXPXPXPXPXPXPXPXPXPXPXPXPXPXPXPXPXPXPXPXPXPXPXPXPXPXPXPXPXPXPXPXPXPXPXPXPXPXPXPXPXPXPXPXPXPXPXPXPXPXPXPXPXPXPXPXPXPXPXPXPXPXPXPXPXPXPXPXPXPXPXPXPXPXPXPXPXPXPXPXPXPXPXPXPXPXPXPXPXPXPXPXPXPXPXPXPXPXPXPXPXPXPXPXPXPXPXPXPXPXPXPXPXPXPXPXPXPXPXPXPXPXPXPXPXPXPXPXPXPXPXPXPXPXPXPXPXPXPXPXPXPXPXPXPXPXPXPXPXPXPXPXPXPXPXPXPXPXPXPXPXPXPXPXPXPXPXPXPXPXPXPXPXPXPXPXPXPXPXPXPXPXPXPXPXPXPXPXPXPXPXPXPXPXPXPXPXPXPXPXPXPXPXPXPXPXPXPXPXPXPXPXPXPXPXPXPXPXPX",
"PXPXPXPXPXPXPXPXPXPXPXPXPXPXPXPXPXPXPXPXPXPXPXPXPXPXPXPXPXPXPXPXPXPXPXPXPXPXPXPXPXPXPXPXPXPXPXPXPXPXPXPXPXPXPXPXPXPXPXPXPXPXPXPXPXPXPXPXPXPXPXPXPXPXPXPXPXPXPXPXPXPXPXPXPXPXPXPXPXPXPXPXPXPXPXPXPXPXPXPXPXPXPXPXPXPXPXPXPXPXPXPXPXPXPXPXPXPXPXPXPXPXPXPXPXPXPXPXPXPXPXPXPXPXPXPXPXPXPXPXPXPXPXPXPXPXPXPXPXPXPXPXPXPXPXPXPXPXPXPXPXPXPXPXPXPXPXPXPXPXPXPXPXPXPXPXPXPXPXPXPXPXPXPXPXPXPXPXPXPXPXPXPXPXPXPXPXPXPXPXPXPXPXPXPXPXPXPXPXPXPXPXPXPXPXPXPXPXPXPXPXPXPXPXPXPXPXPXPXPXPXPXPXPXPXPXPXPXPXPXPXPXPXPXPXPXPXPXPXPXPXPXPXPXPXPX",
"PXPXPXPXPXPXPXPXPXPXPXPXPXPXPXPXPXPXPXPXPXPXPXPXPXPXPXPXPXPXPXPXPXPXPXPXPXPXPXPXPXPXPXPXPXPXPXPXPXPXPXPXPXPXPXPXPXPXPXPXPXPXPXPXPXPXPXPXPXPXPXPXPXPXPXPXPXPXPXPXPXPXPXPXPXPXPXPXPXPXPXPXPXPXPXPXPXPXPXPXPXPXPXPXPXPXPXPXPXPXPXPXPX5.5.5._ 5.1.1.3.q.w.u.v.B.B.v.v.B.B.w.q.w.q.3.1.5.1.5._ 5.>.PXPXPXPXPXPXPXPXPXPXPXPXPXPXPXPXPXPXPXPXPXPXPXPXPXPXPXPXPXPXPXPXPXPXPXPXPXPXPXPXPXPXPXPXPXPXPXPXPXPXPXPXPXPXPXPXPXPXPXPXPXPXPXPXPXPXPXPXPXPXPXPXPXPXPXPXPXPXPXPXPXPXPXPXPXPXPXPXPXPXPXPXPXPXPXPXPXPXPXPXPXPXPXPXPXPXPXPXPXPXPXPXPX",
"PXPXPXPXPXPXPXPXPXPXPXPXPXPXPXPXPXPXPXPXPXPXPXPXPXPXPXPXPXPXPXPXPXPXPXPXPXPXPXPXPXPXPXPXPXPXPXPXPXPXPXPXPXPXPXPXPXPXPXPXPXPXPXPXPXPXPXPXPXPXPXPXPXPXPXPXPXPXPXPXPXPXPXPXPXPXPXPXPXPXPXPXPXPXPXPXPXPXPXPXPXPXPXPXPXPX5._ 5.5.4.q.B.H.E.1X1XdXfXcXVXVXAXCXCXCXZXZXAXCXCXCXCXVXvXzXfXdXwX1X(.E.D.B.w.3.5.>._ >.PXPXPXPXPXPXPXPXPXPXPXPXPXPXPXPXPXPXPXPXPXPXPXPXPXPXPXPXPXPXPXPXPXPXPXPXPXPXPXPXPXPXPXPXPXPXPXPXPXPXPXPXPXPXPXPXPXPXPXPXPXPXPXPXPXPXPXPXPXPXPXPXPXPXPXPXPXPXPXPXPXPXPXPXPXPXPXPXPXPXPXPXPXPXPXPXPXPXPXPXPXPXPXPXPXPX",
"PXPXPXPXPXPXPXPXPXPXPXPXPXPXPXPXPXPXPXPXPXPXPXPXPXPXPXPXPXPXPXPXPXPXPXPXPXPXPXPXPXPXPXPXPXPXPXPXPXPXPXPXPXPXPXPXPXPXPXPXPXPXPXPXPXPXPXPXPXPXPXPXPXPXPXPXPXPXPXPXPXPXPXPXPXPXPXPXPXPXPXPXPXPXPXPXPXPXPXPXPX5._ 5.3.q.D.(.0XfXVXCXSXSXSXZXZXAXAXbXcXjXjXjXhXhXyXyXtXyXyXyXeXdXhXhXhXcXbXbXAXAXAXAXvXcXwX1XE.D.w.2.>._ >.PXPXPXPXPXPXPXPXPXPXPXPXPXPXPXPXPXPXPXPXPXPXPXPXPXPXPXPXPXPXPXPXPXPXPXPXPXPXPXPXPXPXPXPXPXPXPXPXPXPXPXPXPXPXPXPXPXPXPXPXPXPXPXPXPXPXPXPXPXPXPXPXPXPXPXPXPXPXPXPXPXPXPXPXPXPXPXPXPXPXPXPXPXPXPXPXPXPXPXPXPX",
"PXPXPXPXPXPXPXPXPXPXPXPXPXPXPXPXPXPXPXPXPXPXPXPXPXPXPXPXPXPXPXPXPXPXPXPXPXPXPXPXPXPXPXPXPXPXPXPXPXPXPXPXPXPXPXPXPXPXPXPXPXPXPXPXPXPXPXPXPXPXPXPXPXPXPXPXPXPXPXPXPXPXPXPXPXPXPXPXPXPXPXPXPXPXPXPXPX5.5.5.q.E./.dXVXDXDXDXSXAXbXcXjXkXhXyXyXyXtXqXtX8XtX8X8X8X8X8X8X8X6X6X6X6X[.6X[.].[.].].[.[.6X8XeXjXcXbXAXbXfX7X(.D.q.>.>.>.PXPXPXPXPXPXPXPXPXPXPXPXPXPXPXPXPXPXPXPXPXPXPXPXPXPXPXPXPXPXPXPXPXPXPXPXPXPXPXPXPXPXPXPXPXPXPXPXPXPXPXPXPXPXPXPXPXPXPXPXPXPXPXPXPXPXPXPXPXPXPXPXPXPXPXPXPXPXPXPXPXPXPXPXPXPXPXPXPXPXPXPXPXPXPXPXPX",
"PXPXPXPXPXPXPXPXPXPXPXPXPXPXPXPXPXPXPXPXPXPXPXPXPXPXPXPXPXPXPXPXPXPXPXPXPXPXPXPXPXPXPXPXPXPXPXPXPXPXPXPXPXPXPXPXPXPXPXPXPXPXPXPXPXPXPXPXPXPXPXPXPXPXPXPXPXPXPXPXPXPXPXPXPXPXPXPXPXPXPXPXPX5.5.5.w.!.3XcXSXDXDXZXbXbXjXhXyXyXtXyXtXyXtXyXtXtXtXtXtXtXtXiXiXiX8XiX8X6X6X6X[.6X6X[.[.[.[.[.[.'.'.'._._._._.'.'.6XqXdXbXbXbXwX(.D.w.>._ =.PXPXPXPXPXPXPXPXPXPXPXPXPXPXPXPXPXPXPXPXPXPXPXPXPXPXPXPXPXPXPXPXPXPXPXPXPXPXPXPXPXPXPXPXPXPXPXPXPXPXPXPXPXPXPXPXPXPXPXPXPXPXPXPXPXPXPXPXPXPXPXPXPXPXPXPXPXPXPXPXPXPXPXPXPXPXPXPXPXPXPXPXPX",
"PXPXPXPXPXPXPXPXPXPXPXPXPXPXPXPXPXPXPXPXPXPXPXPXPXPXPXPXPXPXPXPXPXPXPXPXPXPXPXPXPXPXPXPXPXPXPXPXPXPXPXPXPXPXPXPXPXPXPXPXPXPXPXPXPXPXPXPXPXPXPXPXPXPXPXPXPXPXPXPXPXPXPXPXPXPXPXPXPXPX_ 5.3.B./.lXDXDXSXAXbXkXhXyXyXyXyXyXyXyXyXyXyXyXtXtXtXtXiXtX8X8X8X8X8X8X6X6X6X6X6X6XiX[.[.[.[.].[.'.'.'._.'._.Q._._.W.`.W.J.J.W._.].qXjXbXcX0X(.v.2.) >.PXPXPXPXPXPXPXPXPXPXPXPXPXPXPXPXPXPXPXPXPXPXPXPXPXPXPXPXPXPXPXPXPXPXPXPXPXPXPXPXPXPXPXPXPXPXPXPXPXPXPXPXPXPXPXPXPXPXPXPXPXPXPXPXPXPXPXPXPXPXPXPXPXPXPXPXPXPXPXPXPXPXPXPXPXPXPXPXPXPX",
"PXPXPXPXPXPXPXPXPXPXPXPXPXPXPXPXPXPXPXPXPXPXPXPXPXPXPXPXPXPXPXPXPXPXPXPXPXPXPXPXPXPXPXPXPXPXPXPXPXPXPXPXPXPXPXPXPXPXPXPXPXPXPXPXPXPXPXPXPXPXPXPXPXPXPXPXPXPXPXPXPXPXPXPXPXPXPX5.5.4.H.3XVXDXDXAXbXjXkXyXyXhXhXyXhXyXyXhXyXyXtXyXtXtXtXiXqXiXqXiX8X8X8X8X8X6X9X6X6X6X6X[.[.[.[.[.'.'.'.'.'.'.'._._._._.Q._.W.`.W.W.W.J.J.J.F.W.].0XjXcXdX1XD.,.>.>.PXPXPXPXPXPXPXPXPXPXPXPXPXPXPXPXPXPXPXPXPXPXPXPXPXPXPXPXPXPXPXPXPXPXPXPXPXPXPXPXPXPXPXPXPXPXPXPXPXPXPXPXPXPXPXPXPXPXPXPXPXPXPXPXPXPXPXPXPXPXPXPXPXPXPXPXPXPXPXPXPXPXPXPXPXPXPX",
"PXPXPXPXPXPXPXPXPXPXPXPXPXPXPXPXPXPXPXPXPXPXPXPXPXPXPXPXPXPXPXPXPXPXPXPXPXPXPXPXPXPXPXPXPXPXPXPXPXPXPXPXPXPXPXPXPXPXPXPXPXPXPXPXPXPXPXPXPXPXPXPXPXPXPXPXPXPXPXPXPXPXPXPX5.5.3.H.3XCXJXDXAXbXkXkXyXhXhXhXyXhXhXyXyXyXyXtXtXyXtXtXtXtXtXtXtXuXtXtXtXiXiX8X6X6X].'.].[.].].[.[.[.[.[.[.[.'.'._._._._.Q.`.W.`.W.W.W.J.J.J.J.F.J.F.F.G.F.W.6XyXcXdX(.D.,.=.>.PXPXPXPXPXPXPXPXPXPXPXPXPXPXPXPXPXPXPXPXPXPXPXPXPXPXPXPXPXPXPXPXPXPXPXPXPXPXPXPXPXPXPXPXPXPXPXPXPXPXPXPXPXPXPXPXPXPXPXPXPXPXPXPXPXPXPXPXPXPXPXPXPXPXPXPXPXPXPXPXPXPXPXPX",
"PXPXPXPXPXPXPXPXPXPXPXPXPXPXPXPXPXPXPXPXPXPXPXPXPXPXPXPXPXPXPXPXPXPXPXPXPXPXPXPXPXPXPXPXPXPXPXPXPXPXPXPXPXPXPXPXPXPXPXPXPXPXPXPXPXPXPXPXPXPXPXPXPXPXPXPXPXPXPXPXPXPX_ 5.D.0XCXDXDXAXcXkXkXhXhXhXhXhXhXyXyXyXyXyXyXyXtXuXyXuXuXtXiX9X).).T.l.l.j.j.Y Y T T T S T S R U T T T T Y X.l.l.{.L.K.W.`.`.`.`.`.`.H.J.H.J.J.J.J.J.F.F.G.F.A.Z.Z.A.H.].eXjXdX(.v.=.=.PXPXPXPXPXPXPXPXPXPXPXPXPXPXPXPXPXPXPXPXPXPXPXPXPXPXPXPXPXPXPXPXPXPXPXPXPXPXPXPXPXPXPXPXPXPXPXPXPXPXPXPXPXPXPXPXPXPXPXPXPXPXPXPXPXPXPXPXPXPXPXPXPXPXPXPXPXPXPXPXPXPX",
"PXPXPXPXPXPXPXPXPXPXPXPXPXPXPXPXPXPXPXPXPXPXPXPXPXPXPXPXPXPXPXPXPXPXPXPXPXPXPXPXPXPXPXPXPXPXPXPXPXPXPXPXPXPXPXPXPXPXPXPXPXPXPXPXPXPXPXPXPXPXPXPXPXPXPXPXPXPXPX5.5.q.(.vXDXDXAXbXkXhXhXkXhXhXhXhXhXyXhXyXyXuXkXuXkXuXiX(.~.b.l.T U R m m m k k m k k m n n m n m n n m n k k m k k k k m n m n S T X.l.L.K.J.`.I.J.I.F.F.G.F.F.G.F.F.Z.Z.Z.V.V.Z.H.'.yXcX0XE.<.=.=.PXPXPXPXPXPXPXPXPXPXPXPXPXPXPXPXPXPXPXPXPXPXPXPXPXPXPXPXPXPXPXPXPXPXPXPXPXPXPXPXPXPXPXPXPXPXPXPXPXPXPXPXPXPXPXPXPXPXPXPXPXPXPXPXPXPXPXPXPXPXPXPXPXPXPXPXPXPXPX",
"PXPXPXPXPXPXPXPXPXPXPXPXPXPXPXPXPXPXPXPXPXPXPXPXPXPXPXPXPXPXPXPXPXPXPXPXPXPXPXPXPXPXPXPXPXPXPXPXPXPXPXPXPXPXPXPXPXPXPXPXPXPXPXPXPXPXPXPXPXPXPXPXPXPXPXPXPX5.1.D.wXDXDXSXbXkXjXhXhXhXhXhXhXhXhXyXyXyXuXkXuXyX9XT.l.j.R m m k m k m m B R T { %.%.%.8.M.{.M.M.S.M.M.S.M.M.M.M.{.8.%.%.{ T U B B m m k k l n S U %.x.S.G.J.G.F.F.A.Z.A.Z.Z.Z.V.Z.N.V.N.V.H.6XjXjX(.v.=.=.PXPXPXPXPXPXPXPXPXPXPXPXPXPXPXPXPXPXPXPXPXPXPXPXPXPXPXPXPXPXPXPXPXPXPXPXPXPXPXPXPXPXPXPXPXPXPXPXPXPXPXPXPXPXPXPXPXPXPXPXPXPXPXPXPXPXPXPXPXPXPXPXPXPXPXPXPX",
"PXPXPXPXPXPXPXPXPXPXPXPXPXPXPXPXPXPXPXPXPXPXPXPXPXPXPXPXPXPXPXPXPXPXPXPXPXPXPXPXPXPXPXPXPXPXPXPXPXPXPXPXPXPXPXPXPXPXPXPXPXPXPXPXPXPXPXPXPXPXPXPXPXPXPX_ 5.E.fXJXDXAXcXkXhXjXkXhXhXhXhXhXyXyXuXkXkXyX9XT.j.T m m k x m B T T %.{.{.S.K.U.U.U.U.U.U.U.U.I.I.U.I.I.I.P.I.P.U.P.Y.P.U.P.U.Y.P.S.S.S.p.8.{ U B n c k k n V X.%.B.Z.G.A.Z.V.Z.N.Z.V.V.N.N.V.y.y.Z.Q.eXjX9Xv.;.=.PXPXPXPXPXPXPXPXPXPXPXPXPXPXPXPXPXPXPXPXPXPXPXPXPXPXPXPXPXPXPXPXPXPXPXPXPXPXPXPXPXPXPXPXPXPXPXPXPXPXPXPXPXPXPXPXPXPXPXPXPXPXPXPXPXPXPXPXPXPXPXPXPXPXPX",
"PXPXPXPXPXPXPXPXPXPXPXPXPXPXPXPXPXPXPXPXPXPXPXPXPXPXPXPXPXPXPXPXPXPXPXPXPXPXPXPXPXPXPXPXPXPXPXPXPXPXPXPXPXPXPXPXPXPXPXPXPXPXPXPXPXPXPXPXPXPXPXPXPX5.3.E.AXJXDXbXkXjXkXkXkXhXhXuXhXuXhXuXkXuXtX).l.R S k k m m T X.{.{.K.U.U.U.U.U.U.U.I.I.P.P.P.P.P.P.P.P.P.P.P.P.P.G.P.G.P.G.P.P.P.P.A.A.G.Y.A.Y.Y.P.Y.A.B.9.%.U B n l k n I { 9.V.A.C.V.V.V.N.V.V.N.N.V.y.y.V.H.8XjX0XL.;.*.PXPXPXPXPXPXPXPXPXPXPXPXPXPXPXPXPXPXPXPXPXPXPXPXPXPXPXPXPXPXPXPXPXPXPXPXPXPXPXPXPXPXPXPXPXPXPXPXPXPXPXPXPXPXPXPXPXPXPXPXPXPXPXPXPXPXPXPXPXPXPXPXPX",
"PXPXPXPXPXPXPXPXPXPXPXPXPXPXPXPXPXPXPXPXPXPXPXPXPXPXPXPXPXPXPXPXPXPXPXPXPXPXPXPXPXPXPXPXPXPXPXPXPXPXPXPXPXPXPXPXPXPXPXPXPXPXPXPXPXPXPXPXPXPXPX5.3.Q.VXJXSXbXhXkXkXkXhXhXhXhXhXkXhXkXkX9XT.j.A n k m m T %.{.I.U.`.U.U.U.I.U.I.I.I.I.P.I.P.I.P.P.P.P.P.P.P.G.P.P.G.G.P.Y.A.P.A.G.A.A.A.P.A.A.A.A.A.C.A.A.A.A.Y.Y.Y.C.p.%.{ B n k k B U 6.B.V.C.i.N.y.V.y.y.i.y.y.y.y.F.6XjXwXD.*.) PXPXPXPXPXPXPXPXPXPXPXPXPXPXPXPXPXPXPXPXPXPXPXPXPXPXPXPXPXPXPXPXPXPXPXPXPXPXPXPXPXPXPXPXPXPXPXPXPXPXPXPXPXPXPXPXPXPXPXPXPXPXPXPXPXPXPXPXPXPXPX",
"PXPXPXPXPXPXPXPXPXPXPXPXPXPXPXPXPXPXPXPXPXPXPXPXPXPXPXPXPXPXPXPXPXPXPXPXPXPXPXPXPXPXPXPXPXPXPXPXPXPXPXPXPXPXPXPXPXPXPXPXPXPXPXPXPXPXPXPXPX5.5.E.AXJXSXbXkXjXkXkXjXhXhXhXuXhXkXkXtXT.j.B m k m R Y {.I.U.U.U.U.I.I.I.I.I.I.I.I.I.I.I.I.P.P.P.P.P.P.P.P.G.G.G.P.A.A.P.P.G.Y.G.A.A.A.A.A.A.A.A.A.A.A.A.A.C.Z.C.A.C.C.C.A.Y.C.V.p.#.I n l k n U <.i.V.V.y.y.y.y.t.i.y.y.t.t.Z.6XjXwXD.-.) PXPXPXPXPXPXPXPXPXPXPXPXPXPXPXPXPXPXPXPXPXPXPXPXPXPXPXPXPXPXPXPXPXPXPXPXPXPXPXPXPXPXPXPXPXPXPXPXPXPXPXPXPXPXPXPXPXPXPXPXPXPXPXPXPXPXPXPXPX",
"PXPXPXPXPXPXPXPXPXPXPXPXPXPXPXPXPXPXPXPXPXPXPXPXPXPXPXPXPXPXPXPXPXPXPXPXPXPXPXPXPXPXPXPXPXPXPXPXPXPXPXPXPXPXPXPXPXPXPXPXPXPXPXPXPXPXPX5.5.!.VXJXZXcXjXjXkXjXhXkXhXhXhXhXkXhX).l.A m k m T %.{.I.U.U.U.U.U.I.I.I.I.I.I.I.I.P.P.P.P.I.P.K.P.P.P.I.P.P.A.P.P.G.A.P.P.A.A.G.A.A.A.A.A.A.A.A.A.A.A.A.A.C.S.C.C.C.C.C.V.V.V.V.C.C.C.C.Y.p.<.U M k k M ` 9.i.V.i.y.i.i.y.y.y.y.y.t.Z.6XjXwXL.*.*.PXPXPXPXPXPXPXPXPXPXPXPXPXPXPXPXPXPXPXPXPXPXPXPXPXPXPXPXPXPXPXPXPXPXPXPXPXPXPXPXPXPXPXPXPXPXPXPXPXPXPXPXPXPXPXPXPXPXPXPXPXPXPXPXPXPXPX",
"PXPXPXPXPXPXPXPXPXPXPXPXPXPXPXPXPXPXPXPXPXPXPXPXPXPXPXPXPXPXPXPXPXPXPXPXPXPXPXPXPXPXPXPXPXPXPXPXPXPXPXPXPXPXPXPXPXPXPXPXPXPXPXPXPX5._ B.xXJXSXbXkXjXhXhXhXhXhXhXhXkXkXrXT.R n 4 m T %.{.I.`.U.U.I.I.K.I.I.I.K.U.I.P.I.P.P.P.P.P.P.G.G.P.K.P.A.P.G.G.P.P.A.P.G.A.A.A.A.A.A.A.A.A.A.A.A.C.C.A.C.Z.C.C.C.V.S.C.C.V.V.V.V.V.C.i.V.i.V.i.C.C.u.<.U M k k B #.u.i.y.y.y.y.y.y.y.y.y.y.Z.7XcX9Xx.) *.PXPXPXPXPXPXPXPXPXPXPXPXPXPXPXPXPXPXPXPXPXPXPXPXPXPXPXPXPXPXPXPXPXPXPXPXPXPXPXPXPXPXPXPXPXPXPXPXPXPXPXPXPXPXPXPXPXPXPXPXPXPXPXPXPX",
"PXPXPXPXPXPXPXPXPXPXPXPXPXPXPXPXPXPXPXPXPXPXPXPXPXPXPXPXPXPXPXPXPXPXPXPXPXPXPXPXPXPXPXPXPXPXPXPXPXPXPXPXPXPXPXPXPXPXPXPXPXPXPXPX5.w.0XJXDXbXkXkXhXkXkXhXhXhXhXkXkX<Xj.m k m B { M.I.U.U.I.I.I.I.I.I.U.I.I.I.I.I.P.P.P.P.P.P.P.P.P.P.P.P.Y.P.P.A.Y.G.A.A.A.A.A.A.A.A.A.A.A.A.A.A.A.A.A.C.Z.C.C.C.V.C.C.V.V.V.V.V.V.V.V.V.i.C.i.V.i.i.i.i.C.i.i.u.#.V l k n { 0.i.V.y.y.y.y.y.N.y.y.y.H.qXcX(.6.) PXPXPXPXPXPXPXPXPXPXPXPXPXPXPXPXPXPXPXPXPXPXPXPXPXPXPXPXPXPXPXPXPXPXPXPXPXPXPXPXPXPXPXPXPXPXPXPXPXPXPXPXPXPXPXPXPXPXPXPXPXPXPXPX",
"PXPXPXPXPXPXPXPXPXPXPXPXPXPXPXPXPXPXPXPXPXPXPXPXPXPXPXPXPXPXPXPXPXPXPXPXPXPXPXPXPXPXPXPXPXPXPXPXPXPXPXPXPXPXPXPXPXPXPXPXPXPX5.5.(.DXJXAXhXhXkXhXhXhXhXhXkXkXkX).j.m m m R %.K.U.U.I.U.I.I.I.I.I.I.I.I.P.I.P.Y.I.P.P.P.P.G.P.P.A.A.P.G.G.G.P.A.G.Y.A.C.A.P.G.A.C.C.A.A.A.A.C.A.C.Z.C.C.C.C.C.C.V.V.V.C.V.V.V.i.V.i.V.V.i.V.i.i.i.i.i.i.i.i.i.y.V.i.i.9.Q n v k I 9.i.V.y.y.N.N.N.N.N.N.N.Q.jXfXE.;.) PXPXPXPXPXPXPXPXPXPXPXPXPXPXPXPXPXPXPXPXPXPXPXPXPXPXPXPXPXPXPXPXPXPXPXPXPXPXPXPXPXPXPXPXPXPXPXPXPXPXPXPXPXPXPXPXPXPXPXPXPXPX",
"PXPXPXPXPXPXPXPXPXPXPXPXPXPXPXPXPXPXPXPXPXPXPXPXPXPXPXPXPXPXPXPXPXPXPXPXPXPXPXPXPXPXPXPXPXPXPXPXPXPXPXPXPXPXPXPXPXPXPXPXPX5.D.zXJXAXkXkXkXhXkXhXhXhXkXkXhXT.T m k B T M.U.U.U.I.I.I.I.I.I.I.I.P.P.I.P.P.P.P.P.P.G.P.P.G.P.G.P.P.P.A.Y.G.A.A.Y.A.C.J.qXjXcXjXhX8XI.C.A.A.C.Z.C.C.C.C.Z.V.C.V.V.V.V.V.V.V.V.V.V.i.i.i.i.i.i.i.i.i.y.i.y.y.i.y.y.y.i.i.i.i.e.#.B l k V 7.N.V.y.N.N.N.N.Z.N.N.Z.5XcXrXx.( PXPXPXPXPXPXPXPXPXPXPXPXPXPXPXPXPXPXPXPXPXPXPXPXPXPXPXPXPXPXPXPXPXPXPXPXPXPXPXPXPXPXPXPXPXPXPXPXPXPXPXPXPXPXPXPXPXPXPXPXPX",
"PXPXPXPXPXPXPXPXPXPXPXPXPXPXPXPXPXPXPXPXPXPXPXPXPXPXPXPXPXPXPXPXPXPXPXPXPXPXPXPXPXPXPXPXPXPXPXPXPXPXPXPXPXPXPXPXPXPXPX5.4.1XJXDXcXkXhXhXhXhXhXyXkXkXuX).T m k m %.M.U.U.U.I.I.I.I.P.I.I.P.I.P.P.P.P.P.P.G.P.P.P.A.P.A.P.P.A.P.A.A.P.A.A.A.A.A.C.'.AXcXyXuXtXtXyXeXH.C.C.C.C.C.V.C.C.V.V.V.V.V.V.V.V.V.i.i.i.y.i.i.i.i.i.y.i.y.y.y.y.y.y.y.y.y.y.t.y.t.t.y.y.t.7.V k k V <.V.C.N.Z.N.Z.F.Z.B.Z.!.eXbX(.7.) PXPXPXPXPXPXPXPXPXPXPXPXPXPXPXPXPXPXPXPXPXPXPXPXPXPXPXPXPXPXPXPXPXPXPXPXPXPXPXPXPXPXPXPXPXPXPXPXPXPXPXPXPXPXPXPXPXPXPX",
"PXPXPXPXPXPXPXPXPXPXPXPXPXPXPXPXPXPXPXPXPXPXPXPXPXPXPXPXPXPXPXPXPXPXPXPXPXPXPXPXPXPXPXPXPXPXPXPXPXPXPXPXPXPXPXPXPXPX5.D.VXJXbXjXhXkXkXhXhXhXhXkXkX).R m m m %.K.U.U.I.I.I.I.I.I.I.P.P.P.I.G.P.P.P.P.Y.K.P.P.G.G.P.G.P.A.A.P.A.A.A.A.A.A.A.A.C.`.bXyXtX8Xb.T.tXiXtX).M.C.C.V.V.V.V.V.V.V.V.V.V.V.i.i.y.V.`.5X_.H.S.V.i.y.i.y.y.i.y.y.y.y.y.y.t.t.y.t.y.t.t.t.t.y.t.:.V v k B 8.Z.A.F.B.F.F.H.F.D.H.].vXfXc.O.PXPXPXPXPXPXPXPXPXPXPXPXPXPXPXPXPXPXPXPXPXPXPXPXPXPXPXPXPXPXPXPXPXPXPXPXPXPXPXPXPXPXPXPXPXPXPXPXPXPXPXPXPXPXPXPXPXPX",
"PXPXPXPXPXPXPXPXPXPXPXPXPXPXPXPXPXPXPXPXPXPXPXPXPXPXPXPXPXPXPXPXPXPXPXPXPXPXPXPXPXPXPXPXPXPXPXPXPXPXPXPXPXPXPXPX5.3.1XJXZXjXhXhXhXhXkXyXyXkXkX9Xj.m k m %.K.U.I.I.P.I.I.I.P.I.P.P.P.P.P.P.P.G.P.P.G.Y.P.P.A.P.A.A.A.A.A.A.A.A.A.A.A.A.A.A.A.C.eXhXtXqXF { { b.iXiX8Xl.V.V.V.V.V.V.i.i.V.i.V.i.i.i.y.H.yX0X[.].[.6Xc.w.i.y.i.y.t.y.y.y.t.t.y.t.t.r.t.t.t.t.t.t.r.t.t.t.<.V l l U v.F.F.F.F.H.H.H.H.H.Q.dXAX(.:.( PXPXPXPXPXPXPXPXPXPXPXPXPXPXPXPXPXPXPXPXPXPXPXPXPXPXPXPXPXPXPXPXPXPXPXPXPXPXPXPXPXPXPXPXPXPXPXPXPXPXPXPXPXPXPXPX",
"PXPXPXPXPXPXPXPXPXPXPXPXPXPXPXPXPXPXPXPXPXPXPXPXPXPXPXPXPXPXPXPXPXPXPXPXPXPXPXPXPXPXPXPXPXPXPXPXPXPXPXPXPXPXPX_ B.VXJXbXkXkXhXhXhXhXyXkXkXrXl.m k n X.K.U.I.P.I.U.P.P.P.K.I.P.P.P.P.G.P.G.P.P.A.C.P.`.Y.A.P.A.G.P.P.A.A.A.A.A.A.A.A.A.A.A.C.J.jX8XtXb.{ Y.C.M.9X6XiXl.9.V.V.V.V.V.i.V.V.i.i.i.i.i.i.'.[.`.W.`.J.H.S u.i.t.y.t.y.t.y.t.y.t.t.t.t.t.t.t.r.t.t.r.y.r.t.t.t.t.&.B v l { F.J.H.H.H.!.!.!.W.!.7XAXfXx.( PXPXPXPXPXPXPXPXPXPXPXPXPXPXPXPXPXPXPXPXPXPXPXPXPXPXPXPXPXPXPXPXPXPXPXPXPXPXPXPXPXPXPXPXPXPXPXPXPXPXPXPXPXPXPX",
"PXPXPXPXPXPXPXPXPXPXPXPXPXPXPXPXPXPXPXPXPXPXPXPXPXPXPXPXPXPXPXPXPXPXPXPXPXPXPXPXPXPXPXPXPXPXPXPXPXPXPXPXPX5.5.(.DXSXkXhXhXhXhXuXkXuXkXuXT.S k n T S.U.U.I.P.I.I.P.P.P.P.P.P.G.P.P.P.A.P.P.G.Y.'.tXAXT.S.Y.Y.Y.A.A.A.A.A.A.C.A.Z.A.C.Z.C.A.V._.hX8XtXd.p.C.i.G.6X[.iXb.#.C.i.i.i.i.i.i.y.i.i.i.y.y.i.6Xc.L.I.W.W.x.U y.y.y.t.y.t.t.t.t.t.r.y.t.r.r.t.r.r.t.r.t.r.r.r.r.r.r.t.t.#.M j M %.W.Q.W.!.Q.Q.Q.^.!.1XcXVX).( ( PXPXPXPXPXPXPXPXPXPXPXPXPXPXPXPXPXPXPXPXPXPXPXPXPXPXPXPXPXPXPXPXPXPXPXPXPXPXPXPXPXPXPXPXPXPXPXPXPXPXPXPXPX",
"PXPXPXPXPXPXPXPXPXPXPXPXPXPXPXPXPXPXPXPXPXPXPXPXPXPXPXPXPXPXPXPXPXPXPXPXPXPXPXPXPXPXPXPXPXPXPXPXPXPXPXPX5.w.dXJXbXhXhXhXhXhXhXyXkXkX<XR k k T {.U.U.P.I.P.P.P.P.P.P.P.P.G.P.Y.G.G.P.P.A.A.I.bXAXbXbXb.p.Y.A.A.A.A.A.A.A.C.A.A.C.Z.C.C.C.C.i.6XtX8X8XY i.C.i.Z.6X6X6Xc.#.C.i.i.i.y.i.i.i.y.i.y.i.t.V.s.V c.`.J.I.k.| i.t.t.t.t.t.u.t.u.t.r.t.r.y.u.t.r.t.r.r.r.r.t.r.r.r.r.r.e.t.4.{ l v D L.Q.Q.!.Q.^././././.dXSXrX7.o.PXPXPXPXPXPXPXPXPXPXPXPXPXPXPXPXPXPXPXPXPXPXPXPXPXPXPXPXPXPXPXPXPXPXPXPXPXPXPXPXPXPXPXPXPXPXPXPXPXPXPXPX",
"PXPXPXPXPXPXPXPXPXPXPXPXPXPXPXPXPXPXPXPXPXPXPXPXPXPXPXPXPXPXPXPXPXPXPXPXPXPXPXPXPXPXPXPXPXPXPXPXPXPXPX_ B.GXDXjXhXhXkXyXhXyXyXkXiXl.m m B %.I.U.I.P.P.P.P.P.P.P.P.P.P.G.G.G.P.G.Y.G.Y.A.G.cXbXkXkXhX<X%.Y.A.A.A.A.C.A.Z.Z.C.C.Z.C.C.C.V.C.i.6XqX8X9XY i.i.V.C.6X[.[.b.{ V.i.i.i.i.i.i.i.y.i.y.y.y.u.<.i.[.J.F.I.D <.t.t.t.t.t.t.r.t.y.r.y.r.r.r.r.r.r.u.r.r.r.r.r.r.r.r.q.r.r.e.r.t.3.I v l k.Q.].^.^././.].5X1X0XCXzXx.^ PXPXPXPXPXPXPXPXPXPXPXPXPXPXPXPXPXPXPXPXPXPXPXPXPXPXPXPXPXPXPXPXPXPXPXPXPXPXPXPXPXPXPXPXPXPXPXPXPXPXPX",
"PXPXPXPXPXPXPXPXPXPXPXPXPXPXPXPXPXPXPXPXPXPXPXPXPXPXPXPXPXPXPXPXPXPXPXPXPXPXPXPXPXPXPXPXPXPXPXPXPXPX5.Q.DXSXkXhXhXhXhXyXyXkXkX).T k n T S.U.I.P.P.P.P.P.P.P.G.P.G.G.Y.G.G.G.Y.G.G.G.A.A.qXbXkXkXkXkXgXk.C.S.A.C.C.A.C.C.C.C.C.C.C.V.C.V.V.i.[.8X6X].Y i.i.i.Z.6X[.[.c.{ i.i.i.y.y.y.y.y.y.t.y.y.y.t.t.A.[.F.J.D.D t.t.t.r.t.t.t.y.r.r.t.r.r.r.y.r.t.r.r.t.r.r.r.q.r.r.r.r.r.r.u.e.r.e.r.#.b j B n.6X1X/.5X1X5X7X7X0XAXSXR.( PXPXPXPXPXPXPXPXPXPXPXPXPXPXPXPXPXPXPXPXPXPXPXPXPXPXPXPXPXPXPXPXPXPXPXPXPXPXPXPXPXPXPXPXPXPXPXPXPXPX",
"PXPXPXPXPXPXPXPXPXPXPXPXPXPXPXPXPXPXPXPXPXPXPXPXPXPXPXPXPXPXPXPXPXPXPXPXPXPXPXPXPXPXPXPXPXPXPXPX5.5.1XJXAXyXkXhXhXyXuXyXkXtXl.m k R 8.U.U.P.P.P.G.P.G.P.P.A.P.A.P.A.G.A.P.A.P.A.A.A.A.A.^.kXrXrXhXhXkXl.p.A.C.C.C.C.C.C.C.C.V.V.V.V.V.V.i.i.'.8X6X[.Y i.i.i.F.8X'.[.k.#.V.y.y.y.y.y.y.y.t.y.t.t.t.t.t.W.Q.A.G.z.U y.t.t.r.t.r.u.t.t.r.r.r.r.u.r.r.r.r.r.q.r.r.q.r.q.r.r.q.r.r.r.q.r.r.q.t.q.` l l X.5X7X1X7X7X0X0X0X0XzXDX<X| o.PXPXPXPXPXPXPXPXPXPXPXPXPXPXPXPXPXPXPXPXPXPXPXPXPXPXPXPXPXPXPXPXPXPXPXPXPXPXPXPXPXPXPXPXPXPXPXPX",
"PXPXPXPXPXPXPXPXPXPXPXPXPXPXPXPXPXPXPXPXPXPXPXPXPXPXPXPXPXPXPXPXPXPXPXPXPXPXPXPXPXPXPXPXPXPXPX_ q.fXJXbXyXhXyXyXyXyXuXuX<XT k n X.G.P.Y.P.Y.P.P.G.G.G.G.P.G.A.P.A.G.G.Y.A.A.A.A.A.A.A.A.I.2XF b.hXhXkXT.8.C.C.C.C.C.V.V.V.V.V.V.i.V.i.V.i.i.W.8X[.[.k.e.i.y.W.8X_.[.T p.y.y.y.y.y.y.y.y.t.y.t.t.t.t.r.^.J.F.G.X.#.t.t.r.r.t.t.r.r.r.r.r.r.u.r.r.r.r.r.r.r.r.r.q.r.q.r.q.r.q.q.r.q.q.q.q.q.q.r.&.M j G ).qX0X0X0X0XwXwXwXlXDXgX:.^ PXPXPXPXPXPXPXPXPXPXPXPXPXPXPXPXPXPXPXPXPXPXPXPXPXPXPXPXPXPXPXPXPXPXPXPXPXPXPXPXPXPXPXPXPXPXPX",
"PXPXPXPXPXPXPXPXPXPXPXPXPXPXPXPXPXPXPXPXPXPXPXPXPXPXPXPXPXPXPXPXPXPXPXPXPXPXPXPXPXPXPXPXPXPX_ v.VXDXjXyXkXyXyXyXyXyXuXb.B k S {.U.P.G.P.P.G.P.P.G.G.G.Y.P.A.Y.A.P.A.A.A.A.A.A.A.A.C.A.C.P.d.#._.hXyXhX3X%.V.C.C.V.V.i.C.V.S.i.V.V.i.V.i.i.i.S.].[.[.R.M.t.i.qX]._.E.D y.y.y.y.t.t.y.t.t.t.t.t.t.t.r.y.'.Z.F.A.D 3.t.r.r.t.r.r.r.u.r.r.r.r.r.r.r.q.r.q.r.e.q.B.H.D.t.q.q.q.q.q.q.q.q.r.q.q.q.q.q.e.E v l l.dXwXwXwXwXdXdXdXfXDXGX8.^ PXPXPXPXPXPXPXPXPXPXPXPXPXPXPXPXPXPXPXPXPXPXPXPXPXPXPXPXPXPXPXPXPXPXPXPXPXPXPXPXPXPXPXPXPXPX",
"PXPXPXPXPXPXPXPXPXPXPXPXPXPXPXPXPXPXPXPXPXPXPXPXPXPXPXPXPXPXPXPXPXPXPXPXPXPXPXPXPXPXPXPXPX_ D.CXZXkXyXyXyXyXyXyXkXqXj.k m T S.P.G.P.Y.P.Y.P.A.G.G.A.Y.G.A.G.A.A.A.A.A.A.A.A.A.A.A.A.C.Z.C.8.C.A.rXyXtXeXj.i.C.i.V.V.C.i.i.i.i.i.i.i.i.i.i.i.y.L.[.[.'.'.].tX6X_.[.Y  .i.y.t.t.y.t.t.t.t.y.r.t.t.t.r.F.Q.Z.A.v.D t.r.t.r.r.r.r.r.r.r.r.r.r.r.r.q.r.r.r.q.F.7X].Q.W.W.F.r.q.r.r.q.r.q.q.q.q.w.q.q.r.r.O.l j k.wXdXdXdXdXdXfXfXfXDXCXc.^ PXPXPXPXPXPXPXPXPXPXPXPXPXPXPXPXPXPXPXPXPXPXPXPXPXPXPXPXPXPXPXPXPXPXPXPXPXPXPXPXPXPXPXPXPX",
"PXPXPXPXPXPXPXPXPXPXPXPXPXPXPXPXPXPXPXPXPXPXPXPXPXPXPXPXPXPXPXPXPXPXPXPXPXPXPXPXPXPXPXPX1.D.DXAXyXyXhXyXyXtXtXuX).T k n %.Y.U.Y.P.P.A.P.A.P.G.Y.Y.A.Y.A.A.A.A.A.A.A.A.A.A.A.C.Z.Z.C.C.V.C.C.C.V.9XtXtXhXb.p.i.C.V.V.i.V.i.i.i.i.i.i.i.i.i.y.i.$.l.'.'.'.[.[.`.'.%.S t.y.t.t.y.t.t.u.y.r.r.y.r.r.t.r.H.W.V.A.$.` t.r.r.r.r.r.r.r.r.r.r.r.q.r.r.r.r.q.4.Q.7XZ.t.t.i.y.S.F.u.q.q.q.4.q.q.4.4.q.q.3.3.4.r.;.V j B <XcXfXfXfXfXfXlXlXDXDXc.^ PXPXPXPXPXPXPXPXPXPXPXPXPXPXPXPXPXPXPXPXPXPXPXPXPXPXPXPXPXPXPXPXPXPXPXPXPXPXPXPXPXPXPXPX",
"PXPXPXPXPXPXPXPXPXPXPXPXPXPXPXPXPXPXPXPXPXPXPXPXPXPXPXPXPXPXPXPXPXPXPXPXPXPXPXPXPXPXPX_ E.DXAXhXyXyXyXyXtXyXtXT.A k I M.Y.P.Y.P.A.P.G.A.P.A.A.A.A.Y.A.A.A.A.A.A.C.A.C.C.C.C.C.C.C.C.C.C.C.C.C.i.`.tXtXtX~.$.i.i.i.i.i.y.i.i.i.i.i.y.y.y.i.i.t.i.{ d.c.!.!.L.l.S V t.y.t.t.t.r.t.t.t.r.t.r.r.r.t.r.r.Q.F.V.S.X.| t.r.r.r.q.r.r.r.r.q.r.q.q.r.q.r.q.4.!.6Xy.y.i.9. .9.N.V.B.2.q.q.q.q.q.q.3.q.3.q.3.0.q.q.q.Q j c n.vXlXfXlXlXlXlXlXFXJXn.^ PXPXPXPXPXPXPXPXPXPXPXPXPXPXPXPXPXPXPXPXPXPXPXPXPXPXPXPXPXPXPXPXPXPXPXPXPXPXPXPXPXPXPX",
"PXPXPXPXPXPXPXPXPXPXPXPXPXPXPXPXPXPXPXPXPXPXPXPXPXPXPXPXPXPXPXPXPXPXPXPXPXPXPXPXPXPX_ (.DXbXyXyXyXyXtXtXyXyXl.n k U S.I.Y.G.P.A.G.A.G.A.A.A.A.A.A.A.A.C.A.A.A.Z.Z.C.C.Z.V.C.C.C.V.V.C.V.V.V.V.i.K.qXiXiX9Xk.i.V.y.V.i.y.i.y.i.y.i.y.y.i.y.t.y.y.i.<.U U U D U <.i.t.t.t.r.t.t.t.r.r.y.r.t.r.r.y.r.N.'.C.Z.C.D 0.t.r.r.r.r.r.r.q.q.r.q.r.r.r.q.q.4.B.6Xy.i.V.{ N ` E 8.V.Z.$.,.q.q.3.3.w.q.w.3.3.w.3.3.3.4.q.#.l v m.cXlXlXzXzXlXvXzXFXJX~.^ PXPXPXPXPXPXPXPXPXPXPXPXPXPXPXPXPXPXPXPXPXPXPXPXPXPXPXPXPXPXPXPXPXPXPXPXPXPXPXPXPXPX",
"PXPXPXPXPXPXPXPXPXPXPXPXPXPXPXPXPXPXPXPXPXPXPXPXPXPXPXPXPXPXPXPXPXPXPXPXPXPXPXPXPX_ (.DXbXyXtXyXyXtXtXyXtXj.c n %.U.P.G.A.P.A.A.Y.A.A.A.A.A.A.S.C.C.S.A.A.C.C.C.C.C.C.Z.V.C.V.V.V.V.V.i.V.V.i.V.V.9XiXqXtXl.0.i.i.i.y.i.y.i.y.y.y.y.y.y.y.y.t.t.t.t.i.t.t.t.y.t.t.t.t.t.t.r.r.r.u.t.r.r.r.r.t.q.t.w.X.X.$.6.V r.r.r.q.r.r.q.q.r.r.q.r.q.q.q.q.r.r.5XZ.y.i.X.N 0.t.4.v.Z.Z.z. .q.3.q.q.3.2.q.3.3.2.3.3.3.3.1.4.=.C j d.zXbXlXvXvXzXzXvXFXJX~.^ PXPXPXPXPXPXPXPXPXPXPXPXPXPXPXPXPXPXPXPXPXPXPXPXPXPXPXPXPXPXPXPXPXPXPXPXPXPXPXPXPX",
"PXPXPXPXPXPXPXPXPXPXPXPXPXPXPXPXPXPXPXPXPXPXPXPXPXPXPXPXPXPXPXPXPXPXPXPXPXPXPXPX5./.JXcXyXyXtXtXtXtXtX9XT k n 8.Y.Y.A.A.P.A.A.A.A.A.A.A.C.i.C.J.W.A.C.C.C.C.C.V.C.C.C.V.V.V.V.i.V.V.i.V.i.V.i.i.y.!.8X8XiX~.$.i.i.i.y.y.i.t.y.y.t.y.t.t.t.t.t.t.t.t.t.t.t.t.e.t.t.r.u.r.y.r.r.t.r.r.u.r.r.r.r.r.e.e.:.| ` B { r.q.r.q.r.q.r.r.q.q.r.q.r.q.q.q.4.H.Q.t.V.8.M w.q.4.q.Q.F.F.z.` r.3.3.w.3.2.3.2.w.3.2.2.w.2.,.3.q.2.V j F gXAXvXvXVXvXzXvXFXJX4X^ PXPXPXPXPXPXPXPXPXPXPXPXPXPXPXPXPXPXPXPXPXPXPXPXPXPXPXPXPXPXPXPXPXPXPXPXPXPXPXPX",
"PXPXPXPXPXPXPXPXPXPXPXPXPXPXPXPXPXPXPXPXPXPXPXPXPXPXPXPXPXPXPXPXPXPXPXPXPXPXPX_ (.DXbXqXtXyXtXtXtXtX9XR k B p.P.Y.Y.A.A.A.A.A.A.A.A.A.C.A.6XbXAXbXjX[.S.V.C.V.C.V.V.V.V.V.V.i.V.V.i.V.i.i.i.i.i.i.K.iXiX6XT.U i.y.y.t.y.y.y.t.r.t.u.r.t.t.t.r.u.r.e.u.e.r.u.u.e.u.r.r.e.u.e.r.r.r.r.e.u.e.u.r.r.u.u.t.t.t.t.r.q.r.r.q.r.r.q.q.r.q.q.q.q.q.q.q.q.^.N.N.V.D  .q.q.4.v.^.Z.J...[ q.3.3.3.2.w.3.3.3.2.3.q.2.2.3.3.,.2.3.H j G aXVXVXvXvXVXzXvXCXKX~.^ PXPXPXPXPXPXPXPXPXPXPXPXPXPXPXPXPXPXPXPXPXPXPXPXPXPXPXPXPXPXPXPXPXPXPXPXPXPXPX",
"PXPXPXPXPXPXPXPXPXPXPXPXPXPXPXPXPXPXPXPXPXPXPXPXPXPXPXPXPXPXPXPXPXPXPXPXPXPX_ (.DXbXtXtXtXtXtXiXuX).B k B S.P.A.A.A.A.A.A.A.A.A.A.C.C.J.cXAXbXhXkXhXkXtXS.C.V.V.V.V.V.V.i.V.i.i.i.i.i.i.i.y.y.i.y.S.~.k.F V #.i.y.u.y.u.u.u.e.p.u.9.e.p.e.p.p.e.u.p.0.0.0.9.p.p.e.9.p.0.9.3.9.3.w.0.0.0.e.r.0.q.e.e.e.e.r.r.r.r.q.q.r.q.q.q.q.q.q.q.q.q.q.q.q.v.Q.y.Z.7.D r.q.4.2.Q.Q.F.J.Y  .q.w.2.2.3.2.3.,.2.2.2.2.2.2.2.,.3.,.2.2.` j c 2XSXVXvXvXVXvXvXCXJX~.^ PXPXPXPXPXPXPXPXPXPXPXPXPXPXPXPXPXPXPXPXPXPXPXPXPXPXPXPXPXPXPXPXPXPXPXPXPXPX",
"PXPXPXPXPXPXPXPXPXPXPXPXPXPXPXPXPXPXPXPXPXPXPXPXPXPXPXPXPXPXPXPXPXPXPXPXPX_ !.DXbXtXtXqXtXtXiXuX).m k U S.Y.A.A.A.C.A.A.A.C.A.C.S.V.A.bXbXkXhXyXkXhXyXkX9XN.C.i.V.i.V.y.V.i.i.i.y.i.i.i.i.i.y.i.y.y.{ { u.i.i.t.u.e.p.0.9.9.<.9.<.9.9.$.<.<.$.<.$.<.9.<.<.<.<.<.$.<.<.$.<.<.<.6.7.<.<.9.<.<.9.<.0.0.e.p.3.q.0.q.r.q.q.q.q.q.q.q.q.q.q.q.q.q.q.B.H.N.Z.U } q.3.5.B.7XH.H.E.B 2.3.3.2.w.2.2.2.w.2.2.w.,.2.2.3.,.,.2.2.,.3.^ v c 4XCXvXvXvXvXvXvXCXJXn./ PXPXPXPXPXPXPXPXPXPXPXPXPXPXPXPXPXPXPXPXPXPXPXPXPXPXPXPXPXPXPXPXPXPXPXPXPX",
"PXPXPXPXPXPXPXPXPXPXPXPXPXPXPXPXPXPXPXPXPXPXPXPXPXPXPXPXPXPXPXPXPXPXPXPX_ !.DXcXqXtXtXqXtX8XuXR.m k U Y.A.A.A.A.Z.A.A.C.C.C.Z.C.V.i.qXbXkXT.F T b.uXkXyXhXR.u.V.i.i.i.i.y.i.i.i.i.y.i.y.y.y.i.t.t.i.t.i.t.r.p.u.%.U j.a.7 8 > 7 7 8 > > > > u L u L a.f.+Xb.+X;X,XpXpX2X;X+Xa.L L s.T T T %.$.$.<.<.<.9.<.9.<.0.0.0.0.0.4.q.q.q.q.q.4.q.q.3.3.q.F.Z.F.D ,.q.5.w.0XQ.H.Q.k.K q.w.2.2.w.2.2.2.2.2.2.2.2.2.2.2.2.,.,.,.2.2.3. .v l 4XCXvXzXzXvXzXzXSXJXn.Q PXPXPXPXPXPXPXPXPXPXPXPXPXPXPXPXPXPXPXPXPXPXPXPXPXPXPXPXPXPXPXPXPXPXPXPX",
"PXPXPXPXPXPXPXPXPXPXPXPXPXPXPXPXPXPXPXPXPXPXPXPXPXPXPXPXPXPXPXPXPXPXPX_ D.SXbXtXtXqXiXtXiXtXR.n n U C.Y.A.A.C.C.C.C.C.Z.C.C.C.V.V.G.bXhXhXY u.C. .m.uXyXyX9Xx.i.i.i.i.i.y.i.y.i.i.y.y.y.y.y.y.t.t.t.r.u.0.9.<.%.d.8 5 ; % . . * % . X X X X * & : = ; 5 r i i s  X@X=X$Xg r 9 : - q 8 8 6 R Y k.{ { #.#.:.#.<.:.:.<.<.<.9.<.0.2.q.q.3.3.3.q.w.3.B.F.F.$.;.1.w.0X/.H.Q.L.M 2.2.2.2.2.,.2.3.,.2.2.w.2.,.,.,.,.2.,.,.,.,.,.,.5. .v v 4XCXlXzXvXvXlXlXCXJXc./ PXPXPXPXPXPXPXPXPXPXPXPXPXPXPXPXPXPXPXPXPXPXPXPXPXPXPXPXPXPXPXPXPXPXPX",
"PXPXPXPXPXPXPXPXPXPXPXPXPXPXPXPXPXPXPXPXPXPXPXPXPXPXPXPXPXPXPXPXPXPX_ v.CXAXqXtX8XtX8XiXtXR.m k U C.Y.C.Z.C.Z.C.C.C.C.V.C.V.V.V.i.`.bXhXdXY i.C.i.6.T.uXtXyXl.y.y.i.i.i.i.y.y.y.y.y.y.y.t.y.y.u.p.u.p.6.j.L # $ o                           X X                     . .                   @ + $ # # 1 7 a.d.R U ..%.#.:.:.<.<.<.0.0.3.w.w.3.3.2.$.D.H.F.H.(.eX].H.Q.(.G o.3.2.,.w.2.2.2.w.,.2.,.,.,.,.,.w.,.,.,.,.,.,.,.,.,.2.| v k ,XAXzXlXlXcXlXfXDXFXz./ PXPXPXPXPXPXPXPXPXPXPXPXPXPXPXPXPXPXPXPXPXPXPXPXPXPXPXPXPXPXPXPXPXPX",
"PXPXPXPXPXPXPXPXPXPXPXPXPXPXPXPXPXPXPXPXPXPXPXPXPXPXPXPXPXPXPXPXPX5.w.VXAXqXiX8X8X8X8XtXR.n k { Y.A.C.C.C.C.C.C.V.C.V.C.V.V.V.V.i.W.kXhXkXl.u.i.i.i.l.9XyXuX~.6.i.y.y.y.y.y.y.y.y.t.y.t.t.t.u.0.p.6.Y 5                     .                               + .                                       X X X   % 6 7 4 Y #.#.#.:.:.;.,.2.2.2.3.3.&.X.D.W.!.^.Q.Q./.Q.G [ q.,.,.2.2.2.,.,.,.2.,.,.,.,.,.,.,.,.,.,.,.,.;.,.;.,.=.2.| v v 4XAXlXlXlXlXfXfXSXGX$./ PXPXPXPXPXPXPXPXPXPXPXPXPXPXPXPXPXPXPXPXPXPXPXPXPXPXPXPXPXPXPXPXPX",
"PXPXPXPXPXPXPXPXPXPXPXPXPXPXPXPXPXPXPXPXPXPXPXPXPXPXPXPXPXPXPXPX>.3.jXZXtX8XiX8XiXiXiX).n k ` A.C.A.C.C.C.C.V.V.C.V.V.V.V.V.V.i.i.G.yXyXuX4X8.i.i.i.p.~.tXtX9XX.i.y.y.y.t.y.t.t.t.t.t.t.e.u.0.l.A : X           . . .   . o O O O     O O   .               O & o                               . . o O O O o         # 6 Y {  .#.#.:.<.<.<.<.2.3.| D k.E.W./.^.c.G ` q.2.2.2.,.,.,.,.2.2.,.,.,.,.,.,.,.,.,.;.,.,.;.,.,.-.,.-.,.,.+.v v 4XAXlXfXfXfXdXfXSXxX .' PXPXPXPXPXPXPXPXPXPXPXPXPXPXPXPXPXPXPXPXPXPXPXPXPXPXPXPXPXPXPXPX",
"PXPXPXPXPXPXPXPXPXPXPXPXPXPXPXPXPXPXPXPXPXPXPXPXPXPXPXPXPXPXPXPX1.rXSXtX8XqX8X8XiXiX).n k U C.C.C.C.C.V.V.V.V.V.V.V.V.V.i.i.V.i.i.i.9XyXtXyXc.u.i.i.t.K.8XiX8XY t.t.t.y.y.t.y.t.t.r.u.p.0.k.L .           . o o O + o O o O O % & O % & & * % O O           . = 9 = + .       O 0 r % .       . o + % - 0 = = % .         # u R Y {  .#.#.<.;.;.2.3.;.` D D Y G N  .q.,.,.2.,.,.,.,.,.,.,.,.,.,.,.,.,.,.,.,.,.-.,.;.,.-.,.-.,.-.;.,.} v c 2XbXfXfXfXdXdXfXDX3X' PXPXPXPXPXPXPXPXPXPXPXPXPXPXPXPXPXPXPXPXPXPXPXPXPXPXPXPXPXPXPXPX",
"PXPXPXPXPXPXPXPXPXPXPXPXPXPXPXPXPXPXPXPXPXPXPXPXPXPXPXPXPXPXPX_ 1XSXyX8X8X8X8X6XiX'.B k U C.C.C.C.V.V.V.V.V.V.V.i.V.i.i.i.i.y.i.i.i.L.tXtXtX9XM.t.y.t.S.8X8X8XY r.t.y.t.t.t.t.t.u.u.9.8.7 +         . . o o O + O % & & O .   O O O % & & & = = & O O = O     o & - & & &     * e p e - .     o O o o - p d s e 9 O .           : 5 7 ` { #.:.<.<.<.2.3.2.-.+.-.3.2.2.2.,.,.2.,.,.,.,.,.2.,.,.,.-.,.,.,.;.;.;.;.-.-.,.,.,.-.-.-.-.;.,.] j c 3XfXdXdXdXdXeXfXDX4X/ PXPXPXPXPXPXPXPXPXPXPXPXPXPXPXPXPXPXPXPXPXPXPXPXPXPXPXPXPXPXPX",
"PXPXPXPXPXPXPXPXPXPXPXPXPXPXPXPXPXPXPXPXPXPXPXPXPXPXPXPXPXPX_ E.SXhX6X8X8X6X6X6X].T k I C.C.C.V.V.i.V.V.i.V.i.i.i.i.i.V.y.V.i.y.i.i.p.T.tXtXtX1XN.t.r.F.yXiX(.G t.t.t.t.y.r.r.t.u.3.%.5         . o + . . . O O % % - 0 O O .       . o O % - e & . 0 s =         O = - e %   O & 0 i s 9 .     O %     O 0 d s e e % o .             1 T {  .#.:.;.<.1.2.2.2.2.,.,.,.,.,.,.,.,.,.,.,.,.,.,.;.;.,.,.,.-.;.=.-.-.=.*.*.-.-.-.,.-.;.-.-.,.~ j G gXfXdXwXeXwXqXfXSXc.Q PXPXPXPXPXPXPXPXPXPXPXPXPXPXPXPXPXPXPXPXPXPXPXPXPXPXPXPXPXPX",
"PXPXPXPXPXPXPXPXPXPXPXPXPXPXPXPXPXPXPXPXPXPXPXPXPXPXPXPXPX>.v.AXbX6X8X6X6X6XiX[.T k B u.V.V.V.V.V.i.V.i.i.i.i.V.y.i.i.i.i.i.y.i.y.y.i.x.9XtX8XiX6XW.H.eXqXiXk.{ i.t.t.t.t.t.u.u.0.Y :           X           . . o % = = = = & % o       . * 0 s i 9 - p p =         % r i i = .   . e d i 0 O     * = .     - #Xd i e = - O             6 T U { #.&.:.1.<.1.3.1.,.,.,.,.,.,.,.,.,.,.,.,.,.>.;.;.;.,.,.-.,.*.c.gX3X~.w.*.-.-.-.-.-.-.-.-.-.J h F dXeXeX0X0X0X7XvXCXz.Q PXPXPXPXPXPXPXPXPXPXPXPXPXPXPXPXPXPXPXPXPXPXPXPXPXPXPXPXPX",
"PXPXPXPXPXPXPXPXPXPXPXPXPXPXPXPXPXPXPXPXPXPXPXPXPXPXPXPXPX2.lXAX8X6X6X6X6X[.iX%.k M p.C.V.V.i.i.V.i.i.V.i.i.i.i.i.i.y.i.y.y.y.y.y.y.t.r.k.9XiX8X6XtXyXtXiXR.B t.t.r.t.r.r.r.e.9.j.@             X                 o & = = - - w 0 9 %     . 0 s d d i r s s %         & s d s O .   % p i e p 0 .   - p p = o }.mXs w e i }.O       % + @ A I I { #.:.:.=.<.<.1.,.,.,.,.,.,.,.,.,.,.-.,.=.;.;.;.-.-.,.-.>.n.FXFXCXFXgX@.*.-.-.-.-.+.-.-.-.=.H h d.yXeX0X0XqX7X7XAXgX{ PXPXPXPXPXPXPXPXPXPXPXPXPXPXPXPXPXPXPXPXPXPXPXPXPXPXPXPXPX",
"PXPXPXPXPXPXPXPXPXPXPXPXPXPXPXPXPXPXPXPXPXPXPXPXPXPXPXPX>.7XZX8X6X6X6X6X[.iXl.k n 9.Y.i.V.i.i.i.y.V.i.i.y.y.V.y.y.i.i.t.y.y.y.y.y.y.t.y.9.d.1XiXiX[.iX6Xb.n <.t.t.r.t.r.e.u.u.k..                             . % o . O % e s p s s e .     o e d d d s s d p =         w .X.X}.d =   = .Xs w d e .   - s .Xp }.&X&X0 e #X&Xs .   O = = O # 8 R U {  .#.-.;.) > > > 4 2.,.;.;.;.,.-.,.-.-.-.;.;.,.,.-.-.z.b.:XxXVXzXVXgXv.*.-.-.-.*.+.-.+.-.-.N j k.tX0X7X7X7X5X7XZX<X~ PXPXPXPXPXPXPXPXPXPXPXPXPXPXPXPXPXPXPXPXPXPXPXPXPXPXPXPX",
"PXPXPXPXPXPXPXPXPXPXPXPXPXPXPXPXPXPXPXPXPXPXPXPXPXPXPX_ E.ZXtX6X6X6X[.].iXL.n k #.C.i.i.i.i.i.i.i.y.y.y.y.i.y.y.y.y.y.y.y.t.y.y.y.t.t.t.t.2.U m.).).n.R B e.y.t.r.r.r.r.u.9.x.$                         . o     % 0 O   o - p }.s d d 0     . % i XX}.s s s |..Xw       & |..X#XmX.X. . .X&X|.i s -     0 XX%X%X}.NXBX= r &X.Xo   + 9 O       : A U {  .#.-.> # $ x Z 4 ;.;.;.;.-.,.-.,.-.,.;.-.-.-.-.-.=.! ..xXVXzXzXFX3Xo.-.*.*.-.-.-.+.*.-.+.b j n.qX7X5X5X5X].0XSXc.Q PXPXPXPXPXPXPXPXPXPXPXPXPXPXPXPXPXPXPXPXPXPXPXPXPXPXPX",
"PXPXPXPXPXPXPXPXPXPXPXPXPXPXPXPXPXPXPXPXPXPXPXPXPXPX>.w.AXjX[.].[.[.[.[.).B k { C.i.i.i.i.y.y.i.y.y.y.y.y.y.y.y.t.y.y.t.y.t.t.y.t.r.y.t.r.y.r. .` D D :.t.t.t.r.r.r.u.e.0.z.5                       . . = e %     0 i - % O & s .Xs d XX0     9 p .X@Xp }.|.}.#X#X=       . - |.MXBX}.. s BXHXXX0 & O o w &X%Xp d LXNX= o d XX=   O 0 0 o . .     P I {  .I 8 4 $ X B > ,.-.,.,.-.,.-.,.-.=.-.;.-.-.-.-.O.v.FXVXzXzXSXsXG [ -.-.*.+.*.-.*.+.*.-.O.v x ).5X5X5X/././.dXvX..Q PXPXPXPXPXPXPXPXPXPXPXPXPXPXPXPXPXPXPXPXPXPXPXPXPXPX",
"PXPXPXPXPXPXPXPXPXPXPXPXPXPXPXPXPXPXPXPXPXPXPXPXPXPX,.dXAX6X6X].[.].].].T k I i.i.V.y.i.i.y.i.y.y.y.y.y.y.y.t.y.y.t.t.t.t.t.r.t.y.r.r.t.t.t.t.y.y.t.y.y.t.r.r.r.r.u.e.p.j.$     .       . o o       O = e d .Xw   % i }.e O . O d @Xs s @Xw   . - }.&X%X#XMXXXs #Xi           0 &XNXHX|.& XXBXHXmX=     + &XmX}.i e MXe o 0 .X}.O . + 0 w O . O   1 S I { B 8 4 X   ) $ ,.-.-.-.-.-.-.-.-.-.-.-.-.-.-.( c.FXVXzXzXCX:XG [ -.+.+.*.+.+.+.+.+.O.+.-.' j G 6X5X/.'.^.^.Q.bXrX{ PXPXPXPXPXPXPXPXPXPXPXPXPXPXPXPXPXPXPXPXPXPXPXPXPXPX",
"PXPXPXPXPXPXPXPXPXPXPXPXPXPXPXPXPXPXPXPXPXPXPXPXPX_ (.SX8X[.[.[.].].[.%.k B p.i.i.y.y.y.y.y.y.i.y.y.y.y.t.t.y.t.t.t.t.t.y.t.y.r.r.y.t.r.r.y.r.r.r.t.r.r.r.r.r.r.r.e.9.k.+   . o +           + O     o - s s XXmXp   i @Xp 0 % & d #X@Xi p d .     - XXmXMXNX&Xd }.#X*         = |.MXMXHXs . }.&XLXBX=     s BX&XmXp #Xd   = }.&Xr     w |.=   o o # A B I / # $ X # > > -.-.;.-.-.-.-.-.-.-.-.-.-.-.O.E.DXVXzXzXAX:XG ( =.-.-.+.*.+.+.*.*.+.O.*.O.-.H h Y [.^.^.^.Q.Q./.AXn.Q PXPXPXPXPXPXPXPXPXPXPXPXPXPXPXPXPXPXPXPXPXPXPXPXPX",
"PXPXPXPXPXPXPXPXPXPXPXPXPXPXPXPXPXPXPXPXPXPXPXPX>.v.AXeX[.'.[.[.'.[.c.k l 9.i.y.y.y.y.y.y.y.y.t.t.y.t.t.y.t.t.t.t.t.t.t.r.t.t.r.r.y.r.t.r.r.r.r.r.r.r.r.r.r.r.r.q.9.l.#   . o + .           . & O     - s |.XXmXmXe % = p @X0 & p XX%XXXp p =     . w #XBXBXmX.Xs &X%XO       . s HXNXHXXX& O d BXHXp     % s p mX&X@X%X. o e MX@X&   i &Xp % . . + A m I / M $ 4 k $ ^ -.-.-.;.-.-.-.-.-.-.-.-.O.) R.FXVXlXzXVX:Xb o.+.+.+.+.+.+.*.O.+.+.+.+.+.+.+.+.N h l.[.Q.Q.Q.W.W.7XVX$.Q PXPXPXPXPXPXPXPXPXPXPXPXPXPXPXPXPXPXPXPXPXPXPXPX",
"PXPXPXPXPXPXPXPXPXPXPXPXPXPXPXPXPXPXPXPXPXPXPXPX1.dXbX[.[.'.[.'.[.K.M k #.i.i.i.y.y.y.y.y.t.y.e.W.H.e.t.t.r.t.t.y.r.r.t.r.y.r.r.t.r.r.u.r.r.r.r.r.r.r.r.r.q.u.0.9.l.+     . o + O O .     . o & = % O = p XX.X#XNXBXs % = &X#X& o s mXXXp %Xp         r NXLXHXMXs #XLXXXo       9 BXHXMXXXXXO s NXs |.-     % i #XMXXXBXr   O @XMXs = * %X.X- o . o u m B I / { I I -.-.-.;.:.-.-.-.-.-.-.*.-.*.) 4XFXzXlXzXVX;XC O.-.+.+.*.+.+.+.+.+.+.+.O.+.O.O.+.O.o.l v E._.!.!.W.W.H.jXrX` PXPXPXPXPXPXPXPXPXPXPXPXPXPXPXPXPXPXPXPXPXPXPXPX",
"PXPXPXPXPXPXPXPXPXPXPXPXPXPXPXPXPXPXPXPXPXPXPX_ !.ZX5X'.'.'.'._.'.U k I t.t.t.t.y.t.y.t.t.t.r.F.bXqXZ.r.t.t.t.r.r.r.y.r.r.r.r.r.r.t.r.r.r.r.r.r.r.r.r.q.r.r.0.0.l.#   .     o O 9 w & O % = - r i w = - r .X#X%XBXHXNXd   r HX0   . }.mXd .X%X- .     = mXKXmXBX@Xi MXLX0       . mXHXNXBXe   .XmXe .X.X.   0 }.%X#X|.HXs   . p MXp .   }.mXe . o @ o 6 A B E { / #.&.&.&.:.-.:.-.-.+.-.-.+.O.O.1XFXzXzXzXGXm.b +.*.O.+.+.O.O.+.+.+.O.O.O.+.o.O.o.+.+.+.! h G Q.W.W.H.H.J.!.bXn.Q PXPXPXPXPXPXPXPXPXPXPXPXPXPXPXPXPXPXPXPXPXPXPX",
"PXPXPXPXPXPXPXPXPXPXPXPXPXPXPXPXPXPXPXPXPXPX>.w.AXeX'.'.'.'._.'.l.k M u.i.i.i.t.t.t.t.t.t.t.y.jXyX8X8XH.r.r.t.u.r.r.y.r.r.u.t.r.u.r.t.r.r.r.r.r.r.r.r.r.q.q.0.x.1     . o o o O % - - = = = 0 w w i e - = - s mXMXHXBX0   O mXp     9 @XmXd &X%XO   - .XMXLXBXMXBXs |.LXi       0 MXMXKXBX- * XXNX|.@X@X*   = &XmXe |.BXe   o s mXi     p NXp . O O   @ : R B U / {  .&.&.&.&.&.-.O.-.*.*.-.( 4XSXvXzXvXzXm.C *.*.+.O.*.O.+.*.O.O.O.o.+.O.+.O.+.o.O.O.o.+.V h k.W.H.H.H.F.F.5XjX..Q PXPXPXPXPXPXPXPXPXPXPXPXPXPXPXPXPXPXPXPXPXPX",
"PXPXPXPXPXPXPXPXPXPXPXPXPXPXPXPXPXPXPXPXPXPX=.wXbX'.'.'._._.'.K.n l #.i.t.t.t.t.t.t.t.t.t.t.0XhX8X6X8X8XW.r.r.r.t.r.r.r.r.r.r.r.q.r.r.r.q.r.r.q.r.q.r.q.q.0.9.7   X   . O O O O O O % O O & = & = = e i - % o 0 &XBX&X-     }.#X- % 0 }.mX%X%X#Xo . e p @XHXNXBXLX%X@XHXmX%     = #X#XNXLX|.0 .XNXXX.X%Xw     9 - - #XMX.X  . s NXw     0 NXd . % O   + X # u m U Q { ^  .&.&.&.+.-.+.-.+.+.-.] m.vXvXcXP H -.+.+.+.+.O.+.O.O.O.O.o.+.+.o.+.O.o.O.O.o.O.( O.b j M.J.F.F.F.Z.F.hX<XQ PXPXPXPXPXPXPXPXPXPXPXPXPXPXPXPXPXPXPXPXPXPX",
"PXPXPXPXPXPXPXPXPXPXPXPXPXPXPXPXPXPXPXPXPX>.D.CX6X_._._._._._.U v Q i.t.t.t.t.t.t.r.t.t.r.N.eX8X8X6X6X6X6X!.t.r.t.r.r.r.r.r.r.q.r.r.r.r.r.q.r.q.e.u.q.q.q.<.l.X     . o O o + O O o o . . O % O % = = s p 9 9 o .X#X- o     9 .X9 % & d &X&XmX%Xo . 9   & NXNX|.%X%X.XmXKX}..   % XX&X|.BXMXi i mX@Xs @Xe         d &Xd }.    }.BX= .   e NXs   O O . % %     . u D E ` {  .| &.&.&.+.-.&.+.&.&.W m.gXd.H +.o.+.O.O.+.O.O.+.O.O.+.o.+.+.o.+.o.+.o.+.o.o.o.+.] j G D.F.Z.Z.Z.N.!.cXl.E PXPXPXPXPXPXPXPXPXPXPXPXPXPXPXPXPXPXPXPXPX",
"PXPXPXPXPXPXPXPXPXPXPXPXPXPXPXPXPXPXPXPXPX,.lXhXQ.'._._._._.l.l M u.t.t.t.y.t.t.r.t.r.r.r.Z.tX6XiXiX6X[.[.6XQ.r.q.r.r.r.r.q.r.r.r.q.q.r.q.r.q.r.q.u.q.q.3.9.u         . .   . o o o o         . . o O - e 9 = o 0 r .       & d O + . = XX#X@X&X%   . o .  XLXe - MX|.&XKX%X=   o }.mX%X#XmX%X0 .X%X X#X9         - d s w   % &X#X% o   s MX9   o * . % &         5 T U Q ' ^  .O.+.O.O.+.+.+.&.O.[ Z V +.O.+.O.O.+.o.+.+.o.O.O.o.+.o.o.o.o.o.+.o.o.| o.o.+.o.K , ..F.Z.Z.Z.N.y.8XdX{ PXPXPXPXPXPXPXPXPXPXPXPXPXPXPXPXPXPXPXPXPX",
"PXPXPXPXPXPXPXPXPXPXPXPXPXPXPXPXPXPXPXPX>.(.AX'._._._.Q._.K.b l :.y.u.t.r.t.r.t.t.u.t.r.e.B.9XiXl.k.6X[.[.[.[.Q.y.r.q.r.r.r.q.r.r.q.r.r.r.q.r.q.e.e.u.3.9.,XO             . .   . O o                 % 9 0 +               + = . % .   O d d %X}.      0 XXNX&Xd mXmX#XHXXX+     i mXMXmXr @XXX|.|.@XmX9       + & o w }.% r NX|.o .    XmX=   . o . & %           $ m V U ` ] o.+.+.+.+.+.&.O.+.+.o.+.+.o.+.o.o.+.o.O.o.+.o.O.+.o.+.o.o.o.o.o.| o.} o.o.} o.o.b z v.Z.N.N.N.N.B.jXR.E PXPXPXPXPXPXPXPXPXPXPXPXPXPXPXPXPXPXPXPX",
"PXPXPXPXPXPXPXPXPXPXPXPXPXPXPXPXPXPXPX>.w.bXqXW._.W.W.`.`.U v I y.t.t.r.r.t.y.r.r.t.r.r.t.q.X.b.Y ' d.'.[.'.'.'.Q.N.4.r.q.r.r.q.q.r.q.q.q.r.q.q.q.e.1.M.nXg               . o o . o o                 . & %                     . O   . . o r @X#X%   o = i &XBXmXmX&X XMX#X.   . d @X&X.Xo }.}.= r #XmX-       O o O d |.% w mX.Xo . o @XmX&       . % .             5 S B ` Q ^ | O.O.+.O.O.O.O.O.+.+.+.+.o.+.+.o.+.o.+.o.O.o.o.o.o.o.o.| o.o.o.o.o.o.o.o.o.| J h V Z.N.N.N.y.t._.dXX.E PXPXPXPXPXPXPXPXPXPXPXPXPXPXPXPXPXPXPX",
"PXPXPXPXPXPXPXPXPXPXPXPXPXPXPXPXPXPXPX_ 1XbX_.`.Q.`.`._.x.l M 0.y.r.t.y.y.r.r.y.r.r.u.r.r.r.q.` n r.&.Y R.[._._._._.B.r.q.r.q.q.q.r.q.q.q.q.q.r.p.1.D.xX=X                    o .                                               . O     .   i &X#X9 O % o + %XMXmX&X}..XMXNXr   O }.#X.X% % &X}.  d BX#X.         . i |.0 o i MXd o . & #Xp         o O                 5 S B U ` ]  .O.O.+.O.o.O.O.+.o.+.o.o.+.+.o.+.o.o.o.o.o.o.o.| o.o.o.o.o.o.} } o.} o.| ] O.N , 7.V.y.y.y.t.y.eX~.E PXPXPXPXPXPXPXPXPXPXPXPXPXPXPXPXPXPXPX",
"PXPXPXPXPXPXPXPXPXPXPXPXPXPXPXPXPXPX>.v.AX5XW.`.W.J.W.J.B k  .y.r.t.r.r.r.r.r.r.r.r.r.r.r.r.t.r.7.e.t.;.U R._._._.Q.'.M.q.q.r.q.q.q.q.q.q.q.q.q.e.L.GXGXq                                       .                                 o o       w mX.X= % o O - &X#X&XXX- |.HX&X9   . }.XX=   = NXXXO %XMXe             = 0 .   0 i & O . o = .         o o                   5 S S I ` ]  .o.o.O.+.O.O.o.+.o.+.o.+.o.o.o.o.o.o.o.o.o.o.} o.} o.} o.} } } } } o.o.} o.} v c N.y.y.u.y.e.H.jX..E PXPXPXPXPXPXPXPXPXPXPXPXPXPXPXPXPXPX",
"PXPXPXPXPXPXPXPXPXPXPXPXPXPXPXPXPXPX>.7XcX`.W.W.W.J.`.%.l B t.t.r.r.r.t.r.r.r.r.r.r.r.r.r.r.q.q.t.q.u.r.3.D c._.`.`.L.G w.q.q.q.q.q.q.q.q.q.q.5.E.ZXFX-X                                    . o O o                   . .         o & .     - &Xp O % .   = %X.XXX}.o }.HXXX.   o p =     % mXd   d p o . .       O 0 &           O O     + o                               5 S B E / ] } | o.O.o.o.+.o.o.+.o.o.o.+.o.o.o.o.| o.o.o.o.o. .o.o.} } } } +.o.} } } } o.H , { N.u.r.t.r.r.qX<XI PXPXPXPXPXPXPXPXPXPXPXPXPXPXPXPXPXPX",
"PXPXPXPXPXPXPXPXPXPXPXPXPXPXPXPXPX=.v.AX].J.W.J.W.I.S.M l #.t.e.u.r.r.r.r.q.r.u.r.r.q.r.q.r.r.r.r.q.e.e.r.4.U l._.H.G &.r.q.q.q.q.q.q.q.3.q.1.Q.SXFXaX5   X                               . O + + o o                 o           o O       - @X0 o % o   + }..Xd w   r NXs     . O   .   . &Xd % w o             & - - .   .     .     % 0 .   . w o                         L B B ` `  .} +.o.o.+.o.o.o.o.o.o.o.o.| } o.o.o.o.} o.} } o.o.} } } o.} } ] o.} } ] o.o.b j 0.y.r.t.r.4.F.fX%.I PXPXPXPXPXPXPXPXPXPXPXPXPXPXPXPXPX",
"PXPXPXPXPXPXPXPXPXPXPXPXPXPXPXPXPX=.0XjXJ.W.J.J.J.I.{ k I t.r.r.r.q.u.r.r.q.r.q.r.u.q.r.r.q.q.q.q.r.q.q.q.q.q.` k.Y ' r.q.q.3.w.q.q.q.3.3.5.!.SXFXnXh.  . .                             . o o O O O o o               o .         .         = p 9 % & O   o 9 p - .   0 %Xs         . .   o &Xs - *     . o     o & % .     % . . . . O % .     p MX=             .           * A B I E '  . .o.o.o.o.o.o.o.} o.o.} o.o.o.o.} } o.} } } } } o.o.} } ] } } } } } } ] o.[ h D y.r.r.r.e.e.7X<XE PXPXPXPXPXPXPXPXPXPXPXPXPXPXPXPXPX",
"PXPXPXPXPXPXPXPXPXPXPXPXPXPXPXPX=.v.AX'.J.J.J.J.J.D.b c <.t.r.r.r.r.r.r.r.r.r.q.q.q.r.r.q.r.q.q.r.q.q.q.q.q.q.r.[ D r.4.q.q.q.3.q.q.w.4.2.K.CXSXxX<Xt   O o                               O - 0 0 w = O O           .                       o = & & = %   . O = o   o e |.0         + .   % MXp O e o   O O     * = .           . O o o   . - s NX%Xo           . % % . o o     u m B I / ' }  .o.} @.o.o.} @.o.} o.} o.} o.o.} } o.} o.] ! ] ] } ! } o.} } ] } ] } ] o.b j <.t.e.r.e.e.Z.jX..I PXPXPXPXPXPXPXPXPXPXPXPXPXPXPXPX",
"PXPXPXPXPXPXPXPXPXPXPXPXPXPXPXPX=.7XhXJ.J.J.J.F.G.` v E r.r.r.r.r.r.q.r.q.r.q.r.r.q.q.q.r.q.q.q.q.r.q.q.q.q.q.q.q.q.q.4.q.3.3.3.4.q.4.1.L.ZXDXbX9X;X  + o .     o O                     = i p p p p p i i 0 O                               o + % = = %     o %   . = e 0 .       o o     - HXd . r . . o       % O .     . % * = .     % .XNXBXMX#Xo         . o & & & = 9 O   + R B B U ` } } o.o.o.o.} o.o.} } } } } } } } } o.] ! ] z.R.).(.(.c.@.] ] } ] } ] o.] o.[ j V t.e.r.e.e.4.5X<XU PXPXPXPXPXPXPXPXPXPXPXPXPXPXPXPX",
"PXPXPXPXPXPXPXPXPXPXPXPXPXPXPX=.v.bX].F.G.F.F.J.M.c n <.r.r.r.q.q.r.r.q.r.q.r.q.r.q.r.q.q.q.q.q.q.q.q.q.q.q.3.q.q.q.3.q.q.w.3.3.3.q.5.v.AXDXxX9X<Xy . O . . o % & %                 . 9 p p i p i p p p d d p w %                     .       . O = = o           o = 9 O     . . o o     s HXe   o   .     . + O o o     O - = o     - #XNXMXMXNX&X%         o % & % - 0 r &     7 m I V E ] } o.} o.} o.} o.} } } @.} } } } } ! ! c.1X5X^.H.Z.Z.F.H.6.] ] } ] } ] ] ] ] N h 7.r.e.e.e.4.Z.dXX.I PXPXPXPXPXPXPXPXPXPXPXPXPXPXPX",
"PXPXPXPXPXPXPXPXPXPXPXPXPXPXPX=.1XhXH.F.F.F.F.G.U v E t.r.q.r.r.r.q.q.r.q.r.q.q.q.q.q.q.q.q.q.q.q.q.q.q.q.3.q.3.q.3.4.3.3.3.3.w.3.2.w.cXDXVXiX9X<XO   @ + . . & &               o 9 p p i p s }.d }.}.d }.}.}.}.s 0 %                         . = = +               o .           O .   9 BXXXO .   o .   o O O O .         . . % i }.mXNXMXmXMXNXmX=         . O % O = p i 9     # A I I I ` ^ ] o.o.] } } } o.} } } } } } } ] o.<X7XJ.N.N.N.Z.C.i.y.N.+.] ] } ] } ] ] } [ h N e.e.e.3.e.4.8X~.H PXPXPXPXPXPXPXPXPXPXPXPXPXPXPX",
"PXPXPXPXPXPXPXPXPXPXPXPXPXPX-.w.bX].G.F.F.F.G.M.l n 3.r.q.r.q.q.q.r.r.q.q.q.q.q.q.q.q.q.q.q.q.q.q.q.3.q.w.q.4.3.3.3.3.w.3.3.3.3.3.2.wXDXCXtX9X].g..   X O %   . = o           . w s p p d  X|. X}.|.|.|.|.}.}.}. X|.d 0 % .                   o & O                             . o     |.HXi o .   o O o + O o . . & . o 0 |.%X&XmXNXMXMXmXMXMXMXMX9           O & O = i p e O     u n I ` E / ] o.o.o.} } } } o.} } } } } ] @.3X^.N.N.N.Z.B.7...7.y.y.9.[ ] ] ] ] ] ] ] o.N h ;.e.4.4.e._ F.dXX.I PXPXPXPXPXPXPXPXPXPXPXPXPXPX",
"PXPXPXPXPXPXPXPXPXPXPXPXPXPX=.(.jXF.F.F.A.A.Y.{ v Q r.q.q.r.r.q.q.q.r.q.q.q.q.q.q.q.q.q.q.q.q.3.3.q.w.3.4.w.4.3.3.3.2.4.w.3.2.2.5.1XDXZXtX8X9X9Xy X X . O & % O O o o         - s p p }.|.|.}.|.|.}.|. X|.|.|.|.|.|.|.}.s 0 o                 % O                               .     = BXmX= o o .   .           e MX.XXXMXNXNXMXMXmXMXMXMXmXMXMXNXp           O % - = q p p -     1 m B U { Q ] } ] } } } } } } } } } ] ! ] 1XW.y.Z.Z.9.U b N N M { y.y.K ] ] ] ] ] } ] ] ] j V e.3.e.3.1.e.tXR.V PXPXPXPXPXPXPXPXPXPXPXPXPXPX",
"PXPXPXPXPXPXPXPXPXPXPXPXPXPX,.jX6XZ.F.A.Z.A.M.b c <.r.r.q.q.q.q.q.q.q.q.q.q.q.q.q.q.q.q.w.3.3.w.3.3.3.3.2.4.2.w.w.3.3.2.2.2.2.2.E.FXDXeX6X6X].).y X   o o % 9 - & % = o     = p s d d |.}.}.}.|.}.|.|..X.X|..X|..X.X|.|. Xd i O             % * .   o o                             % %XMXp + .         O % % i XXmXNXBXBXMXMXmXMXMXMXMXMXMXmXMXMXNX.X            % 0 0 0 0 i 0 X   @ 4 B U / / ] } } } } } } } } ] ] } } ! z.(.N.N.N.D b K ] o.o.] +.y.y.[ J ] ] ] ] ] ] ] } M j =.e.1.1.3._ K.rX` PXPXPXPXPXPXPXPXPXPXPXPXPXPX",
"PXPXPXPXPXPXPXPXPXPXPXPXPX) E.bXJ.A.Z.Z.Z.A.{ v I t.q.q.q.q.q.q.q.q.q.q.q.3.q.q.3.w.q.3.w.3.3.3.w.3.2.w.2.2.3.2.2.3.w.2.3.3.1.v.GXDXkXiX9X[.[.T.5   . % % = - = = & * O   % p p i d }.|.|.|.}.|.}.|..X.X.X.X|.XXXX.X.X.X.X.X Xs -         . % = % % % o                 o o .     % .XXX0 .     - |.i d &XNXMXNXNXMXMXMXMXmXMXMXMXMXMXmXMXMXMXMXMXMXMX9           = e 0 r 0 e r %   # 4 m I U / [ ] } } ] } } ] } ] } ] ] ] v.H.y.N.N M ] o.] ] ] ~ E.N.t. .H ] ] ] ] ] ] ] o.J 2 V e.5.5.3.1.0.dXl.I PXPXPXPXPXPXPXPXPXPXPXPXPX",
"PXPXPXPXPXPXPXPXPXPXPXPXPX*.0X8XZ.Z.Z.Z.Z.B.M l <.r.q.q.q.q.q.q.q.q.3.q.w.q.3.4.3.3.3.3.3.3.3.3.3.2.3.3.3.w.3.3.2.2.2.2.2.1.1.fXDXbX9X[.[.[.[.T.;   o % % & = & - = o   o 0 s i s }.|.}.}.}.}.|.|.|..XXXXXXX@XXX@X@XXX@XXXXX.XXX}.e %     . % % O o .                 o O o       0 d O     o p mXHXBXBXNXNXNXMXMXMXMXMXMXMXMXMXmXMXMXMXMXmXMXmXmXMXNX.X.         o p i p p 9 e %   & Z m B I #...] } } } ] ] } } } ] ] } ] v.Z.N.{ N o.] ] ] ] ] R.Q.q.t.` D } ] ] ] ] ] ] ] ] C v 1.5.3.1.1._ (.<XI PXPXPXPXPXPXPXPXPXPXPXPXPX",
"PXPXPXPXPXPXPXPXPXPXPXPX=.v.cXW.V.Z.Z.Z.A.#.j V e.q.q.q.q.4.q.4.4.3.3.q.4.4.2.3.3.3.3.3.3.3.3.3.2.2.2.3.2.2.,.2.2.2.2.2.2.>.(.JXSXiX[.[.[.[.).b..   . = % O o O = = % % 0 p p d |.|.}.}.|.|..X#X#X#X@X#X@X@X#X@X@X#X@X#X#X#X#X@X@XXX}.e = % .             . .         o O .     O d }.= 9 d #XNXNXMXMXMXMXMXMXMXMXMXMXMXMXMXMXMXMXMXMXmXMXMXMXMXmXMXMXMX0           % s e i i 0 @   * 7 m B U / o.] ] ] ] } } ] ] ] } ] ] ] @.N.y.{ H ] ] J ] z.1XW.e.r.e.M J ] ] ] ] ] ] ] ] ] W , Q 4.1.1.1.>.B.dXX.V PXPXPXPXPXPXPXPXPXPXPXPX",
"PXPXPXPXPXPXPXPXPXPXPXPX*.(.hXZ.Z.Z.Z.V.C.B v #.r.3.q.q.3.0.q.q.q.w.3.4.3.3.q.w.3.2.w.3.q.,.3.2.3.2.2.2.w.2.w.2.2.w.2.2.1.v.SXSXyX[.[.[.[.).).t     . = & % o . % % % w p p s |.}.|.|.|.@X%X&XmXMXmXmXmX&XmX&X&XmX&X%X%X&X&X&X%X#X#X%X%X@X|.e % .       O * o     O % * +       9 %XMX&XMXBXNXNXMXMXMXMXMXMXNXMXMXNXmXMXMXMXMXMXMXMXMXMXMXMXMXMXMXMXMXNXXX        + 9 - = i i O     # 7 m B I { +.+.' } } ] } ] } ] ] } ] ] ] w.y.r.6.7.z.c.1X(.N.4.e.y.` M } ] ] ] ] [ ] ] ] ] ] l c 1.1.1.1.1._ 8X~.V PXPXPXPXPXPXPXPXPXPXPXPX",
"PXPXPXPXPXPXPXPXPXPXPXPX7.jX'.N.V.V.V.Z.9.k M e.q.q.q.w.3.q.3.3.4.3.2.q.w.w.3.1.2.2.3.3.2.2.w.2.2.2.2.2.2.2.2.2.,.2.2.,.2.lXDXcX[.[.[.'.[.).j..     . = = = = o .   = p s d |.}.|..X.X#XmXmXMXMXMXMXMXMXMXmXMXmXMXMXMXMXmXMXMXMXmXmXmXMXMXMX&X#X|.e o + - % .   O = % % .     & @XNXMXNXNXMXMXMXMXMXMXMXMXMXMXMXMXMXMXMXMXMXMXMXMXMXMXMXNXMXMXMXmXMXMXMXmX0       . O & s d -       O 7 x B I /  .&.| ' ] } ] ] } ] ] ] ] ] ] [ e.t.y.H.!.H.y.4.q.q.t.[ N J @.J ] J ] ] ] ] ] ] o.H , } 1.2.>.>.) D.rXU PXPXPXPXPXPXPXPXPXPXPXPX",
"PXPXPXPXPXPXPXPXPXPXPX) D.jXF.V.Z.N.V.Z.` j ' r.3.3.3.3.3.w.3.3.1.B.1X7X6X].Q.H.v.2.2.2.w.2.2.2.2.w.,.,.2.2.2.,.,.2.2.=.(.DXCX6X[.'.[.'.[.K.j..     + - = - O     o 9 p s }.|.|.|..XXX&XMXMXMXMXMXMXMXMXMXMXMXMXMXMXMXMXMXMXMXNXMXMXMXMXMXMXMXNXNXmX.Xi 0 o . = = o       - d &XNXMXMXMXMXMXMXMXMXNXMXNXNXNXMXMXMXMXMXMXMXMXNXMXMXMXMXMXNXMXMXMX&XmXMXMXNXd           O w d d %     O 7 x n I {  .O.*.] ] ] } ] ] ] ] ] ] ] } J ` r.t.4.q.4.e.r.w.@.N b J @.J J ] ] ] ] ] ] [ ] ] ] j M 5.>.>.>.=.2.dXl.V PXPXPXPXPXPXPXPXPXPXPX",
"PXPXPXPXPXPXPXPXPXPXPX*.9XqXy.V.N.N.V.u.c c 2.q.3.3.3.3.3.w.4.2.D.0XQ.F.Z.Z.F.H.Q.F.2.2.,.2.2.2.w.2.2.,.,.2.,.,.2.,.;.v.CXSXtX'.'.'._._._.R.T.      O = & % .   O = 9 p s }.|.|..X.X%XmXMXMXMXMXMXMXMXMXMXMXMXMXMXMXMXMXMXNXMXMXMXMXMXNXNXMXMXMXMXNXNX&X|.e i 0 .   . % }.mXNXNXMXMXMXMXMXMXMXMXMXMXMXMXMXMXMXMXNXMXMXMXMXMXMXMXMXNXMXMXMXNXMXmX%XmXMXmXNXXXo         . - .X&Xi     + 6 x m U / ^ #.-.o.[ } ] ] ] ] ] ] ] ] ] ] V N 7.r.t.r.4.#.K G J @.@.J J @.[ ] ] ] ] ' ] ] ] ] N j *.>.>.=.=.) /.~.V PXPXPXPXPXPXPXPXPXPXPX",
"PXPXPXPXPXPXPXPXPXPXPX9.jXQ.N.N.N.V.C.#.v V 4.3.w.3.3.3.3.4.2.w.qXH.A.G.G.G.Z.Z.Z.F.F.w.2.,.2.2.,.2.,.2.2.,.,.,.,.2.>.1XDXbX'.'.'.'._._.!.K.h.      o o .   . O O o 0 i p |.}.|..X.X&XMXMXMXMXMXMXMXMXMXMXMXMXMXMXMXNXMXMXMXNXMXMXMXMXMXNXNXNXNXMXMXMXNXMXmX%X.Xp s .X&XNXMXMXMXMXMXMXMXMXMXMXMXMXNXNXNXMXMXMXMXMXMXMXMXMXMXMXMXMXMXMXMXMXNXNXMX%X%XmXMXNX&X=         = p XXXX9     + 7 4 B I ` ^ &.+.-.] [ ] ] ] ] ] ] ] ] ] ] ] [ N M N N b C K J J J @.J @.J ] ] ] ] ] ' ] ] ] ] [ h J 5.=.=.=.) v.dXY PXPXPXPXPXPXPXPXPXPXPX",
"PXPXPXPXPXPXPXPXPXPX*.E.hXZ.N.V.V.y.V.V v +.q.q.2.3.2.3.2.3.2.(.Q.A.M.X...x.N.A.C.V.V.Z.2.,.2.,.,.2.,.,.,.,.,.,.2.=.D.DXFX6X_.'._._._.`.!.L.g.    % = .     + o   O i p d |.}.|..X@X&XMXMXMXMXMXMXMXNXMXNXMXMXMXMXMXMXNXMXMXNXMXNXMXMXMXMXNXMXMXMXMXMXNXNXMXNXNXNXBXBXNXMXMXMXMXMXNXMXNXMXMXMXNXMXNXNXMXMXMXMXMXMXNXMXMXMXMXMXMXMXMXMXMXNXBXNXMX&X%XmXMXMXMX9         % i s s s X   + 6 4 m I Q  .&.&.&.+.W ! ] ] ] ] ] ] ] ] ] ] ] ] [ K J } } } ..J } J o.J o.] ] ] ] ] ] ] ] ] ] ] v b =.=.=.=.*.;.wXl.V PXPXPXPXPXPXPXPXPXPX",
"PXPXPXPXPXPXPXPXPXPX*.9X8Xy.N.V.N.V.p.l b 2.3.2.3.2.w.2.2.2.3.(.A.B.M ` [ V D X.B.Z.N.V.v.:.2.2.,.,.,.,.,.,.,.,.;.;.gXDXhX_._._._.`._.`.K.L.g.  . 0 &     O o     9 p p |.|.}.|..X#XmXMXMXMXMXMXMXNXNXMXNXMXMXMXMXNXMXMXMXMXMXNXMXMXMXNXMXMXMXMXNXMXMXMXMXMXMXMXMXMXMXMXMXMXMXMXMXMXMXNXMXMXMXMXMXMXMXMXMXNXNXMXMXMXMXMXMXMXMXMXMXMXMXMXMXNXBXNXmX%X%XMXMXNXs         = s p p s %     5 x m B U /  .&.&.&. .' ] ] ] ] ] ] ] ] [ ] [ ] ] ] ] ] ] ] J ] ] @.J @.J ] ] ] ] K ] ] ] ] ] ] H j ( >.=.*.=.) /.4XV PXPXPXPXPXPXPXPXPXPX",
"PXPXPXPXPXPXPXPXPXPX6.jXW.y.N.y.y.V. .j D 4.q.2.2.w.2.2.2.2.v.W.A.X.' q.0.3.,.[ D 6.V.i.N.{ ;.,.,.,.,.,.-.,.,.,.*.D.DXCX'.`._.`.`.`.`.W.K.L.s.  o *   . + O       = e i d }.}.|.|.#XMXMXNXMXMXNXMXMXMXMXNXMXMXNXNXNXMXMXMXNXMXMXMXMXMXMXMXMXMXMXNXMXMXNXMXNXMXMXNXMXNXMXNXMXNXMXMXMXNXMXMXMXNXMXNXMXMXMXMXMXNXMXMXMXMXMXMXMXMXMXMXMXMXNXNXNXNXNXMX&X&XmXMXNX X.       o r s d .X-     5 4 n B Q  .^  .&.O.O.W ] ' ] ] ] ] ] ] J ] ' ] ] ] ] ] ] J @.] ] J @.J o.J ] ] ] ] ] ] ] ] ] ] ~ j H *.*.) *.( v.rXU PXPXPXPXPXPXPXPXPXPX",
"PXPXPXPXPXPXPXPXPX) D.jXN.y.N.i.y.i.B v &.q.2.2.2.2.2.2.2.3.w.H.C.x. .2.,.2.,.3.-.V 7.V.C.` +.,.,.,.,.,.,.,.,.,.;.lXDXyXW._.`.W.`.I.I.K.K.{.s.  .   . o O .       & e p d |.|..X.X%XMXMXMXMXMXMXNXMXMXNXNXNXNXNXMXNXNXMXMXMXNXMXNXMXMXMXNXNXMXMXMXMXMXMXMXMXMXNXMXMXMXMXMXMXNXMXMXMXMXMXMXMXMXMXMXMXMXMXMXMXMXMXMXMXMXMXMXMXMXMXMXMXMXNXNXBXBXNXMX&X%XmXMXMX#Xo       o & }.|.w .     5 4 m B I /  .O.&.O.O.' W ] ] ] ' ] ] ] ] ] ] ] ] ] J ] ] } J ] ] o.J @.J ] ] ] ] ] ] ] ] ] ] ] } c l *.*.) *.O.;.rXl.V PXPXPXPXPXPXPXPXPX",
"PXPXPXPXPXPXPXPXPX*.1X8Xy.V.y.i.i.p.l M 2.2.2.w.2.2.2.,.2.,.w.F.N.Z.B.<.,.,.,.,.2.;. .y.V.{  .2.,.,.,.,.,.-.,.-.E.DXVX_.`.`.W.`.J.J.I.G.K.M.g.      . .           = e i d }.|..X.X#XMXMXMXMXMXMXMXNXNXMXNXMXMXNXNXNXMXMXNXMXMXMXMXMXMXNXMXNXMXMXMXMXMXMXMXMXMXMXMXNXMXMXMXMXMXMXMXMXMXNXMXMXMXMXMXMXMXNXMXMXMXMXMXMXMXNXMXMXMXMXMXMXMXNXNXBXNXNXNX&X&XmXmXMX%X+       - p s %   .     ; 7 c B I /  .O.O.O.O.O.W ' ] ' ] ] ] ] ] ] ] ] ] ] J ] ] ] ] J @.J @.J @.] ] ] ] ] ] ] ] ] ] ] o.H h ^ *.O.*.*.( (.~.V PXPXPXPXPXPXPXPXPX",
"PXPXPXPXPXPXPXPXPX7.eX_.y.y.y.y.V. .j I q.2.,.,.,.2.2.2.,.2.,.u.V.V.N.Z.v.2.=.,.;.=.w.Z.V.D } ,.-.,.-.,.-.,.-.-.lXDXqXJ.W.J.I.J.J.J.J.F.K.M.s.      .             - e i p |.|.|..X%XMXMXMXMXMXMXMXNXNXMXMXMXNXNXNXNXNXMXMXMXMXMXMXNXMXMXMXMXMXMXMXMXNXMXMXMXMXNXMXNXMXMXMXNXNXMXMXMXMXMXNXMXNXNXMXMXNXMXMXMXMXNXMXMXMXMXMXMXMXMXMXMXMXNXBXNXNXBXMX&X%XmXmXNX&XO       % |.s           ; 4 m B V / ]  .&.O.O.O./ J ] ] ' ' ] ] ] ' ] ] ] ] ] [ ] J ] ] ] } J o.J ] ] ] ] ] ] ] ] ] ] ] } [ j H =.*.( ) ( c.rXU PXPXPXPXPXPXPXPXPX",
"PXPXPXPXPXPXPXPX) x.jXA.y.y.i.t.i.V v ^ 3.2.,.w.,.2.,.2.,.2.,...9.A.N.N.A.H.B.8.,.w.1XA.y.N -.,.,.-.-.-.=.,.*.c.DXAX`.W.J.J.J.G.G.J.F.F.S.M.g.                  . - e p s }.|.|..X%XMXMXMXMXMXMXMXMXMXNXMXMXNXNXMXMXMXNXMXMXMXMXMXNXMXMXMXMXMXMXMXNXMXMXMXMXMXMXMXNXMXNXMXMXMXMXNXMXMXMXNXMXMXMXMXMXMXMXMXMXMXMXMXMXMXMXMXMXMXMXMXMXMXNXBXBXNXNXmX&X%X&XmXNX&X%       % }.@Xr   . @   ; 7 k m I ` '  .O.O. .O.o.H ] ] ] ] ] ] ] ] ] ] ] ] ] ] ] @.J } ] } J o.@.] ] ] ] ] ] ] ] ! ] ] ] } l b =.*.*.( ( 7.eXk.V PXPXPXPXPXPXPXPX",
"PXPXPXPXPXPXPXPX) ).eXy.y.y.y.i.u.l b <.2.2.,.,.2.,.2.,.,.;.2.;.` 9.V.y.y.N.A.W.(.5XH.i.7.N ,.-.-.,.,.-.-.=.*.fXJXtXF.I.J.G.J.F.G.G.G.S.S.{.d.                  % 0 e i s }.|.|.XX%XMXNXMXMXMXMXMXMXMXMXMXMXMXMXMXNXMXNXNXNXMXMXMXNXMXMXMXNXMXMXNXMXMXMXNXMXMXNXMXMXMXNXMXMXMXMXMXNXMXMXMXMXMXMXMXMXMXMXNXMXMXMXMXMXMXMXMXMXMXMXMXMXNXNXBXNXNXMXmX%X%XmXmXMX&X%   o O O = XX&Xr . .   : 4 4 B V E  . .( o.O.o.O.[ H ] ] ] ] ] [ ] ] [ ] ] ] ] ] J @.] ] J @.} J ] ] ] ] ] ] ] ] } ] ] ] } H j ( ( ( O.O.( 3Xl.V PXPXPXPXPXPXPXPX",
"PXPXPXPXPXPXPXPX&.0X].t.y.y.y.V.$.v V 3.,.,.2.,.,.2.,.,.2.,.,.,.+.D 7.N.i.y.y.i.i.t.y.y.M } ,.;.-.,.-.-.;.*.v.DXCXQ.G.J.G.F.G.F.F.A.A.Z.S.p.d.                  % 0 r i s |..X|.XX%XMXMXMXMXMXMXMXNXMXMXNXMXMXMXNXNXMXMXNXNXNXNXMXMXMXMXNXMXMXMXMXMXMXMXNXMXMXMXNXMXMXMXMXNXMXMXNXMXMXNXMXMXNXMXMXNXMXMXMXNXMXMXMXNXMXMXMXMXMXMXMXMXMXNXBXNXNXNX&X#X%XmXmXMX&XO   O O o O p mXs . o   ; 4 x B I ` ' o. . .+.o.o.] H ] ] ' ] ] ] ] ] ] ] ] ] ] ] ] ] ] ] ] ] ] ] ] ] ] ] } } ] ] ! ] } } } ~ j H +.O.( O.( E.4XD PXPXPXPXPXPXPXPX",
"PXPXPXPXPXPXPXPX7.hXW.t.y.y.y.i.` j / 3.,.,.,.2.,.;.,.,.,.,.;.;.,.-.H D 7.y.i.i.i.i.y.G D 2.;.;.;.-.-.-.-.) 1XJXdXA.F.G.F.F.G.A.Z.Z.Z.V.p.{.a.X                 o 0 w e p |.|..XXX%XMXMXMXMXMXMXNXMXMXMXNXMXNXNXMXNXMXNXMXMXNXMXMXNXMXMXMXMXNXMXNXMXMXNXMXMXMXNXMXMXMXMXNXMXMXMXNXMXMXMXMXNXMXNXNXMXMXMXMXMXMXMXMXMXMXMXMXMXMXMXNXMXMXNXNXBXBXMX&X#X&XmXMXNX&X%   % O O O 0 @X- .     : 6 x n B E ^ } o.O.o.o.o.o.K J ] ] ] ] ] ] ] ] ] ] ! ] ] ! ] ] ] } ] ] ] ] ] ] ] ] ] ] } } } } ] ] } l M *.O.O.( ( z.rXU PXPXPXPXPXPXPXPX",
"PXPXPXPXPXPXPX) v.jXV.y.y.y.y.y.M v -.,.,.,.;.,.;.,.;.;.,.-.,.-.;.;.,.} V D ` ..#.` M K ,.;.-.-.-.-.-.=.*.7.VXSX_.A.G.G.A.F.A.Z.Z.S.Z.N.i.8.5                     = w e s |.|..XXX%XmXMXMXMXMXMXNXMXMXNXMXMXNXMXMXMXMXNXMXMXMXMXMXMXMXMXNXMXNXMXMXNXMXMXMXNXMXMXNXNXMXMXMXNXNXMXMXMXMXMXMXMXMXNXMXMXMXMXMXMXMXNXMXNXMXMXMXMXMXMXMXMXNXNXBXNXNXmX%X#X%XmXmXNX%XO   o o = w s p O       ; 4 4 M V ` /  .( o.o.o.o.o.[ H ] ] ] ] ] ] ] ] ] ] ] } ] ] } ] ] ! ] ] ] } ] ] ] ] } } } } ! } ] } o.C v ( O.o.o.( +.9Xk.N PXPXPXPXPXPXPX",
"PXPXPXPXPXPXPX( ).tXy.y.y.y.V.w.v M ,.,.,.,.,.;.,.,.;.,.,.-.,.,.;.;.;.,.,.+.[ H V ` +.;.-.-.-.-.-.-.-.-.) E.JXlXF.F.F.A.A.Z.Z.V.V.V.V.N.p.#.#                     - w e p |.|.|.XX%XmXNXMXMXMXMXMXMXMXNXMXMXNXMXMXNXMXNXNXMXNXMXMXMXMXMXMXMXMXNXMXMXMXMXMXMXMXMXMXMXMXMXMXNXMXMXMXMXMXMXMXMXMXMXMXNXNXMXMXNXMXMXMXMXMXNXMXMXMXMXMXMXMXBXBXBXNX&X#X#X%XmXMXMX&X%   O o % r e 0 o       1 6 x n I ` ' } o.o.} } o. .o.N ~ ] ] ] ] ] ] ] ] ] ] ] ] ] ] ] } ] } o.] ] o.] o.} } ! } } } } } } o.J j ! O.o.( } } 1Xn.B PXPXPXPXPXPXPX",
"PXPXPXPXPXPXPX*.0X].y.y.N.N.V.#.j V 2.,.,.,.,.-.;.;.;.;.;.;.,.-.;.;.-.-.-.,.>.,.,.>.-.-.-.-.-.-.-.-.-.-.O.dXJX6XC.A.Z.A.C.Z.V.Z.V.N.V.y.p.8.:                     - w e s |.|.|..X%XMXNXMXMXNXMXMXMXMXMXNXMXMXNXMXNXMXMXMXMXMXMXMXMXNXMXMXMXMXMXMXMXMXMXMXMXMXNXMXMXMXMXMXMXMXNXMXNXMXNXMXMXNXMXMXNXMXNXMXMXMXMXMXMXNXMXMXMXmXMXMXNXMXNXNXBXMX%X@X@X&XmXmXNX#XO   . o . & i i 0       : 6 4 n V E '  .} } o.o.| o.o.H H } ! ] ] ] ] ] ! ] ] } ] } } ] ] o.] ] ] } } } } } o.! } o.! o.^ } o.! v H o.( } o.! n.4XN PXPXPXPXPXPXPX",
"PXPXPXPXPXPXPX7.dXW.t.y.N.y.V.` j ] 2.,.,.-.,.,.;.;.,.-.-.-.-.,.;.-.-.;.-.-.-.-.-.-.-.-.-.+.-.-.+.-.O.( x.SXAXF.Z.Z.Z.Z.V.V.V.V.V.y.y.B.p.8.5                   . = 9 e p }.}.|.|.#XmXMXMXMXMXMXMXMXMXMXMXMXMXNXMXMXMXMXMXMXMXMXMXMXMXMXNXMXMXMXMXMXMXMXMXNXMXNXMXMXMXNXNXNXMXMXNXMXNXMXMXMXMXNXMXMXMXNXMXMXMXMXMXMXMXMXMXMXMXMXMXMXNXNXBXNXmX#XXX#X&XmXmXNX#XO   O . o & 0 }.0       ; 4 x n B E ' } } o.} } } o.o.' N ] ] ] ] ] ] ] } ] ] ! } ] ] ! o.! ] o.] ! } ! } ! ! } } ] o.o.} o.o.o.l C O.o.o.( ! c.3XU PXPXPXPXPXPXPX",
"PXPXPXPXPXPX&.x.jXF.y.N.y.N.N.M v +.,.,.-.,.,.-.;.;.;.-.-.-.-.-.-.-.-.-.-.-.-.-.-.*.+.-.+.-.+.*.-.-.-.( ).JXeXV.V.Z.V.V.N.V.V.N.N.y.y.y.p.%.1                   . = 9 e p }.|.}.|.#XmXMXMXMXMXMXNXNXMXNXMXMXNXMXMXMXMXNXNXNXNXMXNXMXMXNXNXMXNXMXNXMXNXMXMXMXNXMXMXNXNXMXNXNXNXNXMXMXNXMXMXMXMXMXMXNXMXMXNXMXMXNXMXMXMXMXMXMXMXMXMXMXNXBXBXMX&X@X@X#X&XmXMXNX#XO . O   o & e d &       ; 6 k n V E `  .} o.} } } } } o.N W ] ] ] } ] ] } ] } } ] ! } } ] ] o.! o.} o.-.z.c.@.o.o.o.] } ( o.! O.C l o.o.o.} ^ @.wXY B PXPXPXPXPXPX",
"PXPXPXPXPXPX( L.hXN.N.N.V.N.B.c b ,.-.,.-.-.,.-.;.-.-.-.,.-.;.-.-.-.-.-.-.-.-.-.-.+.-.*.-.*.-.+.O.-.+.O.gXDX^.V.V.V.N.N.N.y.y.y.y.y.y.y.u.9.A                     % 0 e p d  X|..X@X&XMXMXMXMXMXMXMXMXNXMXMXMXMXNXMXMXMXMXNXMXMXMXNXMXMXNXMXMXMXNXMXMXNXNXMXMXMXNXMXMXMXMXMXMXNXNXMXNXMXMXNXNXMXMXNXNXMXMXNXNXMXMXMXNXMXMXNXMXMXMXMXMXNXMX&X%XXX@X%XmXmXMXMX#XO . O o   - .Xw - .     ; 8 x n V E [ ^ } } } } } } ] o.H H o.} ! ! ] } ] ] o.! } } } ] o.o.! o.o.] @.m.c.v.+.! o.^ o.} o.o.o.O.H j ] o.! } ! o.3Xk.B PXPXPXPXPXPX",
"PXPXPXPXPXPX^ (.0Xy.Z.N.N.A.8.j N ,.,.-.-.,.-.-.-.-.-.-.-.-.-.-.-.-.-.-.-.-.-.+.*.+.-.+.*.*.+.+.+.-.( 6.FXVXA.N.N.V.N.N.N.y.y.y.y.y.i.u.p.9.a.                    O 0 e s |.|..X.X@X&XMXMXMXMXNXNXMXMXMXMXMXMXMXNXMXMXMXNXNXMXMXNXNXMXNXMXNXNXMXMXMXMXMXMXNXMXMXNXNXMXNXMXNXNXNXNXNXNXNXNXMXMXNXNXNXNXMXMXNXMXMXMXMXMXMXMXMXMXMXMXMXNXNXMX&X@X@X@X&XmXMXMXNX#Xo . O . o & XXs 0 O     ; 6 x n B E ' } } } } } } ] } } [ N ] ] o.} } } } ! } ! } ] o.! ! o.! o.! ! ( H J ( o.] [ o.o.o.( o.( o.! j H o.! o.! ] 1Xn.B PXPXPXPXPXPX",
"PXPXPXPXPXPX&.rX6XN.N.N.B.F.X.j J ,.-.,.-.-.-.-.-.-.-.-.-.-.+.-.-.+.*.-.*.-.+.*.*.-.+.*.+.*.+.*.+.+.( E.JXdXy.V.y.V.y.y.y.y.y.y.y.y.y.t.e.9.d.                    o 9 e s .XXX.X|.XX&XMXMXMXMXMXNXMXMXNXMXMXNXNXMXMXMXNXNXNXMXMXMXMXNXMXMXMXNXMXNXNXMXMXMXMXMXMXMXMXNXMXNXMXMXNXMXMXMXMXMXNXMXMXMXMXNXMXMXMXMXMXMXNXMXMXMXMXMXMXMXNXNXNXMX&X#X@X@X&XMXmXMXNX#XO   o o o & @X|.w O     ; 4 4 M V E ` ' } } } } } } } ] o.M ' } ] } ] ! } o.} } } o.! ! ( ] +.@.z.c.n.(.z.! o.] N o.o.o.o.o.( o.o.v H o.] ] ] ! n.4XG PXPXPXPXPXPX",
"PXPXPXPXPXPX:.dXQ.N.Z.Z.F.F.U j ] -.-.-.-.-.-.-.-.-.-.-.-.-.+.-.*.+.+.-.*.+.*.+.+.+.*.-.*.O.*.+.+.+.( 3XDX'.y.N.i.y.y.y.y.y.y.y.u.t.t.u.p.<.j.                    o - e s |..X|. XXX&XMXMXMXMXNXMXMXMXMXNXMXMXMXMXMXNXMXNXNXMXMXMXNXNXMXNXNXMXMXMXMXNXMXMXMXMXMXMXNXMXMXNXNXNXMXMXMXNXMXMXMXNXMXMXMXMXNXMXMXMXMXMXMXMXMXMXMXMXNXMXMXMXMXmX#X@XXX@XmXMXMXMXNX#XO   . O . = .Xd - O     5 4 z n V E ' ] ] ] } ] } ] } ] o.N H } } } } ! } } } o.! +.z.c.n.E.R.n.c.v.@.+.] o.o.] N } ( o.( o.O.( O.b C o.] ] ] ! z.3XS PXPXPXPXPXPX",
"PXPXPXPXPXPX8.jXW.N.B.F.F.F.M v +.-.-.-.-.-.-.-.-.-.+.*.*.-.*.*.+.-.*.-.+.+.*.-.+.*.+.O.+.+.+.+.+.O.-.VXSXF.y.y.y.y.y.y.y.y.y.t.y.y.t.r.p.<.%.:                   O w i d |.|.d d .X&XMXMXMXMXMXMXMXMXNXMXMXNXMXMXMXMXMXMXMXMXMXMXMXMXMXMXNXMXMXMXMXMXMXNXMXMXNXNXMXMXNXMXMXMXMXMXMXNXMXMXMXNXNXNXNXNXNXMXMXMXNXNXMXMXMXMXMXMXMXMXMXMXMX&X%X@X.X@X&XMXMXMXNX&XO     . . & w w = o     5 8 x n V E ' } } } } } ] } ] ] } W N o.! } } o.} ! } o.} @.c.v.7.@.o.o.( ! o.} ] ] ] +.H ~ O.o.o.O.( O.*.N l o.] o.! ] @.rXY PXPXPXPXPXPX",
"PXPXPXPXPX&.c.jXH.B.F.F.F.D.c l -.-.-.-.-.-.*.-.-.*.+.-.+.-.*.*.-.+.+.-.-.O.*.O.+.*.+.+.+.+.+.O.O.( x.SXlXy.y.y.y.y.y.y.y.u.t.y.t.t.t.u.u.<.%.u                   * w p s }.}.d i |.&XMXMXMXMXNXMXMXMXNXMXNXMXMXNXMXMXNXNXMXNXMXMXMXNXNXNXMXNXMXNXMXNXNXNXMXMXNXMXMXMXMXMXNXNXNXNXMXNXMXNXMXMXMXMXMXMXNXMXMXNXMXMXMXMXMXMXMXMXMXMXMXNXMXmX%X@XXXXX#XmXMXMXMX%XO         * 0 & %       $ 2 x n V ` ' ' } ] } } ] ] } ] } ] b ! } } } } } ( ( } } } o.! ( ( o.o.o.o.o.o.] ] J H b H O.( O.( O.( O.H v [ ] ] ] ! | wXd.B PXPXPXPXPX",
"PXPXPXPXPX^ E.hXF.F.F.F.H.L.v C -.-.-.-.-.+.*.-.-.*.+.*.*.-.+.+.+.-.O.O.O.+.+.+.O.+.O.O.O.O.O.+.O.( ~.JX7Xt.y.y.y.y.u.y.y.t.y.t.u.t.t.t.u.9.#.7                   = w p p d s i s |.%XMXMXMXMXMXMXMXMXMXMXMXMXMXMXMXMXMXNXMXMXNXNXMXNXNXNXNXMXNXNXMXMXMXNXNXMXNXMXNXNXNXNXMXNXNXNXMXNXNXNXMXMXMXMXMXMXMXMXNXMXMXNXMXMXMXMXMXMXMXNXMXMXMXmX%X#XXXXX#XmXNXMXNX&X%         O & 9 o     X 5 4 x n V H [ ] } } ' } ] ] } ] ] ] M ~ o.} } ( } o.} } o.o.o.O.( o.o.! W H H N b b N C H ! O.O.O.( O.O.*.! v W } ] ] ] ] 1Xl.M PXPXPXPXPX",
"PXPXPXPXPX( (.dXF.H.H.H.J.z.j V -.-.+.*.+.-.-.+.-.+.+.*.-.+.*.+.-.O.-.O.+.O.O.+.+.O.O.+.+.O.O.+.o.o.3XDXQ.t.y.t.y.y.y.y.t.t.t.t.u.t.u.r.u.<.$.L                   - e s s s p i p }.%XMXNXMXMXMXMXMXNXMXNXMXMXNXMXNXNXMXMXMXMXNXMXMXNXNXMXNXNXMXMXMXMXNXMXMXMXNXNXMXNXNXMXMXMXNXNXMXMXMXMXMXNXMXMXMXNXMXNXMXMXMXMXMXNXMXMXMXMXMXMXMXMXMXMX&X@XXX.X@XmXNXMXNXmX%     .   o r d .     o 5 2 x n V ` [ } ] } ] ] ] ] ] ] ] o.N H o.( } } o.o.o.( o.o.o.H H N b b M N H J ] o.O.+.*.O.O.( ( O.*.( ( ( v H } ] ] ] ! <Xb.M PXPXPXPXPX",
"PXPXPXPXPX^ 3XwXF.H.W.H._.k.j H -.*.-.*.+.*.+.-.+.+.*.+.O.+.+.+.O.O.+.+.+.+.O.+.O.O.O.+.o.O.+.o.o.o.zXSXZ.t.y.t.t.u.y.r.t.u.t.u.t.r.t.u.u.0.:.R .               . - e p p p i i s |.%XmXMXMXMXMXNXMXMXNXNXNXNXNXMXMXMXNXNXMXMXMXMXMXMXNXMXMXNXNXMXMXMXMXNXNXMXNXMXNXMXNXMXNXNXNXMXNXMXMXMXMXMXNXNXNXMXMXMXMXNXMXNXMXNXMXNXMXMXMXMXMXMXMXMXMX&X@X.XXX&XMXMXNXmX0     .   o p .Xo     + 6 4 k B V E [ ' ] ] } ] ] ] ] ] ] ] H C o.} ( o.} ( } ( o.+.K C V H ] o.*.o.O.+.o.O.O.O.O.( O.O.O.O.( O.*.O.l N } ] ! ] ! n.4XB PXPXPXPXPX",
"PXPXPXPXPX#.dX7XH.!.W.!.Q.X.j W -.&.-.-.+.-.O.O.+.*.O.-.O.+.+.+.+.+.O.O.O.+.o.+.+.+.o.+.o.+.+.o.o.z.CXvXy.t.y.t.t.u.t.t.t.t.t.r.r.u.u.e.u.9.:.T *                 - i i p i e e i |.%XmXMXMXMXMXmXmXmXMXMX&XmXMXNXNXNXMXNXNXMXMXNXMXMXMXNXNXMXNXNXMXMXMXNXNXMXMXNXMXNXMXMXNXNXMXMXMXMXMXMXMXMXMXNXMXMXNXMXMXMXNXMXNXNXNXMXMXNXBXNXMXNXMXMXmX&X#X.XXX&XMXMXMXNXi         o 0 s o     O 6 4 m M V E ~ ' ] ] ] ] ! ] ] ] ] ] W b o.o.( o.( o.o.o.o.O.O.O.) O.O.( ( O.( O.( &.( ( O.&.( &.( *.( (  .*.C C ] ] ] ' ~ n.4XB PXPXPXPXPX",
"PXPXPXPXPX:.fX5XH.!.!.Q.'.G j } -.&.O.-.O.+.O.-.+.+.+.O.+.O.O.O.O.O.O.O.O.o.+.o.o.+.+.o.o.o.o.o.o.z.DXeXr.t.r.y.r.t.t.u.r.u.u.r.t.e.u.e.e.0.9.%.:                 - p p p i e i i d %XmXmX&XXX}.d e w 0 0 0 0 0 p s s s |.&XMXNXMXMXMXMXNXMXMXMXNXNXMXNXNXMXMXMXMXNXNXMXNXMXMXNXMXNXNXMXMXMXNXMXMXNXNXNX%X.XXXXX.X.X.X.X X.XXXXXXX#X&XMXMXMXmX%XXXXX%XMXMXmXNX|.        o 0 p o     % 6 3 x M D ` [ ' ] ] ] ] ] ] ] ] ] ] ' b ! o.o.o.o.( o.( O.( o.o.o.( O.O.O.O.&.( O.( O.*.O.( *.( &.) &.*.) *.N b } ' ] ] ~ z.3XS PXPXPXPXPX",
"PXPXPXPXPX6.vX].!.Q.Q.^./.G j o.+.*.+.O.-.O.+.+.+.+.o.o.O.o.o.O.O.O.O.o.O.O.+.O.+.o.+.o.+.o.o.o.o.n.LX1Xe.y.t.u.t.r.r.t.r.t.u.r.u.e.u.u.e.9.$.%.5               o 9 p i p i r r i d #X%XXX9 O o .                       o = .XMXNXMXMXMXMXMXMXMXMXMXNXMXMXNXNXMXMXNXNXNXMXMXMXMXMXNXNXMXNXMXNXNXMXMXmX Xw = % O O O O o o O O O + = i .X&XMXMX&X#XXX#XmXMXMXMX@X+       . - i o     # > 4 x M N H [ ' ] ' ] ] ] ] ] ] ] ] ] b W O.( o.( O. .( ( O.( ( O.( O.( &.( &.( &.*.( ) ( *.*.( *.O.*.) &.=.H l ! ] ] ] ~ z.rXF PXPXPXPXPX",
"PXPXPXPXPXz.bX/.Q.^.^./.^.c l O.+.+.O.+.O.+.+.( 6.1X(.E.c.v.7.-.O.o.o.( o.o.o.o.o.o.o.+.o.o.o.+.J 1XJXQ.e.r.t.t.t.u.r.u.u.e.e.r.e.u.e.e.0.0.{ j.*               & e p p i e 0 0 e s XX.X0                                   % XXNXNXNXMXMXMXNXNXMXNXNXNXMXMXNXNXMXNXNXMXNXNXNXMXNXMXNXMXMXNXMXNXMX&Xs +                             . 0 .XmXMX&X%X@X#X&XMXMXMXmX9         . & o     o * 6 x n G V W [ ] ] ] ] ] ] ] ] ] ] o.C V O.( O.O.O.( O.O.O.O.( &.&.( &.( *.( *.( &.*.O.O.( &.*.*.( *.*.*.*.Q v ! ] ] ] ! @.3XX.PXPXPXPXPX",
"PXPXPXPX .c.AX/.^.^./.5X(.v b *.+.+.+.+.O.O.O.O.x./.Q./.5X7X0X1X1X(.).c.z.z.-.+.o.o.o.o.o.o.o.+.^ gXSXF.t.t.u.r.u.r.r.r.u.e.u.e.e.u.e.p.0.l.$ + O               % w p i p e 0 0 w i d e .                                     0 &XNXMXMXMXMXMXMXMXMXNXMXMXNXMXNXNXMXNXMXMXNXMXMXNXMXMXNXMXMXNXMX#Xw .                                 . w @XmXmX%X@X@X&XMXMXMXNXi           . .   @ - - - r 6 N V K [ ~ ' ' ] ] ] ] ] ] ] } N N *.( o.O.( &.O.( ( &.&.( *.( ( *.O.O.O.) O.) O.*.*.*.*.) *.*.) ) =.~ v ~ ] ] ] ' | rXk.n PXPXPXPX",
"PXPXPXPX^ L.bX/./././.1X~.j C *.O.O.O.O.O.O.O.O.v./.Q.!.Q.^.^./.1X7X0XeXgXgXgXk.o.o.o.o.o.o.o.+.o.xXAXN.r.r.r.r.u.e.u.r.e.u.e.4.e.e.3.e.8.5 + = = O             & w p p p r 0 0 0 e 0 o       o % * & - O . .                 . e &XNXMXNXMXMXMXMXMXMXMXNXMXMXMXMXNXMXMXNXNXMXNXNXMXMXNXNXMXMX%Xw O                     .               O p #X&X%X#XXX%XmXMXMXNX|..             . & 9 0 1 t y b B H W [ ' ] ] ' ] ] ' ] ! ] H b *.( O.( O.( O.O.*.( ( *.O.*.O.O.*.) O.&.*.O.*.) *.) ) &.) *.*.*.=.^ v W } ] ] ] ] 3Xk.M PXPXPXPX",
"PXPXPXPXo.R.VX1X1X].1X7X~.j N +.O.+.+.O.O.O.O.o.c.[.^././.5X1X1X1X7X5X7X1X3X1XN +.o.o.o.o.o.o.J @.VXcXu.e.u.u.r.e.u.u.e.u.e.e.p.p.e.e.<.%.5 % & & = O           & e s i i w w - 9 0 o       = e s d XXXX.Xd s p 0 = % o o .     . e &XMXMXMXNXMXNXMXNXMXNXMXMXNXNXMXMXMXMXMXNXMXNXMXMXNXMXMXmXs = & = & % = 9 - - 0 r r e r w 9 = O .     = s XX%X#XXX#XmXMXMXBX#X%             O - = - % i u m B D E W [ ] ] ' ] [ ] ' ] ] H l O.O.O.O.&.( ( *.) ) O.( *.&.) ) ) *.) *.*.) ) *.*.*.*.*.) *.=.) =.( l W } ] } ] } 3Xk.M PXPXPXPX",
"PXPXPXPX^ ~.bX5X5X5X7X0Xn.h N +.+.+.O.o.O.o.o.( c./././.R.~.1X1XqX0XeXeXwXgX4XN +.+.J +.@.J o.o.7.DXhXe.r.t.u.e.e.u.e.u.e.e.e.u.e.4.u.<.<.6 o = & = = o         & e d s i e w 9 = &     O 0 s |.%X%X&X&X&X&XmXmX&X.Xe 9 - & o     . r %XMXMXNXNXMXNXMXMXMXMXMXMXNXNXMXMXNXMXMXMXMXNXMXMXNXmX}.- = 0 i s }.}.d |.XX@X#X@XXX%XXXXX.X Xi -     % w |.#X@X@XmXNXMXMXmX-           . = & = & . u L c M N H [ [ ] ] ] ] ] ] ] ] ] ~ l ( O.) ( ) &.O.) O.O.&.&.) O.O.*.*.O.) *.) *.*.*.) ) *.*.*.=.*.*.=.) l H } ] } } } 3Xb.M PXPXPXPX",
"PXPXPXPX^ <XbX1X7X7X7XeXn.h N O.o.o.+.o.+.o.o.+.] n.7X1XG N G F d.k.m.b.2XgX:XN o.} o.} @.o.o.o.z.DX0X4.e.u.e.e.u.u.e.0.e.p.3.e.3.3.0.<.<.j.@ * & & ; o .       & e d p i i e w - & = 9 d XX@XmXmXMXMXMXMXMXMXMXMXBX&Xs r = & &       9 |.MXMXNXNXMXMXMXMXMXMXNXNXMXNXMXMXMXMXNXNXMXmXMXmXd 0 - e }.XX@X#X%X%X%X&XmXmXMXmXmXmXmXmXmXmXXXw %   o 0 }.#XXX&XMXMXmXmXi           * & = & @ 1 8 3 x b V K K J ] ] ] ] ] ] ] ] ] J l ^ *.( O.) O.*.O.) O.( *.*.) ) *.&.) *.) *.) *.*.) :.) =.) =.=.=.=.=.l H o.} ] o.} 1Xb.n PXPXPXPX",
"PXPXPXPX^ 2XbX7X7X0X0XeXb.h H o.o.+.+.o.o.| o.o.o.k.n.1Xn.o.] ] ~ J H V N G G H o.o.o.} J o.o.J c.JX5X4.u.e.u.e.q.e.u.e.0.e.e.3.3.u.e.<.#.#.7 @ = & % .       o 9 i d p i i e i e e i p .X&XmXMXMXmXmX&XmXmXmXmXmXmX&Xs i 0 - & O o     - #XMXMXMXMXMXMXMXNXNXMXNXMXMXNXMXNXNXMXMXMXNX%Xd w 0 e d XX%X%X&XMXMXMXMXMXMXMXNXMXMXMXNXNXNXNX%Xd 9 o % r |.@X#XMXMXMXNX}.        & - = % .   6 > 4 x M K K ] ] ] ] ] ] ] ] ] ] ] ] v ! O.*.*.( *.*.( O.*.=.O.*.*.O.*.) *.*.*.*.=.*.=.=.*.=.=.*.=.=.=.=.>.b V o.} o. .} ).n.c PXPXPXPX",
"PXPXPXPX^ 3XAX7X0XwXwXhXl.h H +.o.o.o.o.o.o.} +.o.] N G G D +.o.o.o.o.+.+.} ] } } } } } o.o.O.o.c.JX/.4.e.u.e.3.e.3.3.0.e.0.0.e.0.e.3.<.:.#.R X % % . X       O 0 p d s p i i i i s s |.#XmXMXMX&X#X@XXXXXXXXX.X.X}.s p e e e = = %       e mXmXMXMXMXNXMXMXNXMXMXMXMXMXMXMXMXMXMXMX%Xd e e e d |.#X%X%X&XmXMXMXMXmXMXMXMXmXmXMXNXBXNXNXNX&X@Xp = 0 d XX#XmXMXMXNX@Xo     o & % o . X . > < 4 c G V K ] ] ] J ] ] ] [ ] ] ] o.b Q ) *.*.*.) *.*.*.) *.) ) *.*.) *.*.=.=.*.=.) =.=.=.=.) =.=.=.=.=.>.C V +.} o.o.} (.n.M PXPXPXPX",
"PXPXPXPX} 3XAX0XwXwXwXjXm.h K +.o.+.o.o.+.} o.o.o.o.o.o.] ] } } o.} } } } } } } } } } } +.J o.J n.JX!.4.0.e.u.u.e.u.3.e.0.e.3.3.3.3.e.<.:.^ R X . O X       . - w p s s s p i i d }.}..X&X&X&X@X.X|..XXXXXXXXX.X|..X|.}.d i w 0 = & . .   O .XmXMXMXMXNXMXMXMXNXMXMXNXMXMXNXMXMXNX&Xs e e i d |.XX.X.X}.}.|.XXXXXX@X@XXXXXXX#X&XmXMXNXNXNXNXmX#Xs 0 s XXXX&XMXMXNX%Xo       . .       & 1 2 Z n N H K K ] ] ] ] ] ] ! ] ] ] } v W *.) ( *.*.&.) *.=.*.) =.*.*.=.=.*.=.) ) =.=.=.=.=.>.=.>.=.=.>.>.>.M N o.| } +.( ).,XM PXPXPXPX",
"PXPXPXPX .gXVXwXwXdXdXjXm.h J +.o.o.| } } +.o.} o.o.} o.} o.| } } } } } } } } } } } o.J +.o.o.J ~.JXE.4.e.4.3.e.u.3.e.0.0.3.3.0.3.3.3.<.<.#.I X             o 0 w p |.s p i i s }.}.}.XX%X@X|.d }.XX%X#X%X%X&X&XmX&X&X&X#X}.w 0 0 & o .     0 #XMXmXMXMXMXMXMXMXNXMXMXMXMXMXMXmXmX}.e e i }.|.|.|.d i i e p @X%X#X#X%X#X#XXXXXXXXX&XMXNXNXMXMXMX#Xs s .X@X%XmXNXNX&X+       .         : 8 4 x n N H [ ' ] ] ] ] ] ] ] ] } ] o.b H ) ) *.*.) *.) ) *.*.=.*.=.*.=.=.=.=.) >.=.=.=.=.>.=.=.=.>.>.>.>.1.C V +.o.+.o.o.).4Xn PXPXPXPX",
"PXPXPXPX^ gXVXwXdXdXdXcXk., K O.o.o.o.o.o.o.} +.o.} o.} } } } } } } } } } } ] o.} } @.J @.J o.o.~.DXH.4.r.q.u.e.e.3.e.3.0.3.e.3.3.3.3.3.1.#.T +             & e i d |.d p p s d |.}.|..X.Xd e s #XMXMXBXNXMXNXMXMXmX&XNX&X}.w 0 9 = & O o   o s &XMXmXMXNXMXMXMXMXMXMXNXNXMXmXmX.Xe e p }.|.|.|.i e e i d &XNXNXNXNXNXNXNXmX.X}..X@X%XMXNXNXMXNXmXXXd .X#X%XmXNXNXmXO                 5 < 4 c B D E [ ' ] ] ] ] ] ] ] } ] } } b H =.) *.*.=.*.*.*.=.) =.=.) =.) =.=.=.>.=.>.>.=.=.>.>.>.>.>.>.>.>.1.N N +.+.+.+.O.(.4XM PXPXPXPX",
"PXPXPXPX^ gXCXdXdXfXfXvXm.h H O.} o.o.o.} } } } } } } o.} } } } } } ] } } ] } } J } J } o.J @.J ~.JXD.4.3.e.0.3.0.3.3.0.3.3.3.3.3.3.<.<.<.) T @             & i s }.|.|.}.}.XXXX}.}.|.}.i w i .X.X|.}.d |.|.d p p i e p - % - = & & * . o     & s %XmXMXMXMXNXMXMXNXNXMXMXMX&X.Xe i d }..X.X|.d i r e e XX#X#X%X%X#X#X#X@X@XXXd d XXXX%XMXMXMXMXmX@X|.XX@X%XMXMXNXmX&                 1 8 3 n N V W ~ ] ] ] ] ] ] o.] ] ] } o.b H ) =.*.*.=.) =.*.*.=.=.=.=.=._ =.=.>.>.>.=.=.>.>.>.>.1.>.>.>.>._ 5.N N +.+.+.+.O.(.4Xn PXPXPXPX",
"PXPXPXPX .gXCXfXfXfXfXbXs.h J o.} o.} } } } } } } } } } } } } } } } } } ] } } ] @.} +.} J +.o.J 1XFXD.4.q.3.q.3.0.3.3.3.3.3.3.<.<.3.3.2.<.#.B X             = p }..X.X|.|.@X%X&X#X|.|.d 0 w s s }.#X&X.Xe 0 .   . 0 - d #X9 o & = & o .   . .   = s %XMXMXMXMXMXMXNXMXMXMX&X.Xi s s |.|.|.d p w 0 w - 0 e 0 9 = = - - 0 w - w d s s }.XX%XmXMXNXmXXXXXXXXX#XmXMXNXmX-               . 1 8 z n N H [ ' ] } ] ] ] } ] } } } } +.b V >.) *.=.) =.=.=.=.=.=.>.=.) ) ) =.) =.=.>.>.>.>.>.>.>.>.<.1.1.1._ B V -.+.-.-.&.E.4XM PXPXPXPX",
"PXPXPXPX} xXCXfXfXlXlXzXm.h J @.} o.] o.} } o.] } ] o.] ] o.} } o.o.@.J @.J o.@.} @.J } ] o.o.o.~.DXS.3.0.e.3.3.3.3.3.3.3.3.3.2.1.2.2.2.<.) I X             - s }..X.X|.|.@X&XmXmX@XXXp - w w s NXHXKXXXe =       = i .XKXLXe o & = . . .   .   . 9 d mXMXMXNXMXMXMXMXMXmX.Xd }.}.|.|.d s e w 0 - = i mX@Xr O       - e &X#Xp w e p p }.@X&XmXMX%XXXXXXX@X@X&XMXNXmX9               + 6 2 3 n V K [ ' ] } ] } ] } } } } } } @.b V ) ) =.=.=.) =.>.=.=.=.=.,.B.E.E.D.v.v.w.5.=.>.>.1.>.1.1.>.1.1.1.5.V V -.+.-.-.-.(.4XM PXPXPXPX",
"PXPXPXPX] gXFXfXlXlXlXVXm.h J o.} } o.} } } } o.} o.] o.} ] ] } J +.J o.o.+.J J J J @.} ] o.J J ~.SXD.4.3.3.3.3.<.3.3.3.3.3.<.2.3.3.<.1.=.#.R @           . 0 }.|.XXXX|.@X#XmXMXmX%XXXi 0 - 9 %XLXKXKX}.r o 0 - i @Xw @XKXKXHXi % O .   . . . . . O i %XNXMXMXMXMXNXMXNX%XXX|.|.|.|.}.i e 9 9 9 0 d HXKXd 0 . w = 0 |.e &XKXHX|.e i p |.XX%XmX%X@X@X@XXXXX@X&XNXNX&X-               O 6 4 x B V ` ~ ] ] ] } } } } } } o.o.o.+.b V >.>.) =.=.=.=.=.>.>.) v.1Xn.z.6.6.6.v.c.D.w.>.>.1.1.1.1.1.1.1.1.4.N V ;.-.-.7.-.(.4Xn PXPXPXPX",
"PXPXPXPX/ gXDXfXlXzXzXCXm., J +.} } } } ] o.o.] } } } ] } ] } ] @.J J +.J @.J +.@.J ] } ] ] } J ~.DXD.3.3.3.<.3.3.3.3.<.1.<.1.2.2.<.<.<.<.#.k.X           + e }.}..XXX.X@X%XmXMXMXmX@Xi 0 = |.LXKXKXKX Xw O + - MXd 0 |.LXKXKXMXw .   .   . .     . 0 #XMXMXNXMXMXMXMXMX%X@X.X.X|.}.d p w w 9 - XXLXKXHXp -   0 %XHXd p @XKXKXBX.Xe e d XX@XmX%X%X%X#XXX@X@X&XNXNX%X-               * 8 3 n M V ` ' ] } } } } } } o.} o.o.o.O.b V >.>.) >.>.=.>.>.=.>.B.(.7.( O.O.+.+.+.+.7.v.,.1.1.1.1.2.1.1.1.5.4.B V ,.7.,.7.-.(.4XM PXPXPXPX",
"PXPXPXPX^ sXDXlXzXzXzXVXm., K } } } } } } ] ] } } ] ] } } ] ] } J @.@.J +.J @.J } o.] ] ] ] o.J n.JXD.1.0.3.3.3.3.3.3.1.3.2.2.2.2.2.1.>.=.#.Y             O i }.|.XX@XXX@X&XMXmXMXmX@Xp 9 9 XXHXKXLXKX#Xw =   . % o 0 XXKXKXKX&X|.= O % .   . .   o e #XNXNXMXMXMXMXNXNX&XXXXX@XXXXXXX}.s e w i NXKXKXKXXX0 o   d }.* d NXKXKXKXBXs e p .X#X&X&XmXmX%X@XXX@X&XmXBX&X0 X             * < 4 n N V W ] ] } o.} } o.o.o.o.o.o.O.*.l V 1.>.>.>.=.>.>.1.>.1.R.@.O.-.+.+.-.-.,.,.;.;.<.#.1.5.1.1.1.3.1.5.5.N V ,.;.,.;.=./.4Xc PXPXPXPX",
"PXPXPXPX^ aXDXlXvXvXzXCXm.h H } } } } } ] ] ] ] ] ] } ] } ] } ] +.J +.J J @.J @.} J o.} ] ] ] } n.DXD.,.3.3.<.3.<.2.<.3.<.2.2.2.1.<.1.>.:.#.I @           O i }.|.@X@X@X@X&XmXMXMXMXmX|.p p .X%X&X&X&X#X}.d s p p .X@XmXBXMX%X@XXXe = - % o O O o O w &XNXMXMXMXMXMXNXNX&X#X%XmXmXmXmX%X%XXX}.XXmXHXHXLXmXs r = & 0 s |.LXHXBXBXmXXXs }.@X&XmXmXMXMX&X@XXX@X&XMXNXmXw               5 8 3 n B E [ ] } o.} o.o.o.o.o.o.O.O.O.*.l I _ >.>.=.=.>.1.=.>.q.c.O.&.V M M N N V [ 7.,.2.:.' 3.1.1.1.4.1.5.e.C I 1.1.,.<.2.5XT.M PXPXPXPX",
"PXPXPXPX~ 3XDXzXzXvXbXAXb.h H } } ] } ] } ] ] ..] } } ] ] ] ] ] J @.J @.+.J +.J J @.@.J ] ] ] J c.DXE.1.1.3.3.2.3.1.<.1.1.2.<.>.<.1.1.<.=.#.B @           % r }.XXXX@X@XXX&XMXmXMXmXMX&X%X@X%XmXmXmXmXmXNXNXNXNXBXBXBXMX%X#XXXXX|.s e e i e - = & = d mXNXNXMXMXMXMXMXMX&X&XMXMXNXBXBXNXNX%X}.}..X@X#X%X%XXX%XMXmX&XMXMXMXmXmXMXMXmX%X%X&XMXmXMXMXNXmX#XXX#X&XNXNX&X=               y 2 x M V E ~ } o. .o.o.o.o.+.O.O.+.O.+.+.v Q 1.>.>.1.1.>.1.1.>.v.z.-.N E =.1.1.-. .` N | 2.,.` 1.3.4.4.1.1.e.5.B Q 3.<.<.,.2.5Xb.c PXPXPXPX",
"PXPXPXPX/ 2XJXvXvXvXVXAX:Xh H o.} } ] ] ] } } ] } ] } ] ] ] ] ] @.J +.J J +.J @.J @.J o.] ] } J z.DX!.1.<.3.2.1.2.2.1.2.2.2.1.<.2.1.>.<.:.#.B .           O w }..X@X@X#X@X%XmXMXMXMXMXMXmX&XmXmXmXMXMXMXMXMXNXMXMXNXMX&X#XXXXX|.}.p d .X}.s i 0 % - |.MXMXNXMXMXMXNXMXMXmXmXMXBXBXNXBXBXNX%X}.s s |.XX@X#X#XmXMXNXNXNXNXMXNXMXMXMXMXmXmXNXMXMXNXMXMXMX%X@X#X&XNXNX%XO             o 8 4 x B V [ ' } } o.o.o.o.o.o.+.O.O.+.+.+.v / 1.1.=.1.=.1.1.1.>.9.;.&.N 3.3.1.3.5.4.4.1.` ,.3.I =.5.3.1.3.4.1.e.M / 3.<.0.2.2.5Xb.n PXPXPXPX",
"PXPXPXPX~ 4XJXvXVXvXvXCX:Xh N } ] ] ] } } ] ] ] ] ] } ] ] ] ] ] J +.J @.@.J o.J +.J @.J ] ] ] ] z.DX/.1.2.2.2.1.<.2.<.2.<.=.2.;.=.<.=.:.&.#.U #           O w }.XX@X@X@X@X&XmXMXMXMXMXMXMXMXMXMXMXMXMXNXMXMXMXMXMXMX&X#XXX.X.X|.s s XX@X|.s p r 9 0 |.MXMXMXNXMXNXMXMXMXMXMXNXBXBXNXBXBXNXmX@Xd d d |.@X@X#X&XmXMXNXMXNXNXNXNXMXMXmXMXMXMXMXNXNXMXmXMX&X@X@X&XmXNX%X+             1 8 4 c B V ` ] | o.o.o.O.+.O.O.O.+.+.+.+.+.v / 1.1.1.1.1.1.1.1.1.0.7.;. .;.1.5.1.1.3.1.5.q.v.4.I #.4.4.e.5.3.e.1.n ^ 0.2.2.0.3.qXb.c PXPXPXPX",
"PXPXPXPX/ ~.JXVXvXvXVXVX4X, N ] ] } } ] ] ] ..J ] ] ] ] ] ] ] ] +.J @.J +.J o.J ] ] K ] ] ] J ] ] FX1X>.2.2.2.<.1.<.1.1.,.,.<.1.;.;.1.;.:.#.{ 5           * i s |.XX@X@X@X&XmXMXMXNXMXMXMXMXMXNXNXNXNXMXMXMXMXMXMX&X#X@XXX|.|.d i |.#X@X.X|.d i 0 r XXMXMXMXNXMXMXMXMXNXNXNXNXBXNXNXBXBXBXNXmX@Xd p }..X@X#X#X&XMXMXNXMXNXNXMXNXNXNXMXMXMXMXMXMXNXNXMX%X@X@X&XMXBX%XO             1 8 z m N U [ } o.O.O.O.+.O.O.+.O.+.*.-.-.o.j #._ 1.1.1.1.1.1.1.1.;.;.<.,.9.D.u.0.3.1.5.u./.B.3.D ;.4.4.4.4.4.e.4.n  .3.3.0.0.0.eXb.l PXPXPXPX",
"PXPXPXPX/ n.JXVXvXVXzXAXaXz C o.] ] ] ] ] ] ] } ] ] ] ] ] ] ] ] J @.J +.J @.J @.] ] } ] ] ] ..J } GXdX>.2.,.2.,.<.;.;.<.<.=.;.;.<.;.;.;.:.O.{ 6           % i s d .X@X@X@X&XMXMXMXNXMXMXMXMX%X%XmXMXMXmXmX&X&X&X%X@XXX.X|.|.}.p }.#X%X@X@XXX}.p e i @XMXNXMXMXMXNXMXMXMXNXNXNXBXBXBXBXNXBXNXNX&X|.p s d .X@X@X#X&XMXNXNXNXMXNXMXMXMXNXNXNXNXMXMXMXMXmX&X@X@XmXMXNX#Xo           . > 4 x B V W ' o.o.O.O.O.O.-.O.*.-.+.-.-.-.] j =.1.1.1.1.1.1.1.1.3.1.| ,.,.2.w.D.D.!.!.(./.D.r.<.N 4.4.4.4.4.4.4.1.b &.q.w.q.0.u.eXk.c PXPXPXPX",
"PXPXPXPX[ c.JXVXvXzXzXAXgXj b o.] ] } ] ] ] ] ] ] ] ] ] ] ] ] ] o.@.J J J +.@.J ] ] ] ] ] } ] ] ' gXlX,.2.2.,.1.<.1.<.>.>.;.=.1.=.;.=.-.=. .{ u           % p d s .X@X@X@X&XmXMXMXMXNXMXNXMX&XXX|.XX#X@X@X@X@X@XXX.X.X.X}.d s |.%X%X%X%X#X#X|.i e p %XMXMXMXNXNXMXNXNXNXBXNXBXNXNXBXNXBXNXNXNXNX&X.X}.s }.XX@X#X#X%X&X&XmXMXmXMXmXMXNXNXMXNXMXNXMXMXmXmX@X@XmXBXNX#Xo           : 8 3 x B V / ^ o.o.O.*.O.+.O.-.*.-.+.-.-.,.[ j >.1.1.1.1.1.1.1.3.5.5.} { w.0.3.2.q.w.u.u.3.3.t.` E e.4.4.4.e.3.e.>.M <.q.w.q.q.u.hXd.c PXPXPXPX",
"PXPXPXPXPXl.JXVXvXzXzXvXgXZ v ] ] ] ] ] ] ] ] ] ] ] ] ] ] ] ] ! J J J +.o.J @.J ] ] ] ] ] J ] ] ~ 3XVX,.=.>.<.;.;.1.;.;.;.;.;.;.=.;.;.-.*.#./ d.          % p d .X@X#X#X@X%XMXMXMXMXMXMXNXMXMX%X}.s s }.}.}.|.|.|.|.}.|.|..X@XmXmXmXmXmX&X%X.Xs i d &XNXNXNXNXMXNXMXMXMXNXNXNXNXBXBXBXNXNXMXNXNXMXMX#X|.s d  XXXXXXXXX@X#X#X@X#XmXMXMXMXMXMXMXMXMXMXMXmX#X%XNXNXMXXX9           1 8 4 n B E ` } +.+.+.O.+.-.+.-.*.+.-.;.-.,.V l e.1.1.e.3.1.e.1.1.3.3.4.K K :.r.r.r.w.q.r.t.t...M 4.e.4.3.e.4.4.e.:.M 0.w.q.q.q.B.fXY PXPXPXPXPX",
"PXPXPXPXPXz.FXGXvXzXvXzXxXG v } ] ] ] ] ] ] ] ] ] ] ] ] ! J ' ..z.z.z.z.@.J J o.] ] ] J ] ] ] [ ~ ~.SXw.=.1.;.>.>.<.;.=.;.;.;.;.:.=.=.-.*.#.^ Y +         % p XX%X#X@X#X@X&XMXmXMXNXMXMXMXNXMXMX&X.Xd s s s d d d d |.XX@X&XMXMXMXmXmXmXmX%XXXd p |.&XNXNXMXMXMXMXNXNXMXNXBXNXBXNXBXBXNXNXMXNXNXNXMXMX%X.X}.}.d .X.XXXXXXX#X#X&XmXNXNXNXNXNXMXMXMXMXMXmX%X%XMXMXMX.Xp =       . 5 2 x n V `  . .+.+.-.+.+.-.-.-.-.-.;.;.;.2.C C e._ 1.1.4.1.1.4.4.1.4.4.4. .V V [ $.;.<.<. .N B <.e.4.4.e.4.4.e.e.#.M e.q.r.q.q.F.hXF PXPXPXPXPX",
"PXPXPXPXPX..FXCXlXlXlXcXGXF v K ] ] ] ] ] ] ] ] ] ] ] J @.4XgXVXCXVXVXzXxX4Xz.J ] ] ] ] ] ] ] ] ~ c.DXv.=.<.;.;.>.;.;.;.;.=.-.=.=.;.-.-.&.#. .U 1         O i @XmX%X@X@X@X#XmXMXMXNXNXMXNXMXMXMXMXmX%X@XXXXX.X.X.X|.@X#XmXNXMXMXMXMXmXmXmX&X.Xs s |.mXNXMXNXNXMXMXMXNXMXNXNXNXNXNXNXNXNXNXMXNXNXMXMXMXMX&X#XXXXXXX@X#X#X%X&XMXMXMXMXNXNXNXMXMXMXNXMXMXmX%X&XNXNXMX#Xs 0 .     + 6 4 x B I ' } #.+.+.*.-.-.-.-.-.-.;.;.;.,.2.v V e.1.3.1.1.1.e.1.5.4.4.3.4.e.e.*.{ V D V V U &.e.e.4.r.4.4.r.e.4.t./ B e.u.0.r.r.H.rXG PXPXPXPXPX",
"PXPXPXPXPX{ GXDXlXlXlXlXGXP h J ] ] ] ] ] ] ] ] ] [ J n.VXVXcXdXfXdXdXeXdXlXgX@.] ] ] ] [ ] ] ] ~ @.SX(.) <.;.;.=.;.;.=.=.:.-.-.-.-.=.&.*.&. .{ 5   o * o = i XXmXmX@X@X@X@XmXMXMXMXNXMXMXNXMXMXMXMXMXmXmX&XmX&XmX&X&XmXMXMXNXMXMXmXmXMXmX%XXX}.s XXmXNXNXNXBXNXNXNXNXNXNXNXNXNXNXNXNXNXNXMXMXNXNXNXMXMXMXmX&X%X%X&XmXMXMXMXMXMXNXBXNXBXMXNXNXMXMXNXMXmX%X&XNXNXNX@Xs 9 .     + 8 4 n B U '  .&.*.-.-.-.-.-.;.,.>.,.=.,.<.1.j ' e._ 4.1.e.1.4.4.4.3.4.4.4.4.3.e.e.e.e.e.q.e.e.e.e.4.r.e.e.e.e.r.e.Q I t.r.r.r.e.Q.2Xn PXPXPXPXPX",
"PXPXPXPXPX/ nXFXlXlXlXlXbXm.h K } ] ] ] ] } J ] ] ] n.CXlXdXdXfXjXfXhXhXdX3XgXn.[ J ] ] ] ] ] ] ] ] AX1X) ;.;.=.;.;.-.:.=.=.=.:.:.=.:.*.*.#. .Q P   % p e e i @XMXmX%X@X@X#X&XMXMXNXNXMXNXMXMXNXNXNXNXmXMXMXmXmXMXmXMXMXNXNXNXNXMXmXmXmXmX&X@Xd d #XMXNXNXNXNXNXNXMXMXMXNXBXBXMXMXMXMXNXMXNXNXMXNXNXMXNXMXMXMXMXMXMXMXMXMXNXMXNXNXNXNXNXMXMXMXMXNXNXMXmX%XmXMXNXNX#Xd 0 .     5 < 4 n U Q  .&.&.*.-.-.-.-.;.;.-.;.,.,.,.2.*.2 #.e.e.1.4.3.e.1.4.4.4.4.4.4.4.4.e.4.4.e.e.q.e.r.e.e.e.e.e.r.e.r.e.e.I / t.r.r.t.r.].<Xc PXPXPXPXPX",
"PXPXPXPXPXQ 2XDXfXlXfXfXbXb.h V } ] ] ] ] ] J @.J @.GXxXfXfX3X:Xm.k.d.m.n.3X7X7XX.~ ] ] ] ] ] ] ] ! 3XfX-.-.=.;.-.;.*.;.;.*.:.*.*.-.*.:.&.#. ./ Y $ = i p e e #XMXMX%X#X@X#X&XMXMXNXMXMXNXMXNXNXMXNXMXNXMXMXMXMXMXmXMXMXMXMXNXNXMXmXMXMXmX%X@X}.}.%XMXNXNXNXNXNXMXNXNXNXNXBXBXNXMXNXNXNXNXMXMXNXMXNXNXMXMXMXMXMXMXMXNXNXNXNXMXNXNXBXNXBXMXNXNXNXBXNXMXmX&XmXmXNXNX#Xd w +     y 4 4 m I /  .&.-.-.-.-.-.,.-.,.,.,.,.,.,.q.` j 1.e.4.5.4.4.3.4.4.4.4.4.e.4.r.e.4.e.4.4.e.e.e.r.4.r.e.e.r.e.r.r.r.t.B #.t.r.r.t.r.qXb.c PXPXPXPXPX",
"PXPXPXPXPXQ ~.JXfXfXfXfXfX4Xh C } ] J } ] ] @.J J n.zXfXdXm.G C N H H H C d.1XqXk.H ] ] ] ] ] ] ] ~ 4XVX,.=.=.-.=.-.-.&.-.-.=.*.*.&.*.*.&.&.^  .U $ 0 s }.p w @XMXMXmX#X@X@XmXMXMXNXMXMXMXNXNXMXNXMXMXNXNXNXNXMXMXNXNXNXMXMXMXMXMXMXMXmXmX%XXX|..X&XNXNXNXNXNXNXNXNXMXNXMXNXNXNXMXMXNXNXNXNXMXNXMXNXNXNXMXNXNXMXMXNXNXNXNXNXNXNXNXNXNXNXNXNXNXNXMXNXNXMXmXmXMXBXNX@Xs p *     y 4 m B I ' | &.-.;.;.=.,.,.,.,.,.2.2.2.,.q.N c e.4.4.4.4.4.e.e.4.4.e.e.4.4.4.3.e.r.e.r.4.r.q.e.r.e.e.r.e.r.e.r.r.e.M <.t.t.r.r.t.tXb.l PXPXPXPXPX",
"PXPXPXPXPXQ b.JXfXdXdXdXdX3Xz b } ] J ] ] J } ] ~ n.lXdXm.C ! ] } ] J ! ! ] 1X8Xl.H ] ] ] ] ] ] ] ! c.SXv.=.-.>.*.=.-.-.-.-.*.*.&.&.*.*.*.&. . .V 1 e d |.}.e #XNXMXMX%X@X#X&XMXMXNXNXNXMXNXNXMXNXNXNXNXNXNXNXMXMXNXNXNXNXNXNXMXMXMXMXMXmX&X@X|.@X&XNXNXNXNXNXNXMXNXNXMXNXNXNXNXMXNXNXMXMXNXNXNXNXMXNXNXNXNXNXNXNXNXNXNXNXNXNXNXNXNXNXNXNXNXNXNXNXNXMXMX&XmXMXNXMX.X}.}.r .   y 4 m B U  .#.-.;.;.,.,.,.,.,.,.2.2.2.2.2.q.v V e.4.4.e.4.3.e.4.e.e.4.4.e.r.4.e.e.4.r.e.r.e.r.r.r.r.r.r.r.r.r.r.t.<.M 3.t.t.t.t.y.hXs.c PXPXPXPXPX",
"PXPXPXPXPXPXz.DXlXdXdXdXdXdXZ v ] ] ] ] J @.] ] ~ n.jXeXF J ] ! ] ] ! ! ~ c.0X[.n.N ! ] ] ] ] ] ] ~ | CX).( -.-.-.:.&.=.&.-.&.&.&.&.&.&.&.*.^ ^ U 7 i }.XX.Xp #XMXMXMX%X#X#X&XmXMXNXNXMXNXNXMXNXMXNXMXNXNXMXMXNXMXNXMXMXNXMXNXMXMXNXmXMXmX&X#X}.#XMXNXMXMXNXMXBXNXMXMXMXNXNXMXNXNXMXMXNXNXMXMXMXNXNXMXMXNXNXMXMXNXNXNXMXNXNXNXNXNXBXNXNXNXNXNXNXMXNXMXmX&XmXNXBXMXXX}.}.i =   7 4 n I `  .&.;.;.>.,.,.,.2.2.,.2.2.2.3.4.,.,  .e.4.4.4.e.e.e.3.e.4.e.r.e.e.r.r.e.r.e.e.r.e.r.r.r.r.r.r.r.r.r.r.y.#.B t.t.t.t.t.Z.hXF PXPXPXPXPXPX",
"PXPXPXPXPXPX..CXcXeXdXeXeXdXF j ] ] ] ] ] ] ] ] ~ z.wXwX~.@.~ ~ J ! ! ..n.dX].].k.H o.] ] ] ] ! ] ! ! gXwX( -.=.&.-.:.*.*.&.&.&.&.&.&.&.O.+. . .` u i |.XX.Xp @XMXMXMXmX#X@X%XMXMXNXMXMXNXMXNXMXNXNXNXNXMXNXNXNXNXNXMXNXMXNXNXNXNXMXmXmXmX%X@XXX%XMXMXNXMXMXMXNXNXNXNXMXNXMXMXMXMXNXMXMXNXMXMXNXMXNXNXMXNXNXNXNXMXNXNXNXNXBXNXNXNXNXNXNXMXNXNXNXMXMXMX&X%XmXMXBXMX.Xd |.s i o 7 4 n I U  .*.;.=.,.2.2.,.2.2.2.2.3.3.0.r./ 2 >.e.3.e.3.e.e.e.e.e.e.e.r.e.4.r.r.q.r.r.r.r.r.r.t.r.r.r.t.r.r.r.r.y.^ I i.t.t.t.e.J.gXG PXPXPXPXPXPX",
"PXPXPXPXPXPX[ xXvXeXwXeX0XyXk., K ] ] ] ] ] ] ] ! ] ).3X0XwX1X~.n.1X3XwXeX/.^.'.G J ] ! ] ] ] ] } ] ! ~.CX;.*.-.-.&.-.&.&.*.&.&.&.&.&.&.&.O.O.^ ` P e |..X|.i |.MXMXMXmX#XXX#XmXMXNXNXNXNXNXMXNXMXNXNXNXNXNXNXNXNXMXMXNXNXNXMXNXMXmXmX&X#X#XXXXX&XMXNXNXMXNXMXNXNXMXMXMXMXMXMXNXNXMXMXMXMXMXMXMXMXMXMXNXMXNXMXNXNXNXMXNXNXNXNXNXNXNXNXNXNXNXNXNXMXMXMX%X#XmXmXBXMX.Xd XX}.s 0 u 4 B I / #.-.<.2.,.,.w.2.3.3.3.w.q.3.3.r.B l e.e.e.e.r.e.e.e.e.e.e.r.e.r.r.r.r.r.r.e.e.r.r.r.r.r.t.r.r.t.y.r.y.y.I / t.t.t.t.r.'.2Xn PXPXPXPXPXPX",
"PXPXPXPXPXPXQ 2XCX0X0X0X0X0Xn., N } ] ] ] J ] ] ] ! k.1X8X5X7X8X3X7X5X/.^.^.'.k.C } ] o.o.] ] ] ] } ~ z.SXv.) *.*.&.&.&.&.&.&.O.&.&.O.O. .O.O. .{ P e |..X|.e }.mXNXMXmX%XXX#XmXMXNXMXNXNXNXNXNXNXNXNXNXNXNXNXNXNXNXBXNXNXNXNXBXMXMX&XXX|..Xs .XmXNXMXMXMXNXNXMXNXNXNXMXMXMXMXNXNXMXMXMXMXMXMXMXMXNXNXMXNXMXNXNXNXNXNXNXNXNXNXNXNXNXNXNXBXMXMXMXMXMXmX%X%XmXmXBXMX|.s XXXX|.s 7 4 B I U #.*.<.3.2.2.2.3.3.3.3.3.q.q.e.e.j I r.e.e.e.e.e.e.e.e.u.e.r.r.e.r.r.r.r.r.r.t.r.t.r.t.r.t.t.t.t.r.y.t.y.B #.i.t.t.t.e.8XT.k PXPXPXPXPXPX",
"PXPXPXPXPXPXQ n.SX0XqX7X0X7X<Xh C } ] ] ] ] ] ] ] ] ! k.1X6X6X/././.'.'.'.Q.k.b ] ] ] ] ] ] ] o.} ] ! ] zX1X( +.&.*.&.&.&.&.&.&.&.+.O.&.&.O. .^ ` d.w d |.}.9 d MXMXMXmX@X.XXX&XMXMXNXNXMXMXMXNXMXNXNXNXNXNXNXNXBXNXNXBXNXNXNXNXMX&X|. X|..Xs .XMXMXMXNXMXNXMXNXNXNXMXMXmXmXMXMXNXMXMXMXMXmXmXMXMXmXMXMXNXMXNXNXNXNXNXNXNXNXNXNXNXNXBXNXMXBXNXNXNXMX&X#X#X&XMXBXNX@Xi |.%X#X|.a.4 m U { #.;.2.<.2.2.2.3.3.q.q.w.3.3.r.#., &.t.e.e.e.e.r.e.u.e.e.e.r.r.r.r.r.r.r.r.t.r.t.r.t.r.r.t.t.t.y.t.y.y.u.B 0.t.t.r.t.t.tXm.x PXPXPXPXPXPX",
"PXPXPXPXPXPXE l.SXeX7X7X7X5X5XZ v } ] ] ] ] ] ] ] ] ] J G k.n.(.(.!.R.c.k.G N ! } ] ! } } ! } } ! o.] ! <XlX( -.&.&.&.O.&.+.O.&.&.O.&. .o.+.O. .~ Y u e d a u L mXNXNXmX@X}..X#XMXNXBXBXNXNXNXNXNXNXNXNXNXNXNXNXNXNXBXNXNXNXNXNX&X}.s |.@X.Xp @XMXNXNXNXMXNXNXNXMXMXMXMXMX&X&XMXMXMXmXMXmXmXmXmXmXMXmXMXNXNXNXNXNXNXNXNXNXNXNXNXNXNXNXMXNXBXBXNXNXmX#X#X%X&XMXBXBX#Xi s .X.Xp L 4 I I { #.1.<.3.w.3.w.q.q.q.q.q.q.q.y.D j e.e.r.u.r.e.r.r.r.r.r.r.r.t.r.r.r.y.r.t.t.y.r.y.t.y.u.y.y.y.u.y.N.i.9.B t.t.t.t.r.N.hXd.l PXPXPXPXPXPX",
"PXPXPXPXPXPXPX..VXdX5X7X5X5X6XF h [ } ] ] ] ] ] ] ] ] o.] N N N N G b N N J o.] ] } } ] } } } } o.] o.! z.CXx.( &.&.&.&.O.&.O.&.O.O.O.+.O.O.o.} ' Q Y u L Z 6 P mXMXMXMXXXs d @XmXNXNXNXBXNXNXNXNXNXNXNXBXBXBXBXBXBXBXNXMXNXMX%Xd s XX@X#X|.i #XMXNXNXNXNXNXMXMXNXMXMXNXMX%X%XmXMXMXMXmXmXmX&X&XmXMXmXMXMXMXNXNXMXNXNXNXNXNXMXNXNXNXNXBXBXBXBXNXmX&X@X@X$X&XBXNXBX@Xr 0 i p = A k R U { #.e.3.3.3.3.3.q.q.q.q.r.r.r.t.v B e.r.e.r.e.r.r.r.r.r.t.r.r.t.r.r.r.r.y.r.t.r.t.y.u.y.y.u.y.y.N.N.y.B. .D y.r.r.r.r.F.dXG PXPXPXPXPXPXPX",
"PXPXPXPXPXPXPX` gXjX5X5X5X/.6Xk.h H ] ] ] ] ] ] ] ] ] ] } } o.! ] ] o.o.! o.} } } } } } ! o.o.! o.} o.! o.zX).( O.O.&.O.O.&.O.O.O.O.O.O.O.o.o.^ ] [ I V n m 4 L *XNXNXMX.Xs d }.#XMXBXBXBXNXNXBXBXNXBXBXBXBXBXBXBXBXBXBXNXmX%X}.p |.#X%X#Xs d &XMXNXMXNXNXMXMXNXNXMXMXMXmX%X#X%XMXMXMXMXmX&X%X%X%X&XmXmXMXMXNXMXMXMXNXNXNXNXNXNXMXNXNXBXBXBXNXMXmX%XXX.X#XmXNXBX&Xu 5 t 0 5 5 Z m U U #.:.<.1.<.q.q.q.w.q.q.r.q.r.t.:., #.t.r.r.e.r.r.r.r.r.t.r.r.t.t.r.r.y.r.y.t.y.y.r.y.y.N.u.y.N.N.N.N.N.N.U  .t.t.r.r.4.'.2Xc PXPXPXPXPXPXPX",
"PXPXPXPXPXPXPXE 4XAX]./././.[.L.h N o.] ] ] ] ] ] } ] ] } ] ] } ] ] ] o.! ! } ! } ] } } } } } } ^ } } o.! ~.zXO.O.&.O.&.O. .o.O.O.o.o.+.o.O.O. . .Q E I V G n Z +XNXMXmX.Xs s d XXmXNXBXBXBXBXBXBXBXNXBXBXBXBXBXBXNXBXNXmX@X}.p }.#X%X#X@Xs d &XNXMXNXNXNXNXNXNXMXMXMXMXMX%X%X&XmXNXmX&X%X&X&X#X#X%X&XmXMXMXNXNXNXNXMXNXMXNXNXBXBXNXBXBXBXBXNXMX&X@X.X|.%XMXNXBXoX> > 4 8 4 7 m I U { #.<.e.e.e.q.q.q.q.r.q.r.r.r.t.B j 4.r.r.r.t.r.r.t.r.t.r.r.t.r.t.t.y.u.y.u.y.y.y.B.N.y.N.N.N.y.N.N.N.B.N.B <.t.r.r.r.r.8Xb.x PXPXPXPXPXPXPX",
"PXPXPXPXPXPXPXE c.AX]./././._.!.c v } ] ! } } ] ] ] } ] } ! } ! ] } ] o.} } } } o.o.] o.o.o.! o.o.o.o.o.} 7.FXx.( O.O.O.+.o.O.+.O.+.o.o.O.o.o.^  .' / ` D V M n $XMXMXmX.Xp p d |.%XMXNXBXNXBXBXBXBXNXBXBXBXNXBXBXNXNX&X@X}.s i |.%X%X@XXXd }.mXNXNXNXNXNXNXNXNXMXMXMXNXMX%X%XmXmXMXmX%X@X#X%X#X.XXX@X%X&XMXNXNXBXNXNXNXNXNXBXBXBXBXBXBXBXBXMXmX#X.Xd |.%XMXNXNXh.8 8 4 7 m m R U { #.<.<.<.0.e.q.r.r.r.r.r.r.r.t.r.2 V t.e.r.t.t.r.r.t.y.r.t.t.y.u.y.y.u.y.y.y.y.y.N.N.N.B.y.N.N.N.Z.Z.N.Z.8.B u.r.r.q.r.u.hXd.k PXPXPXPXPXPXPX",
"PXPXPXPXPXPXPXPXk.AX7XQ.^.Q.Q.'.D h ] ] } ] ] } ] } ] } } ! } } } } ! } } } ! ( ] ! o.o.} o.o.o.] ( ( ] o.! gX1X( O. .O.O.O.O.o. .( O.o.o.o.o.| ^ } ` ' ~ ` V S s.mXNXmX.Xp i s }.#XmXNXBXBXBXNXBXBXBXBXBXBXBXNXBXMX&X.Xd }.}.p |.#X#X#XXXs .XMXMXNXMXNXMXMXMXMXMXMXMXmXmX%X%XmXmXMXMX%X@X@X%XmX#X.X|.|.@X&XMXBXBXBXBXBXBXBXBXBXNXBXNXBXNXNXmX%X@X|.s |.&XMXNXMXOX8 4 4 n I I I { #.#.<.3.0.e.e.r.q.q.r.r.r.r.r.y.{ , <.t.t.t.t.t.t.u.r.u.y.y.t.y.y.u.y.y.N.N.u.N.N.N.N.N.N.N.B.N.N.N.B.Z.A.%.I t.r.q.r.q.B.dXF PXPXPXPXPXPXPXPX",
"PXPXPXPXPXPXPXPXE gXeXQ.Q.Q.Q._.l.h J o.] } } ! ] o.} } ! o.o.! } } o.} o.} } o.o.o.! o.o.o.o.o.o.o.o.o.( ! c.CX:.( O.O.O.o.o.+.o.O. .o.o.o.o.}  .} ] ' ! ` Q D F >XNXmXXXp i e d .X#XMXBXBXBXBXBXBXBXBXBXNXNXNX&X.Xd d .X#X|.i }.#X#X@X@Xp |.mXNXNXMXMXNXMXMXNXNXMXMXMXmX%X#X&X&XmXmX%X.X@X&XNXMX#X}.d d XX&XNXNXBXBXNXBXBXBXBXBXBXBXBXmXMX&X@X|.d d .X&XMXNXMXf.8 4 I I U { #.#.:.<.9.e.u.u.e.r.r.r.r.r.r.t.t.y.n l t.t.t.t.t.t.t.t.y.t.H.^.D.B.y.y.N.N.y.N.N.N.N.N.N.N.N.N.Z.Z.Z.Z.Z.Z.F.U  .t.q.r.q.4.Q.2Xc PXPXPXPXPXPXPXPX",
"PXPXPXPXPXPXPXPXE 4XcXW.Q.W.W.W.c.j C o.} ] ] } } ! } } } } } } } } o.} ! o.o.! o.o.o.o.o.! ( o.o.( o.( o.( o.zXn.^ O.O. .+.o.o.o.o.o.o.o. .o.} o.} } } } ' ~ W F pXNXmX.Xp e e p d .X&XMXBXNXNXBXNXBXBXBXNXMXmX.Xs d .X&X&X.Xr e |.@X#X@Xi d &XMXMXNXNXNXNXMXMXMXNXMXMXmX%X#X%X&X&X#X.X|.#XmXMXNXmX@Xd p d @XmXMXNXBXNXBXBXNXBXBXBXBXNXmX&X@X.Xd i p .X*XMXNX=X7 4 m R U { #.#.<.<.3.0.0.e.r.e.r.r.r.t.y.u.t.y.<.< { t.t.t.t.t.y.t.y.y.y.!.B.N.D.F.Z.N.N.N.N.H.F.N.Z.Z.B.Z.N.Z.B.Z.Z.F.F.B.G <.r.r.q.0.q.qXb.x PXPXPXPXPXPXPXPX",
"PXPXPXPXPXPXPXPXE l.bXQ.W.W.H.H.H.n v ] ] o.] ! } } } } } ( } o.] o.} o.o.} ^ o.o.o.o.o.o.o.( O.o.( ( o.o.O.( R.gXo.o.o.o.o.} o.o.o.o.} o.o.} | } } }  .} ] ' W Y mXNXmX.Xp e e i s |.@XmXMXNXBXBXBXNXNXNXMX&X.Xs }.@X%X%XmX.X= o - p d p w e @XmXNXMXMXNXNXNXNXMXNXMXMXmX@X|..XXX.Xd }.@X%XMXMXMXNXMX|.i i d @XmXMXNXBXNXBXBXBXNXNXNXmX%X#X.Xd p e p .X%XMXNX&X7 8 R I { #.<.<.4.4.p.e.u.e.u.t.r.t.t.t.t.t.t.i.M j 0.y.u.y.u.y.y.y.y.N.Z.!.q.r.q.q.D.H.F.Z.N.B.v.H.F.B.Z.Z.Z.Z.F.Z.F.F.F.x.B r.q.q.0.3.w.hXd.z PXPXPXPXPXPXPXPX",
"PXPXPXPXPXPXPXPXPXX.vX].H.H.H.H.J.X.h ~ o.! o.} } o.o.} } ! ( } ( } o.^ o.( o.} o.( } ( ( o. .( o.o.O.o.( O.( +.VXc.} o.o.o.o.o.o. .} o.} } o.} } } } } } } ' W ` +XMX*X.Xs i e e s d |.%XMXMXBXBXBXNXNXmX@X}.d d @X%X&X%X#Xs &     & - o % 0 i #XmXMXMXNXNXNXNXNXMXMXmXXXs p i e r p .X#X&XMXNXNXNXNX&Xs r i d @XmXNXNXBXNXNXNXNXMXmX&X@X.Xd i e w i |.&XMXNX*X7 m R I #.#.<.e.p.e.e.e.e.t.t.t.t.r.t.t.t.t.t.9., I N.y.y.y.N.y.N.y.N.y.H.F.r.w.q.3.3.w.v.D.H.F.w.w...x.F.Z.F.F.F.F.F.F.J.X.` r.q.q.q.2.F.rXG PXPXPXPXPXPXPXPXPX",
"PXPXPXPXPXPXPXPXPXE 2X0XF.H.F.F.F.x.h V O.o.o.} } } o.} } o.} } o.o.(  .} o.o.o.o.( o.o.^ O.o.O.O.O.( O.O.( o.( 4XwX! o.o.o.o.o.o.}  .} } o.} } } } } } } } ] ` H d.MX%X}.p i e e i p d .X&XMXNXBXNXMXmX@X}.s s .X%X%X#X.Xp - & .     o . . % = 0 XX&XMXMXNXNXMXMXMX&XXXi 9 0 - = w }.@X&XmXmXNXMXNXMXMXXXe w i s XXmXMXNXMXMXMXMXmX&X#X|.s i e w 0 e |.mXNXMXf.m m R { #.<.4.p.i.e.t.e.e.t.t.t.t.t.t.y.i.t.i.I , 9.y.y.N.y.N.y.N.N.N.N.6.D ` ,.q.q.3.2.1.3.w.E.v.,.' ..F.F.F.F.F.H.H.H.H.S :.r.0.3.0.2./.4Xc PXPXPXPXPXPXPXPXPX",
"PXPXPXPXPXPXPXPXPXI n.bXF.F.F.F.F.Z.c l ( ! } } o.o.! ( ( } o.( ( o.o.o.o.( o.( o.O.o.( O.O.( ( ( O.O.( O.&.( ( -.zXz.o.o.o.o.} } o.( o.} } } ^ } } ] } ] ] ] ' K s.NX%X|.p e e 0 e e p |.@X&XMXNXNX&X@X}.s d }.%X#X#X|.i 9 & . . . . .         . = .X%X&XmXMX%X@X.Xs 0 = % & = - d #X&XmXMXMXMXMXMXMXMX&Xd 0 0 e s XX&XmXMXmXmXmX%X@X|.p e w 0 e w i |.mXNXMXu 8 m I { #.p.4.e.e.e.t.t.t.t.t.t.t.t.y.t.i.i.p., B V.N.y.N.B.N.Z.N.B.N.N.Z.B...D K +.3.w.2.,.;.,.,.,.+.X.J.H.F.H.F.J.H.H.c.B 3.3.3.2.2.0.tXm.z PXPXPXPXPXPXPXPXPX",
"PXPXPXPXPXPXPXPXPXPXX.cXQ.F.B.F.Z.Z.U h ' o.} o.} ( o.( o.( } o.o.o.( ( O.( ( O.o.( O.O.( O.O.O.O.( O.( ( &.( *.( ).3X} o.o.} o.} } } } } } } } } } ] } ] } ] [ H s.NX#X Xp e 0 0 0 w e s |.XX&XmX#X Xd s d XX%X%XXX}.e - O . . . .                 O - 0 9 9 - % & = = = 9 r s .X&XmXMXMXMXMXNXMXmXMXMXMXXXr 0 0 e d .X@X&X&X#XXX|.s i w w 0 w w w e |.MXBXmXL 4 R I { <.<.e.e.t.t.t.t.t.t.t.i.i.y.y.i.y.i.I 2 9.N.N.N.N.N.N.B.N.N.Z.B.Z.Z.Z.Z.x.U D [ ;.3.;.;.;.,.[ Y J.J.H.H.H.H.H.`.k.` q.2.2.2.,.v.dXF PXPXPXPXPXPXPXPXPXPX",
"PXPXPXPXPXPXPXPXPXPX` rX7XN.Z.N.N.V.9.h V O.o.o.} o.o.o.o.o.( o.o.( o.O.o.O.O.O.O.O.( O.( O.( O.O.O.) &.*.( ) O.( -.zXz.! } o.} } } } } } } ] } } ] } ] } ] ] [ H s.>X$Xd p e 0 9 - 0 0 e }.|.@X@X}.s s d .X%X%X#X|.i = % . . .                                   o = 0 i s #X&XMXNXNXMXMXMXMXNXMXMXNXMXMX&Xd w 0 w i d |..X}.d p e w w 0 0 0 0 0 0 w }.MXNXf.4 m R { #.<.p.t.t.t.t.t.t.t.t.t.t.t.i.i.y.i.p.< I A.V.N.N.N.N.Z.N.N.Z.Z.F.Z.Z.F.Z.F.J.v.X.V Q -.,.;.;.N x.H.H.W.H.W.W.W.!.S +.q.2.2.2.,.Q.<Xx PXPXPXPXPXPXPXPXPXPX",
"PXPXPXPXPXPXPXPXPXPXV n.hXZ.N.N.N.N.N.c l O.o.o.o.o.o.o.( o.o.o.o.o.( O.( O.O.( ( O.&.( O.( ( ( ( *.&.( *.( O.&.*.( n.3X} } } } } } } } } } } ] } } } ] ] ] ] ' J D -X@Xs p 0 = = - = 0 0 i s d d s s }.@X#X%X#X}.e - o   . .                 .   .           . . O = e d %XNXNXMXNXNXMXMXMXMXNXMXNXMXMXMXMXXXr 0 0 0 i d d i e w 0 w 0 0 0 0 0 0 w e |.NXNXf.6 4 I { %.p.e.t.t.t.t.i.p.i.i.i.i.i.i.y.i.C.M 2 9.Z.N.V.Z.Z.Z.Z.Z.Z.B.Z.F.F.F.F.F.F.F.H.J.D.k.D D } o.D W.W.H.W.W.W.W.W.c.B 2.,.w.,.2.,.0Xm.z PXPXPXPXPXPXPXPXPXPX",
"PXPXPXPXPXPXPXPXPXPX` X.jXH.y.N.N.y.N.` h ! o.( o.( ( O.o.O.( o.( O.O.O.( O.( O.&.( ( &.) ( :.v.O.*.*.( &.*.O.) O.O.+.gXc.! } } } } } ] } ] } } ] } ] ] } ] ] [ [ D g..Xd p - * - 0 0 9 0 0 e i i s }.XX@X%X%XXXi + .   .                     . . . . . . . . . o = 9 p #XNXNXBXBXMXMXMXNXMXMXMXNXMXMXMXMXMX&Xp 0 0 0 e p e e w w 0 0 0 0 0 0 w 0 w e XXNXmXa.4 R T { <.<.p.p.t.t.t.t.i.i.t.t.i.i.i.i.i.7.< U Z.Z.N.Z.Z.Z.B.F.B.F.F.Z.F.F.F.F.F.H.F.H.H.H.J.W.z.D c k.W.W.W.W.!.Q.!._.k.` 3.2.,.<.-.v.fXF x PXPXPXPXPXPXPXPXPXPX",
"PXPXPXPXPXPXPXPXPXPXPXE 2X[.t.N.y.y.y.9.j N *.^ o.o.O.O.( ( O.o.( O.O.( &.( ( O.O.O.( ( *.c.1XD.~ *.) &.*.*.*.O.) ) ( x.gX} } } } } ] ] o.] ] ] } } ] } ] ] ] ' K K P L s e = & 9 i e 0 9 0 0 w e d |.}.XX#XXXp & .   .                     . . . . .     .   . & - i @XMXNXBXBXNXBXNXNXNXNXNXNXMXMXMXMXMXMXNXXXr 0 0 0 0 w 0 0 0 0 0 0 w 0 0 0 w w i XXNXXX7 x R I { <.p.e.t.t.y.y.y.y.y.i.y.i.i.i.i.C.k z y.S.Z.B.F.Z.F.F.F.F.F.F.F.F.H.F.H.H.H.H.W.H.W.H.W.W.Q.c.!.W.Q.W.Q.Q.Q.Q.!.S +.2.,.2.;.=.(.2Xc PXPXPXPXPXPXPXPXPXPXPX",
"PXPXPXPXPXPXPXPXPXPXPXV n.hXN.t.y.y.t.t.M v ( ( O.( ( O.O.O.&.( &.( ( &.O.*.O.( ( ( -.R.1X!.r.5. .^ *.) ( *.) *.*.*.=.( 2X~.! ] } } } } ] } } ] ] ] ] ] ] ] ] ] ] K D r p e = & 9 s |.i 0 0 w w p .XXX}..X|.p = o                           .     .   . O O O % - s #XNXNXBXBXBXBXBXNXBXNXNXNXNXMXMXMXMXMXMXMXMXXXe - & = 9 9 0 0 w w i w 0 0 0 0 e e XXMXOX7 m R { #.p.p.t.t.t.i.y.i.y.i.y.V.i.i.V.C.U < $.F.A.Z.Z.F.Z.F.F.F.F.H.F.H.H.H.H.H.H.H.H.H.W.W.!.W.!.Q.Q.Q.Q.Q.Q.Q.Q.^.'.c.D 2.,.,.-.;.;.eXs.z PXPXPXPXPXPXPXPXPXPXPX",
"PXPXPXPXPXPXPXPXPXPXPXPXX.hXH.t.t.t.t.y.#.j Q ( O.O.( O.O.( ( &.( &.) &.( ( ) ( <.E.].K.4.5.5.1.2./ *.) *.) *.) ) *.=.) -.gX@.! } ] ' } ] ] ] ] ] ] ] ] ] ] ] [ [ K D L 9 - = * 0 .X#X|.e 0 0 i |.&X%X.X}.p w %   .                         . . . .   . & = & 0 }.&XNXNXBXBXBXNXBXBXBXBXNXNXMXmXmX&X%X@X#X#X#X#X@X}.w & = e e p s d |.|.d i w 0 w e e XX>Xu 4 m I { #.p.t.i.t.i.y.i.i.i.i.V.i.V.V.C.p.2 n F.A.F.F.F.F.F.F.F.F.H.H.H.H.H.H.H.H.W.!.W.!.W.W.!.W.Q.Q.Q.Q.Q.Q.^.Q.^.'.].Y { 2.;.-.>.*.v.dXG PXPXPXPXPXPXPXPXPXPXPXPX",
"PXPXPXPXPXPXPXPXPXPXPXPXV <X8Xr.r.r.r.t.e.v b ) ( O.O.( ( O.*.( &.( O.( ( ) 8.(.1XD.5.5.1.5.4.>./ M ( *.*.) *.*.*.=.*.=.( n.3X! ] } ] ] } ] ] ] ] ] ] ] ] ] ] ] ] J K F 1 - O & e #X&X@X}.e e d @XMXMX%X|.s i 9 o                         . . .   . % O % - e #XNXBXBXBXBXBXBXBXBXBXNXmX&X%X@X.X}.}.d s s p e 0 0 0 = - }.%X&X&X&X&XmX%X@Xd w 9 e i i .X@X7 4 R T %.<.u.t.i.i.i.i.i.i.i.i.V.V.V.V.C.n 2 x.F.F.F.H.F.F.H.H.H.H.H.H.H.W.H.W.W.W.!.W.W.W.Q.Q.Q.Q.Q.Q.^.Q.^.Q.^./.^.].R.G :.-.,.-.-.-.1Xb.x PXPXPXPXPXPXPXPXPXPXPXPX",
"PXPXPXPXPXPXPXPXPXPXPXPXI l.jXN.r.r.r.r.t.Q j ^ ( O.O.( *.) O.( ) O.( O.v.(.(.Z.5.5.1.5.5.1.Q M N } =.*.) *.=.=.=.*.=.=.=.( 2Xn.! ] } ] ] ] ] ] ] ] ] ] ] ] ] ' ] K H D 5 & . + i #X%X#X|.p e d #XmXMXmX%X@XXXp O                               . = - w i |.&XBXBXBXBXBXBXBXBXBXNXmX#XXXd s s e 9 & = O O O . . .   O |.MXNXNXMXMXMXMXmX%X}.w w i i p f.f 7 m R T %.p.p.y.y.V.y.i.i.V.i.V.V.V.C.Y.{ < Y F.F.F.H.H.H.F.H.H.H.H.W.H.W.W.W.!.!.W.Q.Q.Q.Q.Q.^.Q.Q.^.^.^./.^.^./././.[.k.` -.;.-.-.O.<.dXd.z PXPXPXPXPXPXPXPXPXPXPXPX",
"PXPXPXPXPXPXPXPXPXPXPXPXPXU rXQ.4.t.r.e.r.<.j N =.O.) *.*.O.&.*.*.( v./.(.u.5.1.5.4.5.=.V M V o.=.=.*.=.*.=.=.=.=.=.=.=.) _ :.aX..! ] ] ] ] ] ] ] ] ] [ ] ] ] ] ] [ H D P . . . i #XmX%XXXs e d %XMXMXNXmX&X@Xs -                           . . % 0 s .X&XNXBXBXBXBXBXBXBXNXmX&X#X|.d e 0 = & % .               o % }.NXMXMXMXMXMXMXMXMX%Xd e e p p i }.u 7 m R { %.p.t.V.y.i.i.V.V.V.V.V.C.V.C.p., n H.J.H.H.H.H.H.H.W.H.W.W.W.W.W.!.!.W.Q.Q.Q.Q.Q.^.Q.^.Q./.Q.^./././././.].5X(.F O.-.-.-.-.O.E.2Xc PXPXPXPXPXPXPXPXPXPXPXPXPX",
"PXPXPXPXPXPXPXPXPXPXPXPXPXV n.yXr.e.e.r.e.r.V j ( &.( *.O.*.) O.) O.#.<.5.5.1.1.5.&.V M H &.>.=.*.*.=.=.=.) =.=.=.=.=.=.>.=.) z.2X] ] ] ] ] ] ] ] ] ] ] ] ] ] ] ' [ [ H F @   o e #X%X%XXXs e d %XMXMXNXMXNX%X}.0 o                             % w .XMXBXBXBXBXBXBXBXNX%X#X}.s e 0 - o o     o             . = 0 XXNXMXNXNXMXMXMXMXMXMX#Xp 0 e d s i r L 4 m T { 9.p.u.V.i.i.V.V.V.V.V.C.C.S.C.n , x.I.H.H.H.H.H.W.W.W.!.W.W.!.Q.Q.Q.Q.Q.Q.Q.^.^.Q.^.^.^././././././.].].].5X6Xl.D -.-.+.-.O.-.eXm.z PXPXPXPXPXPXPXPXPXPXPXPXPX",
"PXPXPXPXPXPXPXPXPXPXPXPXPXPXX.dXF.e.e.4.e.e.*.j H =.O.*.) O.) *.*.*.&.^ 1.1.1.1.V b E *.>.) =.*.=.=.=.) =.=.=.=.=.>.=.=.>.>.>.) ~.n.~ ] ] ] ] ! ] ] ] ] ] ] [ ] ] [ [ H G 1   . e @X%X&X#Xs e d #XMXNXMXMXMX&X.Xi =         . s d w .X|.e i =     + - d %XmXMXMXMXMX%X}.i e = & & = - p %Xe }.MX}.        . - e .X&XMXMXMXMXMXMXMXMXMXMX#Xp e p .X}.r t 7 4 R T %.p.p.y.N.V.V.V.V.C.C.C.C.C.Y.U < X.W.H.W.H.W.W.W.W.!.!.W.Q.!.Q.Q.Q.^.Q.^.Q.^.^.^.^./././.'./.]./.].5X/.].1X5X1XR  .-.+.+.+.( v.gXG PXPXPXPXPXPXPXPXPXPXPXPXPXPX",
"PXPXPXPXPXPXPXPXPXPXPXPXPXPXV ).8X4.4.e.e.e.e.M l ) *.*.) ) *.*.) *.) ^ :.e.1.*.{ ,.,.=.=.=.=.=.=.=.=.=.) =.>.) =.=.1.=.=.1.1.>.o.4Xz.J ] ] ] ] ] ] ] [ ] ' ] ] ' [ ~ H D y X % 0 XX%X&X&Xd e i XXMXNXMXMXMXmX@Xs = O       = MXHXLXKXKXKXKXHX.X}.XXw s s d  X|.@X|.d  X|..XXX.X@XXXBXKXKXLXHXLXmX%     + 0 s XXmXmXNXMXMXMXMXNXMXMXMXMX#Xi e d XX|.w u 7 7 R R <.p.p.C.i.i.C.C.C.C.C.A.C.Y.%.< S W.W.H.W.W.!.W.Q.!.Q.Q.Q.Q.Q.Q.Q.^.^.Q./.^./././.'././.].]./.1X].1X5X5X7X5X8Xb.N *.+.*.*.O.o.1Xb.z PXPXPXPXPXPXPXPXPXPXPXPXPXPX",
"PXPXPXPXPXPXPXPXPXPXPXPXPXPXV k.jXB.4.4.3.e.e.^ j Q ) ) *.*.*.) *.*.=.*.E / 5.5.;.{ ! >.=.=.=.=.=.=.=.>.>.>.>.>.1.>.=.=.1.=.1.1.>.@.2X..~ ] [ ] ] ] ! ] ] ] ' ] ] ] ' K H 6   * q .X#X%XmX.Xe e }.mXMXMXmXNXMX#X}.w & & o   . .XBXBXLXKXKXKXKXKXKXKXLXKXHXHXNXBXHXBXHXKXLXKXKXKXKXKXKXKXKXKXLXLXMX-   - p d XXmXNXMXMXMXNXMXMXMXMXNXMXNX@Xe i }.$X|.e 7 8 R R %.%.p.C.p.C.C.C.C.C.A.Z.C.A.M., x L.Q.!.W.W.!.W.Q.Q.Q.Q.Q.Q.^.Q./.^.^.^./././.]./././.1X].1X5X5X5X5X5X7X5X7X7X7XY ] -.O.O.o.o.6.gXR z PXPXPXPXPXPXPXPXPXPXPXPXPXPX",
"PXPXPXPXPXPXPXPXPXPXPXPXPXPXPXV <X5X5.e.1.e.4.4.b l ) ) ) *.*.*.=.*.=.=.( V V N M H &.=.=.=.1.=.>.=.>.=.1.=.>.>.1.=.=.1.>.1.1.1.5._ z.4X] ] ] ] ] ] ] ] ] ] ] ] ] ] ] [ K A o . 0  X@X&X&X@Xp w d mXMXNXNXMXmX&XXXp 9 = = o   % XXHXLXKXKXKXKXKXKXKXKXKXKXKXKXKXKXKXKXKXKXKXKXKXKXLXKXKXKXKXKXHXi . 0 d d XX&XMXMXMXMXNXMXMXMXMXMXMXNXNXXXe i |.@X.X7 7 m R R %.p.p.i.C.i.C.C.C.C.C.A.Y.S.k 2 M._.W.Q.Q.Q.Q.Q.Q.Q.Q.^.Q.^././.'.]./././.'./.].].1X5X5X5X5X5X5X7X7X7X7X7X7XqX~.S +.+.O.+.o.( ).4Xx PXPXPXPXPXPXPXPXPXPXPXPXPXPXPX",
"PXPXPXPXPXPXPXPXPXPXPXPXPXPXPXV l.hXy.5.e.1.5.e.^ j / >.*.=.=.) ) *.=.=.=.1.^ E =.1.>.=.=.=.=.=.>.>.=.1.=.1.>.>.1.1.1.>.1.1.1.1.5.>._ b.n.J ] ] ] [ ] ] ' ] ] ] ] ] ' [ K D 1 . 9 }.@X%X&X#Xs e p #XMXMXMXNXMX%XXXd p = % = O   & e @XKXLXKXKXKXLXKXKXKXKXKXKXKXKXKXKXKXLXKXKXKXKXLXKXKXKXHX}.w o - d d XX&XmXMXNXMXMXMXNXNXNXNXMXNXNXNXXXe p .X=X.X7 7 m R %.{.p.i.C.C.C.C.C.Y.A.A.A.Y.n < k.`.Q.Q.Q.Q.^.Q.^.Q./.Q./.qX7X(.(.(./.5X/.].1X].5X1X5X5X5X5X7X7X7X7X7X7X0X7X0X0Xd.Q +.O.O.O.( @.dXd.z PXPXPXPXPXPXPXPXPXPXPXPXPXPXPX",
"PXPXPXPXPXPXPXPXPXPXPXPXPXPXPXPXV 3X^.1.3.1.3.3.4.M l ) =.=.=.=.=.=.) =.>.) >.1.=.=.=.=.>.>.=.=.1.=.1.<.>.1.1.<.>.1.1.<.1.2.1.1.,.1.5.) b.c.! ] ] ] J ] ] ] ] ] ] ] ] [ W V 6   * d @X#X&X#X}.e e .XMXNXMXNXMX&X#X}.s 0 & & = o   9 s s 0 mXKXKXKXLXKXKXKXKXKXKXKXKXKXKXKXKXKXKXKXKXBXNXBX&Xs . = d }.XXmXMXMXMXNXMXNXMXNXNXNXMXMXNXNXNX.Xe i .X$X}.7 7 R R %.%.p.i.S.C.Y.C.S.Y.Y.Y.Y.S < Y _.Q.Q.Q.Q.Q.^.^.^.^./.5XwXc.+.o.o.@.z.!.1X7X5X1X5X5X5X7X7X7X7X7X7X7X0X0X0X0XeX~.G O.o.O.o.o.! E.4Xx PXPXPXPXPXPXPXPXPXPXPXPXPXPXPXPX",
"PXPXPXPXPXPXPXPXPXPXPXPXPXPXPXPXN l.dXu.1.3.5.1.4.^ j Q =.=.) =.=.=.=.=.>.=.>.=.>.>.1.=.=.1.1.=.=.1.>.>.1.>.1.1.1.1.1.>.1.1.1.1.2.5.1.5.( b.z.! ] ] ] ] ] ] ] ] ] ! ] ] [ K F X O p XX#X&X#X.Xi e }.MXMXMXMXMXmX%X.Xp i 0 & & = o d p     O @XmXHXKXKXKXKXKXLXNXLXKXKXKXHXHXHXNXNXNXMXHXHXLXmX0 }..X%XmXMXMXMXMXMXMXMXNXMXNXNXMXNXNXNXMXd w e XX@Xg 7 7 R { %.p.p.S.C.C.C.Y.C.Y.Y.U.U < T Q.^.Q.^.^.^.^./.'././.].3X7.o.O.o.o.( } o.v.1X7X7X7X7X7X7X7X7X0X0X0X0X0X0X0X0X3Xd.W O.o.o.o.o.@.dXd.z PXPXPXPXPXPXPXPXPXPXPXPXPXPXPXPX",
"PXPXPXPXPXPXPXPXPXPXPXPXPXPXPXPXPXV 3X^._ 1.1.1.5.5.M l =.=.=.=.=.>.=.=.=.>.>.>.=.>.>.>.1.1.>.1.>.1.1.1.1.1.1.1.1.1.1.1._ 1.1.1.1.1.3.5.5.o.b.z.J ] ] ] ] ! ] ] ] ] ] ] ' ` D # o e .X%XmX&XXXi 0 s mXNXMXMXmXMXmX@Xs i w = & = %           . . }.BXLXNXHXNX&XmXMXBXLXLXBXMXBXNXBXLXKXKXKX%Xe }.XX%XmXNXMXMXMXNXNXNXNXNXNXNXNXMXMXMXNX&Xd 0 e XXoXu 8 m R { {.p.S.Y.C.Y.Y.S.Y.Y.I.U < G (.^.^.^.^.^./././././.].0Xz.( J N H ! o.] ! ! z.5X7X7X7X7X0X0X0X0X0X0X0X0XwXeXdX4XD ( o.o.o.o.! R.2Xc PXPXPXPXPXPXPXPXPXPXPXPXPXPXPXPXPX",
"PXPXPXPXPXPXPXPXPXPXPXPXPXPXPXPXPXV l.dXu.1.1.1.1.1.) j E 1.=.=.=.=.1.>.=.1.>.>.>.>.1.>.1.=.1.1.1.1.1.1.1.1.e.1.1.1.3.1.4.1.4.3.4.3.5.3.2.5.o.b.z.! ] ] ] ] } ] ] } } ] ' W V L   - d @XmX&X%Xd w i &XNXMXMXMXMXmX%X}.e e 9 & O               = BXHXLXHXHXHXHXKXLXHXLXKXKXKXKXKXKXLXHX%XXXd |.@X%XMXNXMXMXMXMXNXMXNXBXNXMXNXNXMXMXNXMX%Xi 9 e @Xf 7 m R R %.{.p.S.Y.S.Y.Y.Y.Y.Y.Y < m !.'.^./././.]./././.]./.7XR.( J G b.k.G H o.] ] ' z.0XqX0X0X0X0X0X0X0XeXeXwXeXeXeXF J O.o.! o.! @.dXd.z PXPXPXPXPXPXPXPXPXPXPXPXPXPXPXPXPX",
"PXPXPXPXPXPXPXPXPXPXPXPXPXPXPXPXPXPXD <X/.1.1.1.>.>.1.N k ) 1.) >.=.1.=.1.=.>.>.<.1.1.1.1.1.1.1.1.1.1.1.1.1.1.1.1.4.1.1.5.3.4.1.3.4.4.4.1.1.e.^ b...! ! ] ] ] ] o.] } } } ` E F   % w XXmX&X%X.Xw e %XNXNXMXNXMXmXmX@Xi e 0 = .               0 NXLXKXKXKXKXKXKXKXKXKXKXKXLXHX&X#X.Xd }.|.@X@X&XMXMXNXNXmXMXMXMXNXNXMXNXNXMXNXMXNXMXNX@Xi 9 e .Xg 7 m R R {.p.S.C.S.Y.Y.A.P.U.U < m (.]./.]./././././.5X1X6X1X1X7.o.N n.wXqX1Xd.H ! ! ] J n.eX0X0XwXwXwXwXwXwXwXeXdXjXb.D o.( ] o.] ! ).4Xx PXPXPXPXPXPXPXPXPXPXPXPXPXPXPXPXPXPX",
"PXPXPXPXPXPXPXPXPXPXPXPXPXPXPXPXPXPXV k.hXw.=.=.>.>.1.) v V 5.1.>.1.1.>.1.1.>.<.>.1.1.1.1.1.1.1.1.1.1.1.e.1.1.e.3.1.4.3.3.5.1.4.4.3.1.4.e.4.e.e. .k.z.! } } o.] ] } o.} } ] E D 5   9 .X&XMX&X@Xe r @XNXNXNXNXNXMXMX&Xs r r =               % 9 e p |.XXmXNXMXNXBXMX%X@X|.|.}.s s |.XXXX@X@X%XmXNXNXNXNXMXMXMXNXNXNXNXNXMXMXNXMXMXNXMX|.w - p |.u 7 m R j.{.p.Y.Y.Y.Y.K.Y.P.T < m (.]./././.]./.5X5X5X5X5X5X5X).o.! J b.wX0XqXeXm.H ] ] ] K 3XwXwXwXwXwXwXdXdXdXdXdXrXF ' o.] o.! ! @.dXF z PXPXPXPXPXPXPXPXPXPXPXPXPXPXPXPXPXPX",
"PXPXPXPXPXPXPXPXPXPXPXPXPXPXPXPXPXPXPXD <X/.=.=.=.>.=.1.I v O.1.>.>.1.>.1.1.1.1.1.1.1.1.1.1.1.e.2.1.1.1.1.1.1.e.3.5.5.4.5.5.3.3.1.4.1.3.e.1.e.1.e. .k.6.! } } } o.o.o.} }  .{ I 7   ; d #XmXMX#Xp r .XNXNXNXNXNXNXMXMXXXe =               . - - = - 9 w i s s s d s p d }. X.X@X@XXX@X#X%X&XmXNXNXNXMXNXMXNXNXMXMXNXMXNXNXMXMXMXMXNX%X}.q = p  X7 m R R %.{.{.K.G.G.G.Y.I.T < A (.6X]./.].5X5X5X5X5X5X5X5X7X0XL.! ] ! ..7X0X0X0XwXm.H ] ] K 4XdXeXeXwXdXdXdXdXdXdXcXm.V ( } } } ] ! (.:XZ PXPXPXPXPXPXPXPXPXPXPXPXPXPXPXPXPXPXPX",
"PXPXPXPXPXPXPXPXPXPXPXPXPXPXPXPXPXPXPXB X.dXB.) =.=.=.=.) b M 1.1.1.1.1.1.1.1.1.1.1.1.1.1.2.1._ 1.e.1.e.e.1.e.1.5.4.4.5.4.4.4.4.e.4.e.e.e.e.e.e.4.e. .d.z.! o.o.o.o.O.o. .} ' ` F % O e @X&XMX&X}.i |.mXNXBXBXNXBXMXMXmXw                 & = * = 0 0 s |.XXXXXXXX@X@X@X@X#X@X@X@X#X%X&XMXNXNXNXNXNXMXMXNXMXMXMXMXMXNXNXMXMXNXMXNXmX#Xp & = f u 8 R R j.{.{.Y.Y.G.Y.I.P.B < G (.5X/.5X5X1X5X5X5X7X7X7X7X7X7X7X).] ! o.! z.wXeX0XwXdXX.~ } N m.lXdXdXdXdXdXdXdXfXjX4XF ! ] ] } ! ! z.dXF z PXPXPXPXPXPXPXPXPXPXPXPXPXPXPXPXPXPXPX",
"PXPXPXPXPXPXPXPXPXPXPXPXPXPXPXPXPXPXPXPXV T.7X;.) =.) =._ ^ k Q _ 1.1.3.1.1.1.1.1.1.e.1.1.1.e.e.1.4.4.1.1.e.1.e.2.5.q.B.B.q.4.4.3.e.1.3.1.e.e.e.4.e.e.O.Y z.o.} o.o.o.+.+. .^ ' U 1   w .X&XMX&X.Xp d &XMXBXBXNXMXNXBX|..               O = & = - w d .X&XmXmX&X&X&X&X&X&X&XmXmXmXMXNXNXNXNXNXBXMXNXMXNXNXNXNXBXNXNXNXNXNXMXMXNXMX&X.Xi & - g 7 7 R j.%.{.{.Y.Y.Y.U.K.m < T /.5X1X].5X5X5X7X7X7X7X7X7X0X0X0X0X0XX.J ] ] ' c.3XeXwXdX~.] ] N b.hXdXdXdXfXfXfXdXfXxXd.J o.] o.] ] ] 3Xb.z PXPXPXPXPXPXPXPXPXPXPXPXPXPXPXPXPXPXPXPX",
"PXPXPXPXPXPXPXPXPXPXPXPXPXPXPXPXPXPXPXPXB Y wXD.) =.=.*.) ) N k >.5.1.1.1.e.1.1.3.1.e.1.4.1.1.1.4.1.4.3.e.1.e.1.q.Q.(.n.c.c.v.q.e.e.e.e.e.e.e.e.r.4.e.t.-.D k.O.o.o.o.+.o.+.o.] W d.@ 9 d %XmXMX&Xd s %XmXMXNXMXBXNXs .                 o * = 0 e |.mXMXMXNXNXNXNXNXNXNXMXMXNXNXBXNXNXNXBXNXNXNXMXNXNXMXNXNXMXNXNXMXNXNXNXMXNXMXmX#Xd 9 & 9 u 7 m R R {.{.C.{.Y.U.{.3 < d.5X7X5X7X5X7X7X7X7X0X7X7X0X7X0X0X0X0XeXn.H ! ] ] ' z.1XdXfXdX@.] M 2XfXdXfXdXfXfXfXfXcXb.N } ] ] ! ] ! c.3XA z PXPXPXPXPXPXPXPXPXPXPXPXPXPXPXPXPXPXPXPX",
"PXPXPXPXPXPXPXPXPXPXPXPXPXPXPXPXPXPXPXPXPXN l.eX;.*.=.*.*.*.) l B 5.1.e.1.1.1.1.1.1.1.1.1.4.4.1.4.1.3.4.4.5.1.K.1Xz.] ! ~ ~  ...=.e.4.e.e.e.e.e.r.e.r.e.t.1.D X.-.+.O.+.O.O. .} / U 5 % p @X&XMX&X.Xd @XmXMXMXBXBXe                 . o   O & 9 p #XmXMXNXNXBXNXNXNXBXNXNXBXNXNXNXNXNXMXMXMXmXmXMXMXMXNXMXNXMXNXMXNXNXNXMXMXNXMX&X|.s - % t 7 m R R j.{.S.S.Y.Y.%., 2 k.6X7X5X7X7X7X7X7X7X0X7X0X0X0X0XwXwXwXwXwXfXm.N ! ] ] ] @.n.3Xn.@.H F lXfXfXfXfXfXfXfXzXaXF ] } ] ] ] ! } wXm.z PXPXPXPXPXPXPXPXPXPXPXPXPXPXPXPXPXPXPXPXPX",
"PXPXPXPXPXPXPXPXPXPXPXPXPXPXPXPXPXPXPXPXPXPXD 3X(.( ) O.) ) ) Q k / e.1.1.e.e.1.e.e.1.e.e.1.4.4.4.e.4.4.4.4.'.R.] ! ] o.[ ~ ! ^ ! #.e.p.e.e.e.e.4.r.e.r.r.t.r.[ F +.+.+.&.*.&.| ' ` F   0 }.%XmXmX#Xd .X&XmXMXLX}.                  % = o . & = w }.@X&XNXBXNXBXNXBXBXNXBXNXNXBXNXMXmX&X&X%X%XmXMXMXmXMXNXMXNXNXNXMXNXMXNXNXMXmX#Xd i = & y 7 7 R j.{.{.S.Y.Y.R < 4 T.6X7X7X7X7X7X7X0X0X0X0X0X0X0X0XwXwXeXwXwXwXdXfXm.N ] ] ] ] ] ] ! J b aXfXfXfXlXfXlXlXlXlXs.K ] ] ] ] ] ! ~.2Xx PXPXPXPXPXPXPXPXPXPXPXPXPXPXPXPXPXPXPXPXPXPX",
"PXPXPXPXPXPXPXPXPXPXPXPXPXPXPXPXPXPXPXPXPXPXB k.wXx.) &.*.) O.*.C l 1.5.5.5.3.4.3.3.5.4.4.4.4.3.4.4.4.e.4.^.c.! ! } ] M M N N ] ] K 2.q.r.r.e.r.r.r.r.e.r.r.r.t. .S { -.-.+.-.+. ./ U 5 % p @XmXMX%X X X#X%XHXXXo               . 9 - & = . o & = 0 d .X%XmXmXNXNXBXNXNXMXmXmX&X%XXX.X.XXXXX#X%XmXmXMXMXNXNXNXMXNXNXNXNXMXNXMXmXoXs e + $ 7 7 R R j.{.S.I.M.x < G (.qX7X7X7X7X0X7X0X0XwX0XwXwXwXeXwXwXwXwXdXwXdXdXdXfXb.G H ! ] ] } K Z 4XzXfXfXlXlXlXlXlXbX:XG } ! ] ! ] ] z.gXF 3 PXPXPXPXPXPXPXPXPXPXPXPXPXPXPXPXPXPXPXPXPXPX",
"PXPXPXPXPXPXPXPXPXPXPXPXPXPXPXPXPXPXPXPXPXPXPXB n.rX*.( O.) O.) ( b V 4.4.4.4.1.4.4.4.4.4.4.4.4.4.4.4.4.E.n.~ ] ] H c [ q.r.| J } J [ t.r.r.r.e.r.e.r.r.r.r.t.r.t.;.B D +.,.-.-.&. .{ A . 0 }.%XMX&X|.d #XBX.Xo               . d %Xi = = O   o & = 0 e s }.|.XX%XXX.X|.d d d s s p i i s  X@X%X&XmXMXMXMXMXNXNXNXNXMXNXMXMXMXmX|.i 0 X y 4 7 R j.{.{.K.T < 2 s.9XqX0X7X0X0X0X0X0XeX0XwXwXwXwXwXeXdXwXdXdXdXdXdXdXdXdXfX2Xd.G N N M F 4XzXxXlXlXlXlXlXlXzXaXF ~ } ! ] ] J } 3Xb.z PXPXPXPXPXPXPXPXPXPXPXPXPXPXPXPXPXPXPXPXPXPXPX",
"PXPXPXPXPXPXPXPXPXPXPXPXPXPXPXPXPXPXPXPXPXPXPXN D rXE.( ( O.( O.*./ v / e.4.4.4.4.4.4.4.4.4.4.4.e.4.e.u.n.] ] o.N M 2.t.r.e.B.@.' ' N r.r.r.r.r.t.r.t.r.r.t.t.y.t.y.r.U n ` ,.-.&.#./ d.o = d @XmXMX.Xs mXXXo                 r BXMXXXw & % . . . o = - 0 9 9 w e i 0 9 9 9 9 9 9 0 9 e s |.@X%XmXmXmXMXNXNXNXNXNXMXNXMXNXNXMX@Xs i % o 7 7 R R {.{.l.k < Z n.qXeX0X0X0X0X0X0XwXeXwXwXwXeXwX3XdXwXdXdXdXdXdXdXfXfXfXdXfXfXlXgX:Xb.2XlXbXlXlXlXlXlXlXlXzXxXd.K ] ] ] ] ] ] n.3XZ z PXPXPXPXPXPXPXPXPXPXPXPXPXPXPXPXPXPXPXPXPXPXPX",
"PXPXPXPXPXPXPXPXPXPXPXPXPXPXPXPXPXPXPXPXPXPXPXPXB k.dXx.( O.O.O.( O.V l =.e.4.4.4.4.q.4.4.e.e.e.e.4.e.B.z.! ] N M q.t.q.r.4.E.z.] [ N q.r.r.r.r.r.r.r.t.t.r.t.r.t.t.y.y.:.M N +.<.#. .{ u O i .X&XmX#X|.i .                 * %XNXmX@Xp -     . .   o o % & & = - - = = & & & & 9 e i d |.@X%XmXmXMXMXMXNXMXNXMXNXNXNXNXNXNX%X}.i 9 X t 8 R R j.j.R < 2 d.9XqX0X0X0X0XwXeXwXwXwXwXeXeXwXdXdXdXdXdXdXfXdXdXfXfXfXfXfXfXlXlXlXlXzXvXbXlXlXlXzXlXzXzXlXzXVXb.D ] ] ] ] ] ~ z.fXF z PXPXPXPXPXPXPXPXPXPXPXPXPXPXPXPXPXPXPXPXPXPXPXPX",
"PXPXPXPXPXPXPXPXPXPXPXPXPXPXPXPXPXPXPXPXPXPXPXPXPXB ~.9X+.o.o.( ( O. .C M 4.e.4.4.4.e.4.e.4.4.e.e.e.e.v. .] [ b e.r.q.r.e.W.R.] ] J G t.r.r.t.r.t.t.t.t.t.t.y.y.y.u.y.y.V.y.` c V -.:. .X.5 & d %XmX&X0                   o #XBXmXmX@Xi = . . . . . .   . & % . % & % & - - - w p }..XXX@X&XmXMXMXMXMXMXMXNXNXMXNXMXNXNXMXmXXXi w & . 7 7 R R R 8 < Z b.0XeX0X0XwX0XeXwXwXwXdXwXdXdXwXdXdXdXdXdXfXfXfXfXfXfXfXfXfXfXlXlXlXlXlXlXlXlXzXlXvXzXzXzXzXzXAX,XG } ] ] ] ] ! ] 3Xb.z PXPXPXPXPXPXPXPXPXPXPXPXPXPXPXPXPXPXPXPXPXPXPXPXPX",
"PXPXPXPXPXPXPXPXPXPXPXPXPXPXPXPXPXPXPXPXPXPXPXPXPXM S 3XE.( o.( o.o.( ! l I e.e.e.4.e.e.e.e.r.4.e.e.e.6.] ] V ` t.r.e.4.H.).] ] o.M } N.t.t.t.r.t.t.u.t.u.u.u.y.u.u.N.y.y.N.C.8.B c I #.{ a.% i %XmXw                     }.HXmXmX&X|.w . .       O & = - - = = - - - 9 w i s }..X@X@X%X%XmXMXMXMXMXMXMXNXMXNXNXMXNXMXNXMX&Xd e 9 o q 7 7 Z 8 > 4 j.9XtXwXwXeXwXwXeXwXeXwXdXdXdXdXdXdXdXfXdXfXfXfXfXfXfXfXfXfXlXlXlXlXlXlXlXlXlXlXzXvXzXvXzXvXzXvXVXnXF [ ] ] ' ] ] ~ ~.2XZ z PXPXPXPXPXPXPXPXPXPXPXPXPXPXPXPXPXPXPXPXPXPXPXPXPX",
"PXPXPXPXPXPXPXPXPXPXPXPXPXPXPXPXPXPXPXPXPXPXPXPXPXPXM k.fXx.! o.o.( o.O.Q l / e.e.e.e.4.r.4.e.r.e.r.r.&.[ ] H } r.e.N./.R.] ] o.H M t.t.t.t.r.t.r.y.u.p.u.p.p.u.u.B.u.N.u.N.N.C.V.$.m k V X.u 1 XXd .   .               9 BXMXMXmX#Xe % .   . o = w e i s s s s s p }.|.}.XXXX@X%X%X%X&XmXMXNXMXMXMXMXMXMXNXMXMXNXMXNXMXMX@Xi 0 O @ y 8 > > > A T.rXrXeXwXwXdXwXwXdXdXdXdXdXdXdXfXdXfXfXfXfXfXfXfXfXfXlXfXlXlXlXlXlXlXlXzXlXzXzXzXzXvXzXzXvXzXvXVXxXs.H ] ] ] ] ] ~ c.gXF z PXPXPXPXPXPXPXPXPXPXPXPXPXPXPXPXPXPXPXPXPXPXPXPXPXPX",
"PXPXPXPXPXPXPXPXPXPXPXPXPXPXPXPXPXPXPXPXPXPXPXPXPXPXPXM b.eX:.} } } ^ ^ ( V k =.r.e.r.e.r.r.e.r.e.u.r.3.H ] ] @.D.Q.1Xz.] } o.K c 9.y.t.r.u.u.u.w.9.x.8.z.c.l.9.9.8.9.B.B.N.B.N.N.S.B.{ k 3 L a 0 .   % - e %         % &XBXMX&X#Xp %     O * w d d .XXX@X%X&X&X&X&X%X&X%XmXmXmXmXmXmXNXMXMXMXMXMXMXMXMXNXNXNXNXNXMXMXNXmXd w 9 @ 1 > $ > 7 m.<X2XwXwXwXdX3XdXwXdXdXdXdXdXdXfXfX3XfXfXfXfXfXfXlXfXlXlXlXlXlXlXlXzXcXlXvXzXvXzXzXVXzXvXzXVXvXVXbXCXb.S ] ] ] ] ] ~ ..dXm.z PXPXPXPXPXPXPXPXPXPXPXPXPXPXPXPXPXPXPXPXPXPXPXPXPXPXPX",
"PXPXPXPXPXPXPXPXPXPXPXPXPXPXPXPXPXPXPXPXPXPXPXPXPXPXPXPXN <X1X( ^ ^ o.} o.o.C C 3.r.e.r.r.e.r.e.r.r.r.y.' K o.] ..7.] ] } o.H b 6.t.t.u.u.u.p.x.c.h.-X+X-XoXOXh.l.%.8.M.p.B.B.V.Z.Z.B.S.x.R 4 6     o - i s 0       o .XBXNXMX%Xs %       & w }..X@X&X&XmXmXMXBXNXNXNXNXMXmXmXNXMXmXMXMXMXMXMXNXMXMXNXMXNXMXNXNXMXMXMXNX@Xe 9 O o : $ 8 a.;XT.2X3XwXdXwXdXdXdXdXdXdXdXfXdXlXcXn.X.gXxXlXlXlXlXlXlXlXlXlXlXzXzXzXzXzXzXvXvXzXzXzXzXvXVXzXVXVXAXCX:XG ] ] ] ] ] ] ] 1X4Xz PXPXPXPXPXPXPXPXPXPXPXPXPXPXPXPXPXPXPXPXPXPXPXPXPXPXPXPX",
"PXPXPXPXPXPXPXPXPXPXPXPXPXPXPXPXPXPXPXPXPXPXPXPXPXPXPXPXB F 3Xn.! o.o.] ] o.] b B 4.r.r.r.r.r.r.r.r.r.r.t.K N ] o.] } o.[ M M v.y.u.u.u.9.x.h.h.XXXX@X@XXXXXXXXXg.a.%.%.8.M.M.B.B.Z.B.D.M.{.s.O   . % r s i =       p NXMXMX&Xp O   . . % - d XX%XmXmXmXMXBXNXNXNXNXNXNXNXNXMXNXMXMXMXMXMXNXNXMXMXMXMXMXMXMXMXMXNXNXMX#Xd - %   q > 7 f.h.T.,X9X3XdXdXdXdXdXdXfXfXfXfXfXfXdXz.~ J c.zXlXfXlXlXlXlXlXvXzXzXzXvXzXvXzXvXzXvXVXVXVXVXVXvXVXVXVXZXpXF ] ] [ ] ] ] ~ R.gXA 3 PXPXPXPXPXPXPXPXPXPXPXPXPXPXPXPXPXPXPXPXPXPXPXPXPXPXPXPX",
"PXPXPXPXPXPXPXPXPXPXPXPXPXPXPXPXPXPXPXPXPXPXPXPXPXPXPXPXPXM j.dXx.! ! } } ] } ' l I t.e.r.r.r.r.t.r.r.r.y.t.{ M N D H C M ..N.u.u.B.{.b.h.+XXX@X@X}.s }.@XXXXXXX@Xa 7 k.%.x.M.B.S.F.F.D.L.d.+   o & i s i - o     p MXMXmXmX}.-       o 0 s XX&XMXMXMXBXBXBXNXBXBXBXNXBXBXNXNXNXNXNXMXMXMXNXMXMXNXNXMXNXMXNXNXNXMXmX%Xd w -   ; 7 u f.g.;X,X2XrXdXdXfXdXfXfXdXfXfXfXfXlX4X[ ~ ! ] K 4XzXlXzXlXzXvXzXzXvXvXvXzXzXzXzXvXzXzXVXVXzXVXVXVXVXVXZXsXF ~ ] ] ..]  .! c.gXd.z PXPXPXPXPXPXPXPXPXPXPXPXPXPXPXPXPXPXPXPXPXPXPXPXPXPXPXPXPX",
"PXPXPXPXPXPXPXPXPXPXPXPXPXPXPXPXPXPXPXPXPXPXPXPXPXPXPXPXPXPXM b.dX@.! } ] ] ] ] W l / t.t.r.t.r.r.t.y.r.r.y.y.w.| ` ` $.u.y.u.B.u.L.OXXXXX@X.Xi & o X . i @XXXXX#Xw . d.j.%.x.M.D.F.B.L.s.@     O w p i 9 O .   * &XNXmXMX#Xe % . . . & e }.#XmXNXBXBXNXBXBXBXBXNXBXNXNXBXBXNXNXMXNXMXMXNXMXMXMXMXMXMXNXNXMXMXMXMX%X|.i 9 o % u u L g.h.T.,XaXuXdXdXfXfXfXfXfXfXfXfXlXlXgXD ~ ] ] ] X.gXzXzXzXzXzXvXzXvXzXvXzXzXVXVXVXVXVXVXVXVXVXVXVXVXCXxXd.H } ] ] ] ] ] 7.dXm.3 PXPXPXPXPXPXPXPXPXPXPXPXPXPXPXPXPXPXPXPXPXPXPXPXPXPXPXPXPXPX",
"PXPXPXPXPXPXPXPXPXPXPXPXPXPXPXPXPXPXPXPXPXPXPXPXPXPXPXPXPXPXPXM ~.3X} ! ] ] ] ] } E l  .t.t.t.t.t.r.y.y.y.y.y.y.i.i.V.i.N.u.N.v.c.-XXXXX@X|.=           9 #XXX@X.Xo   1 d.j.l.{.M.L.D.l.O     O 0 p i - O       i MXmXmX&X}.9 .   X o 0 s .XmXNXNXBXNXNXBXBXMXNXNXNXNXNXNXBXNXNXMXMXNXMXMXNXMXMXMXNXNXMXMXMXmXMXmXXXs w % X t y a.f.h.;X,X2XrXnXfXfXfXfXlXfXlXlXlXlXlXlXzX2XK ] ] | [ b.AXzXzXzXvXvXzXvXVXzXVXVXVXVXVXVXVXVXVXVXVXVXCXCXGXs.K } ] ]  .] ] | 3X:Xz PXPXPXPXPXPXPXPXPXPXPXPXPXPXPXPXPXPXPXPXPXPXPXPXPXPXPXPXPXPXPX",
"PXPXPXPXPXPXPXPXPXPXPXPXPXPXPXPXPXPXPXPXPXPXPXPXPXPXPXPXPXPXPXB G 2X1X! ! ] ] ] ! } H l #.y.y.r.t.y.u.y.y.y.B.t.y.N.y.y.N.N.B.l.g.XX@X@Xr o           o |.@XXX@Xe       a.T k.l.c.L.l.:     O 0 p p 0 O       = #X&XmX&X@Xe O . X X & e }.%XmXNXNXNXMXBXBXBXNXNXNXNXNXNXNXNXNXMXNXMXMXNXMXNXNXMXMXNXNXMXMXMXmXmX#X}.i 9 o ; u a a.g.h.,X2XrXgXkXfXfXfXlXlXfXlXlXlXlXzXzXzXVXb.H } | | [ 4XCXvXVXvXVXVXVXVXVXVXVXVXVXVXVXVXVXVXCXCXCXZXVXs.D }  . .] } .. .1X2XZ z PXPXPXPXPXPXPXPXPXPXPXPXPXPXPXPXPXPXPXPXPXPXPXPXPXPXPXPXPXPXPX",
"PXPXPXPXPXPXPXPXPXPXPXPXPXPXPXPXPXPXPXPXPXPXPXPXPXPXPXPXPXPXPXPXM Y 3XR.! ] ] ] ] ] ] V l #.i.y.y.y.N.y.y.y.N.y.N.N.N.B.N.B.c.OXXX@X.X-         + o   e @XXX@XXX%       5 R j.k.l.l.5     O - i s e = o     . i .X%X&X&X}.9 o   . X & i .X%XmXNXMXNXNXNXNXMXNXMXMXMXMXMXNXMXNXNXMXNXMXMXMXMXNXMXMXMXMXMXMXMXmX@X|.p w % % u u a.f.h.,X2XaXgXjXxXlXfXlXlXlXlXlXlXlXlXzXzXzXzXVXk.] | | | k.lXzX~.zXVXVXVXVXVXVXVXVXVXVXCXCXVXCXCXVXFXCXg.D } ] ] } }  .} ~.gXA z PXPXPXPXPXPXPXPXPXPXPXPXPXPXPXPXPXPXPXPXPXPXPXPXPXPXPXPXPXPXPXPX",
"PXPXPXPXPXPXPXPXPXPXPXPXPXPXPXPXPXPXPXPXPXPXPXPXPXPXPXPXPXPXPXPXPXn d.dXc.] ] ] ] ] ] ] V l <.V.N.u.N.N.N.N.N.N.N.B.N.N.B.M.h.XX@X|.%       . % r 9 i @XXX@X@X0         % 7 A j.j.5   . % 0 i p i - o     . = e s @X&X#Xd &   . . o = i .X%XmXMXMXmXNXNXMXNXNXMXNXMXMXNXMXMXNXMXNXNXMXNXMXNXMXNXMXMXMXMXMXmX@X}.p w = X t y L f.h.,X,X2XgXxXfXjXlXlXlXlXlXlXzXzXzXzXzXzXzXzXCX2XK | | | ' n.fX$.4XCXVXVXVXCXVXVXCXVXCXVXCXCXCXCXCXFXh.D ] | ..] | ..} n.lXF , PXPXPXPXPXPXPXPXPXPXPXPXPXPXPXPXPXPXPXPXPXPXPXPXPXPXPXPXPXPXPXPXPX",
"PXPXPXPXPXPXPXPXPXPXPXPXPXPXPXPXPXPXPXPXPXPXPXPXPXPXPXPXPXPXPXPXPXPXM k.gXz.~ ] ] ] ] ] ] V c 6.N.N.N.N.N.N.B.N.N.N.B.B.L.b.oXXX@X0       o + & p .X@XXXXX@Xe             5 A a.;     % w p p e = o     O ; = 9 i XX%X#Xp % . .   O - i .X%XmXMXmXMXNXMXMXMXNXNXMXMXNXNXMXNXNXNXMXMXNXMXMXMXMXMXMXMXMXMX&X#Xd i w - . 9 y u f.h.+X,XaXgXfXxXlXlXlXzXvXzXzXlXvXzXzXvXzXzXzXvXVXCXb.` @.@.| z.R.7.X.aXVXVXVXVXCXCXCXCXCXCXCXCXCXZXSXb.D } } ] | }  .} c.cXd.3 PXPXPXPXPXPXPXPXPXPXPXPXPXPXPXPXPXPXPXPXPXPXPXPXPXPXPXPXPXPXPXPXPXPX",
"PXPXPXPXPXPXPXPXPXPXPXPXPXPXPXPXPXPXPXPXPXPXPXPXPXPXPXPXPXPXPXPXPXPXPXn b.dXz.~ ] ] ' ] ] ] V M 6.V.N.N.N.N.Z.Z.N.F.B.B.L.OXXX@Xd .     - 9 o e @XXXXX@X@X9 . o           5 y .     o 0 p p e & o     o 5 6 5 % 0 |.%XXXw & O   . . = i .X%XmXMXMXNXMXMXMXMXMXMXMXNXMXMXNXMXMXMXMXNXMXMXNXMXNXMXMXMX&X%X@Xd i w = . q y u f.g.+X,XpXnXgXxXlXlXlXzXzXzXzXvXvXzXvXzXzXVXVXVXVXzXVXVXk.| 7.7.7.7.8.N pXFXCXCXCXCXCXCXCXCXCXZXCXSXSXh.S } ....| | .. .c.fXs.3 PXPXPXPXPXPXPXPXPXPXPXPXPXPXPXPXPXPXPXPXPXPXPXPXPXPXPXPXPXPXPXPXPXPXPX",
"PXPXPXPXPXPXPXPXPXPXPXPXPXPXPXPXPXPXPXPXPXPXPXPXPXPXPXPXPXPXPXPXPXPXPXPXn b.fXz.J ] ] ] ] ] } N c 8.A.Z.Z.Z.Z.Z.F.Z.B.B.b.XXXX@X}.o     & e  X@XXXXXXXXXi O & %                   X - p p i = %     . 5 5 7 a . & s #XXXi & .       = p .X%X&XmXNXMXMXMXNXMXMXMXMXNXNXMXNXNXMXMXMXNXMXNXMXMXMXMXMXmX%XXXd i 0 = . & u u f.f.+X,XpXaXgXcXlXzXzXzXzXzXzXzXVXzXvXVXVXVXVXVXVXVXVXVXZXaX` 7.6.6.6...F FXCXCXCXVXCXCXCXCXCXZXCXSXSXh.D o.| } | ..| } c.fXb.3 PXPXPXPXPXPXPXPXPXPXPXPXPXPXPXPXPXPXPXPXPXPXPXPXPXPXPXPXPXPXPXPXPXPXPXPX",
"PXPXPXPXPXPXPXPXPXPXPXPXPXPXPXPXPXPXPXPXPXPXPXPXPXPXPXPXPXPXPXPXPXPXPXPXPXM b.dX@.! ] ] ] ] ] } V n $.Z.B.Z.Z.Z.F.D.B.L.-XXXXXXXXX}.e p .XXX@XXXXX.X@XXXp 0 & O   .             . - p p e - % X     y 6 7 7 7 t . w XXXXp & O .   . & e |.%XmXmXmXNXNXMXMXMXMXMXMXNXMXMXMXMXNXMXMXNXNXMXMXMXMXMX&X%X.Xs i 9 & . & u a L f.h.+X,XsXnXcXxXzXVXVXzXzXVXzXVXzXvXvXVXzXVXVXVXVXVXVXVXVXZX:X .8.8.8.b :XDXCXCXCXFXCXCXCXSXCXZXSXCXh.D | | | | | | | z.fXb.3 PXPXPXPXPXPXPXPXPXPXPXPXPXPXPXPXPXPXPXPXPXPXPXPXPXPXPXPXPXPXPXPXPXPXPXPXPX",
"PXPXPXPXPXPXPXPXPXPXPXPXPXPXPXPXPXPXPXPXPXPXPXPXPXPXPXPXPXPXPXPXPXPXPXPXPXPXM b.3X@.! ] ] ] } } o.H c $.F.F.F.F.F.F.L.,XoXoXXXXXXX@X#X@X@X@XXX@X.X@XmXmX|.e = & o               % i p i - %       % 7 7 L a.a.a.: &  XXXi = & o . . & 0 d @X&XmXmXMXMXmXMXMXmXMXMXMXMXMXMXNXMXMXMXNXNXNXMXMXMX&X@X.Xd i 0 = O o a u g f.h.+XpXaX<XR.c.c.n.3XFXVXVXzXVXVXVXVXVXVXVXVXVXCXVXVXVXCXCXCXCXk.9.$.G ;XSXCXZXCXFXCXZXCXCXSXCXSXGXg.D +.| +.| | |  .z.dX:Xz PXPXPXPXPXPXPXPXPXPXPXPXPXPXPXPXPXPXPXPXPXPXPXPXPXPXPXPXPXPXPXPXPXPXPXPXPXPX",
"PXPXPXPXPXPXPXPXPXPXPXPXPXPXPXPXPXPXPXPXPXPXPXPXPXPXPXPXPXPXPXPXPXPXPXPXPXPXM G 4X3X@.! } ] } } o.o.` c X.J.F.F.F.K.D.+X@X@XXXXXXXXXXX@X@X@X|.i p #XHXBX#Xs 0 = & .           . w p p 0 % .     + e 7 a.a.a.g.j.f.o w .Xp - & @     . = i }.@X%X%X%X%X%X%X$X%XmX&X&XmXmXMXMXMXMXMXMXmXmXmX%X%X@X Xs i 0 = o . t u u f.h.;XpX4Xl.' / ] ] ] ] n.CXVXVXVXVXVXVXVXVXVXVXVXVXCXCXCXCXCXCXZXsXD F aXDXZXZXCXCXCXFXCXSXZXCXDXGXs.` | | | ..| | | z.eX,Xz z PXPXPXPXPXPXPXPXPXPXPXPXPXPXPXPXPXPXPXPXPXPXPXPXPXPXPXPXPXPXPXPXPXPXPXPXPXPX",
"PXPXPXPXPXPXPXPXPXPXPXPXPXPXPXPXPXPXPXPXPXPXPXPXPXPXPXPXPXPXPXPXPXPXPXPXPXPXPXn M :X3X@.] } o.} o. .+.[ n X.F.J.H.D.L.{.g |.@X@X@X@XXX}.s 9 % = r s mXBXMX|.i = & o           & s p r %       o y 7 7 a.g.j.h.b.h.f.O e i = = O o .   O 9 i }.|..X|. X Xd }.|..X.X.XXX.X@X%X%X&X&X%X@XXX.X.X.X|.s i 0 O o   r u a f.g.+XpXT.{ Q W N H ] ] ] [ 2XCXVXVXVXCXVXVXVXVXCXVXCXCXCXCXCXCXCXCXSX:XGXFXCXCXSXFXZXSXCXSXFXSXDXnXd.` ..| | | $.#.+.z.eX4X3 3 PXPXPXPXPXPXPXPXPXPXPXPXPXPXPXPXPXPXPXPXPXPXPXPXPXPXPXPXPXPXPXPXPXPXPXPXPXPXPX",
"PXPXPXPXPXPXPXPXPXPXPXPXPXPXPXPXPXPXPXPXPXPXPXPXPXPXPXPXPXPXPXPXPXPXPXPXPXPXPXPXn G n.dX7.] | o.o.o.o.+.} n T D.W.K.L.c.u o 9 r w = % o     . * 0 e .XBXBX&Xs 9 * %           & s - & o     o y 7 u a.a.h.b.T.T.b.h.g.: O * & = %   .   O - w p i e i i e p s s d }.}.}.|.|.}.|.|.|.}.s d s s s w - O X X e u a f.g.+XpX,XT / E G ;Xd.K @...} k.GXVXVXCXVXVXCXVXCXCXCXCXCXCXCXCXCXCXZXCXDXFXFXCXFXCXCXSXCXZXZXSXSXpXP ` +.| +.$.| 7.#.c.dX,Xz 3 PXPXPXPXPXPXPXPXPXPXPXPXPXPXPXPXPXPXPXPXPXPXPXPXPXPXPXPXPXPXPXPXPXPXPXPXPXPXPXPX",
"PXPXPXPXPXPXPXPXPXPXPXPXPXPXPXPXPXPXPXPXPXPXPXPXPXPXPXPXPXPXPXPXPXPXPXPXPXPXPXPXPXn M b.fXz.o.o.+.o.+.+.+.+.M S L.!.L.{.f.                    O = e p &XBXMX|.r = %           + 0 = %       5 y u a.a.h.b.4X<X<X,Xb.T R 7 . . .   . .   . % % & - = - 9 9 0 e p s s d p d d p f d s p p s p w 0 %     + t u g f.OX+X:XpXb.[ } N ,XSXCXm.' | | ` ,XDXCXVXCXCXCXCXCXCXCXCXCXZXZXCXCXCXCXCXSXCXZXFXSXSXCXSXFXSXDXSX:XF  .| | $.@.| 7.:.c.jX:Xz z PXPXPXPXPXPXPXPXPXPXPXPXPXPXPXPXPXPXPXPXPXPXPXPXPXPXPXPXPXPXPXPXPXPXPXPXPXPXPXPXPX",
"PXPXPXPXPXPXPXPXPXPXPXPXPXPXPXPXPXPXPXPXPXPXPXPXPXPXPXPXPXPXPXPXPXPXPXPXPXPXPXPXPXPXn M b.fXx.( +.+.+.+.+.-.-.D n l.!.L.h.#                   . & r i XXHXBXXXe - %           . O O .     5 6 u a.a.j.T.T.4X<X2Xx./ U I M 6 y * . .         X   . X . . . % = - w w r i e e e i e i e r w - = . X o t r u g f.h.+X,XpXaX..[  .G nXCXCXnXX.+... .m.SXVXCXCXCXCXCXCXCXZXCXCXCXCXCXSXFXSXSXCXZXZXZXZXZXCXSXFXDXGXh.Y | +.$.| 7.7.7.| n.cXb.z 3 PXPXPXPXPXPXPXPXPXPXPXPXPXPXPXPXPXPXPXPXPXPXPXPXPXPXPXPXPXPXPXPXPXPXPXPXPXPXPXPXPXPX",
"PXPXPXPXPXPXPXPXPXPXPXPXPXPXPXPXPXPXPXPXPXPXPXPXPXPXPXPXPXPXPXPXPXPXPXPXPXPXPXPXPXPXPXPXM b.fXc.o.+.+.+.-.:.;.-.` n d.R.l.y                     % - e }.MXBX#Xi - % o           . .     = y u L a.h.b.,X<X3XwXx.+.:.I m Z n m A A 5 5 - = = ; : = = = ; & . . X o o + O * % * % % % O O +     & 5 a u a f.f.+X+X,XpXnXaX..] | D sXFXVXSXc. .7.+.Y FXFXCXCXCXCXCXCXZXCXZXSXCXSXZXCXSXSXCXSXSXSXZXFXSXSXSXDXnXs.` +.@.$.7.$.7.$.7.R.cXb.2 PXPXPXPXPXPXPXPXPXPXPXPXPXPXPXPXPXPXPXPXPXPXPXPXPXPXPXPXPXPXPXPXPXPXPXPXPXPXPXPXPXPXPXPX",
"PXPXPXPXPXPXPXPXPXPXPXPXPXPXPXPXPXPXPXPXPXPXPXPXPXPXPXPXPXPXPXPXPXPXPXPXPXPXPXPXPXPXPXPXPXn m.hXE.O.-.+.-.-.:.;.2.| M F b.g.                    & = e p &XHX&Xi 9 % o             X   O y 7 L a.h.b.,X<X3XrXE.-.;.[ A b.:XR B n Z 8 f.f.f.L g a g a.u a a 5 5 t a r t & + o @ @ . . O & q a 5 a u a f.f.f.+X+XpXpXnXGXgX..} | K pXSXVXFX2X+.7.7.D xXFXCXFXCXCXFXFXZXZXZXCXSXFXZXCXSXZXZXZXFXZXFXZXSXSXDXpXF X.:.$.@.$.7.7.7.7.).cXs.3 PXPXPXPXPXPXPXPXPXPXPXPXPXPXPXPXPXPXPXPXPXPXPXPXPXPXPXPXPXPXPXPXPXPXPXPXPXPXPXPXPXPXPXPXPX",
"PXPXPXPXPXPXPXPXPXPXPXPXPXPXPXPXPXPXPXPXPXPXPXPXPXPXPXPXPXPXPXPXPXPXPXPXPXPXPXPXPXPXPXPXPXPXc s.fX).:.-.;.;.;.;.,.2.:.B m s.5                   O & w p #XBX&Xp 9 & o                 u 7 u a.g.h.T.<X2XdX9X,.,.;.M :XgX2Xb.U V B 4 g.g.f.f.f.f.f.f.f.f.f a.f f.L g L a 8 > > > 1 r u a g g a.f f.f.g.-X+X=XpXsXnXGXVXxXz.| | [ b.FXCXFXgXz.7.9.D pXSXCXZXSXCXSXZXZXFXZXZXZXZXFXSXZXSXFXZXSXSXSXSXSXFXh.Y  .7.$.7.7.7.$.7.8.1XgXd., PXPXPXPXPXPXPXPXPXPXPXPXPXPXPXPXPXPXPXPXPXPXPXPXPXPXPXPXPXPXPXPXPXPXPXPXPXPXPXPXPXPXPXPXPXPX",
"PXPXPXPXPXPXPXPXPXPXPXPXPXPXPXPXPXPXPXPXPXPXPXPXPXPXPXPXPXPXPXPXPXPXPXPXPXPXPXPXPXPXPXPXPXPXPXc Y gX7X6.-.;.<.7.,.;.<.<.U x a..                 . % 9 i .XBX&Xp - * o             X t y u a.g.h.,X<X2XrXdXE.-.-.( P fXrXgX2X..Q ` n h.+X+X+Xh.h.h.h.h.h.-Xg.g.g.-Xg.g.f.m 3 x 3 7 f.f.f.f.f.f.g.-X+X=X,XpXpXsXnXGXGXVXCXz.| | | k.GXCXFXzXc.7.8.Y aXSXZXZXCXFXCXFXZXZXZXSXZXZXSXSXFXSXZXSXSXZXSXDXnXs.U @.$.7.$.7.7.6.7.x.0XrXP 2 PXPXPXPXPXPXPXPXPXPXPXPXPXPXPXPXPXPXPXPXPXPXPXPXPXPXPXPXPXPXPXPXPXPXPXPXPXPXPXPXPXPXPXPXPXPXPX",
"PXPXPXPXPXPXPXPXPXPXPXPXPXPXPXPXPXPXPXPXPXPXPXPXPXPXPXPXPXPXPXPXPXPXPXPXPXPXPXPXPXPXPXPXPXPXPXPXc S 2XeXv.;.,.,.9.,.<.<.<.{ x 5                 . & - i }.HX&Xp 9 %             X 9 y u a.g.h.,X,X2XrXdXwXv.-.>.V :XfXfXgX3X../ ' c ;X,X,X,X,X,X,X;X,X;X,X;X+X,X+X+X+X+XG k n k u +Xh.-X+X+X+X=XpX=XpXpXsXnXxXGXGXCXCXSXn...$.7.[ 2XDXFXGXL.7.v.D nXSXSXCXSXZXSXZXSXSXSXSXFXSXSXZXSXZXSXSXSXSXDX;XF  .7.7.7.7.7.7.6.6.L.dX2XZ 2 PXPXPXPXPXPXPXPXPXPXPXPXPXPXPXPXPXPXPXPXPXPXPXPXPXPXPXPXPXPXPXPXPXPXPXPXPXPXPXPXPXPXPXPXPXPXPXPX",
"PXPXPXPXPXPXPXPXPXPXPXPXPXPXPXPXPXPXPXPXPXPXPXPXPXPXPXPXPXPXPXPXPXPXPXPXPXPXPXPXPXPXPXPXPXPXPXPXPXc G b.jXE.,.2.2.w.0.<.<.<.{ P @               . & - e }.HX%Xp 9 %             9 y 7 a.f.h.T.,X2XrXyXgX1X7.+.=.N aXlXfXcX<Xo.} ^ G aXsX2XaXpXpXpXpXpXpXpXpXpXpXpXpX,X,XU M B l L pX,X=XpX,XpXpXpXpXnXnXnXGXGXCXVXCXCXFXsX..7.7.7.l.VXDXVXD.9.7.P FXZXFXSXSXCXSXZXZXFXSXZXZXZXSXSXSXZXSXSXJXnXs.Y $.7.7.7.$.6.6.6.6.R.cXb.Z 4 PXPXPXPXPXPXPXPXPXPXPXPXPXPXPXPXPXPXPXPXPXPXPXPXPXPXPXPXPXPXPXPXPXPXPXPXPXPXPXPXPXPXPXPXPXPXPXPXPX",
"PXPXPXPXPXPXPXPXPXPXPXPXPXPXPXPXPXPXPXPXPXPXPXPXPXPXPXPXPXPXPXPXPXPXPXPXPXPXPXPXPXPXPXPXPXPXPXPXPXPXPXc m.jX/.w.1.0.3.0.<.<.$.{ 7               . & = 0 d mX.Xi - %           = u y a.f.h.T.,X2XaXrXfXlX(.-.*.( F lXlXlXlXn.o.o.[ F xXgXnXnXgXnXsXsXgXsXnXnXsXsXnXnXsXaXX.H K N P sXaXpXsXsXsXsXnXGXGXGXGXCXCXCXCXCXCXFXSXb. .8.6.8.R.rX).x.v.G :XDXZXSXSXSXZXZXSXSXSXZXSXSXSXZXSXSXSXDXSX;XY X.7.7.$.7.7.6.8.7.x.1XcXs.3 PXPXPXPXPXPXPXPXPXPXPXPXPXPXPXPXPXPXPXPXPXPXPXPXPXPXPXPXPXPXPXPXPXPXPXPXPXPXPXPXPXPXPXPXPXPXPXPXPXPXPX",
"PXPXPXPXPXPXPXPXPXPXPXPXPXPXPXPXPXPXPXPXPXPXPXPXPXPXPXPXPXPXPXPXPXPXPXPXPXPXPXPXPXPXPXPXPXPXPXPXPXPXPXPXx Y rXeXB.3.q.0.w.<.<.#.X.+             . * = - i d p - = %         O u u L f.g.h.,X2XaXdXfXfXlXn.*.+.o.F lXlXlXfXz.( O.N :XVXzXlXzXzXxXzXzXzXxXxXzXzXxXxXxXxXgXX.H W H P GXxXxXnXGXGXGXGXGXFXGXCXCXCXCXCXCXCXCXSXGXY 7.v.z.9.9.M.9.N g.DXCXFXSXZXSXSXSXSXZXSXZXZXSXSXSXSXSXDXaXs.T :.6.7.6.6.6.8.8.6.L.dXsXF 3 PXPXPXPXPXPXPXPXPXPXPXPXPXPXPXPXPXPXPXPXPXPXPXPXPXPXPXPXPXPXPXPXPXPXPXPXPXPXPXPXPXPXPXPXPXPXPXPXPXPXPXPX",
"PXPXPXPXPXPXPXPXPXPXPXPXPXPXPXPXPXPXPXPXPXPXPXPXPXPXPXPXPXPXPXPXPXPXPXPXPXPXPXPXPXPXPXPXPXPXPXPXPXPXPXPXPXc G 4XjX!.3.q.3.9.<.%.#.a.              o = = 0 e 0 & = .       @ y y L f.h.h.,X2XaXgXfXfXlXzX(.O.O.o.X.xXzXVX1X] ! ! G nXVXzXzXzXzXzXVXzXVXVXVXVXVXVXbXVXVXxX..~ ' H m.CXCXGXFXFXGXCXGXCXCXCXFXCXFXCXSXCXFXSXCXDXsXF [ 7.$.%.` G ;XFXSXZXZXSXZXSXSXSXSXSXZXSXSXSXSXSXDXxXh.Y X.7.6.7.6.8.8.8.8.8.).cX,Xx 3 PXPXPXPXPXPXPXPXPXPXPXPXPXPXPXPXPXPXPXPXPXPXPXPXPXPXPXPXPXPXPXPXPXPXPXPXPXPXPXPXPXPXPXPXPXPXPXPXPXPXPXPXPX",
"PXPXPXPXPXPXPXPXPXPXPXPXPXPXPXPXPXPXPXPXPXPXPXPXPXPXPXPXPXPXPXPXPXPXPXPXPXPXPXPXPXPXPXPXPXPXPXPXPXPXPXPXPXPXx c m.jX8Xu.e.u.0.<.%.X.5               O = - = = O         o t u u f.g.+X,X2XaXgXjXfXfXlXzX3X] O.O.o.n.VXwX@.! o.C h.VXzXzXVXVXVXzXVXVXzXVXVXVXVXVXCXVXCXxXz.] ] ~ P DXaXxXFXGXFXCXFXCXFXCXCXZXZXCXCXSXSXCXCXFXDXFX:XP d.s.;XGXJXFXSXSXSXZXSXSXZXZXZXSXSXSXSXSXDXGX;Xd.{ 7.7.6.6.6.6.8.8.8.x.0XcXg.3 3 PXPXPXPXPXPXPXPXPXPXPXPXPXPXPXPXPXPXPXPXPXPXPXPXPXPXPXPXPXPXPXPXPXPXPXPXPXPXPXPXPXPXPXPXPXPXPXPXPXPXPXPXPXPX",
"PXPXPXPXPXPXPXPXPXPXPXPXPXPXPXPXPXPXPXPXPXPXPXPXPXPXPXPXPXPXPXPXPXPXPXPXPXPXPXPXPXPXPXPXPXPXPXPXPXPXPXPXPXPXPXPXv F 2XhXH.q.0.9.<.{ R :               O O % + .         a u u a.g.h.,X2XaXgXfXlXzXlXlXzXVXm.J o.O.O.z.o.o.+.H P VXVXVXzXVXVXVXVXVXVXVXVXVXVXCXVXCXVXCXzXz.] | ' m.jXk.xXSXZXFXCXCXFXZXCXSXCXCXSXZXZXSXCXFXZXSXSXDXDXDXDXDXSXSXSXSXSXZXSXSXZXSXSXZXSXSXSXDXSX,Xd.U 7.6.6.6.6.8.8.x.8.8.E.lX2XA , PXPXPXPXPXPXPXPXPXPXPXPXPXPXPXPXPXPXPXPXPXPXPXPXPXPXPXPXPXPXPXPXPXPXPXPXPXPXPXPXPXPXPXPXPXPXPXPXPXPXPXPXPXPXPXPX",
"PXPXPXPXPXPXPXPXPXPXPXPXPXPXPXPXPXPXPXPXPXPXPXPXPXPXPXPXPXPXPXPXPXPXPXPXPXPXPXPXPXPXPXPXPXPXPXPXPXPXPXPXPXPXPXPXPXc n b.jX8XN.3.<.%.%.Y #                             u y u f.g.+X,XpXaXgXxXlXlXzXlXzXzXzXzXm.C J ! ! ! J b G nXVXVXVXVXVXCXVXVXVXVXVXVXVXCXCXCXCXCXSXxX..} | } z.@.G xXSXCXZXCXFXCXFXCXFXSXSXZXSXSXFXSXSXFXSXSXZXSXZXZXSXSXZXZXSXZXSXSXSXSXZXSXSXSXDXDXpXs.T %.6.6.6.6.8.8.8.8.6.M.rXbXb.z 2 PXPXPXPXPXPXPXPXPXPXPXPXPXPXPXPXPXPXPXPXPXPXPXPXPXPXPXPXPXPXPXPXPXPXPXPXPXPXPXPXPXPXPXPXPXPXPXPXPXPXPXPXPXPXPXPXPX",
"PXPXPXPXPXPXPXPXPXPXPXPXPXPXPXPXPXPXPXPXPXPXPXPXPXPXPXPXPXPXPXPXPXPXPXPXPXPXPXPXPXPXPXPXPXPXPXPXPXPXPXPXPXPXPXPXPXPXPXx T 2XhX!.0.<.%.{ d.%                       . a y u f.g.+X:X,XaXgXlXlXzXzXzXzXzXzXzXzXCX,Xm.F N G F b.VXCXVXVXVXVXVXVXVXVXVXCXCXCXCXCXCXCXCXCXCXVXz.} | | ..+.G nXSXZXZXSXZXZXSXSXZXZXSXSXFXZXSXSXZXSXZXSXZXSXSXSXSXZXSXSXSXSXZXZXZXSXSXSXDXSXpXs.T ..7.7.6.6.8.8.8.x.8.x.(.cX4XA 2 PXPXPXPXPXPXPXPXPXPXPXPXPXPXPXPXPXPXPXPXPXPXPXPXPXPXPXPXPXPXPXPXPXPXPXPXPXPXPXPXPXPXPXPXPXPXPXPXPXPXPXPXPXPXPXPXPXPXPX",
"PXPXPXPXPXPXPXPXPXPXPXPXPXPXPXPXPXPXPXPXPXPXPXPXPXPXPXPXPXPXPXPXPXPXPXPXPXPXPXPXPXPXPXPXPXPXPXPXPXPXPXPXPXPXPXPXPXPXPXPXx m m.gXiXM.<.#.U R 5 X                 ; a u u f.f.+X,XpXaXgXxXzXlXzXzXzXzXzXzXVXzXGXVXCXGXxXGXAXZXVXVXVXVXCXVXCXVXCXCXCXVXCXCXCXCXCXCXCXCXFXzXc. .+.@.] b h.SXSXCXZXZXSXZXCXSXSXZXFXZXZXSXCXSXSXSXZXSXSXSXZXZXSXSXZXSXZXSXSXSXSXSXDXZX,Xs.T ..7.6.6.8.6.8.8.x.8.9.L.eXfXh.3 3 PXPXPXPXPXPXPXPXPXPXPXPXPXPXPXPXPXPXPXPXPXPXPXPXPXPXPXPXPXPXPXPXPXPXPXPXPXPXPXPXPXPXPXPXPXPXPXPXPXPXPXPXPXPXPXPXPXPXPXPX",
"PXPXPXPXPXPXPXPXPXPXPXPXPXPXPXPXPXPXPXPXPXPXPXPXPXPXPXPXPXPXPXPXPXPXPXPXPXPXPXPXPXPXPXPXPXPXPXPXPXPXPXPXPXPXPXPXPXPXPXPXPXPXx F 4XgX).%.#.{ R R * + + @ + O : 6 1 8 u f.-X+X,XpXaXgXxXcXzXzXvXzXVXzXzXzXVXVXzXVXVXVXVXVXVXCXVXVXVXCXVXCXCXVXCXCXCXCXCXCXCXSXCXCXCXCXSXzXD G G G G pXFXFXZXSXZXZXZXZXZXSXSXSXSXSXSXSXZXSXSXSXZXSXSXSXSXSXSXZXZXSXZXZXSXDXSXGX;Xd.T ..6.8.8.8.8.8.x.x.p.8.M.1XbX,XA , PXPXPXPXPXPXPXPXPXPXPXPXPXPXPXPXPXPXPXPXPXPXPXPXPXPXPXPXPXPXPXPXPXPXPXPXPXPXPXPXPXPXPXPXPXPXPXPXPXPXPXPXPXPXPXPXPXPXPXPXPXPX",
"PXPXPXPXPXPXPXPXPXPXPXPXPXPXPXPXPXPXPXPXPXPXPXPXPXPXPXPXPXPXPXPXPXPXPXPXPXPXPXPXPXPXPXPXPXPXPXPXPXPXPXPXPXPXPXPXPXPXPXPXPXPXPXx c d.<XrX{.%.{ R R a u 5 t g 7 4 4 4 8 7 f.;XaXsXgXxXzXzXvXvXvXVXVXVXVXVXVXVXVXVXVXVXVXVXCXVXVXCXVXCXCXCXCXCXCXCXCXCXZXCXCXCXCXZXFXZXFXCXpXsXnXGXFXFXFXFXZXSXSXSXSXSXSXZXZXZXSXZXSXZXSXSXZXSXSXSXSXSXSXZXSXSXSXDXSXDXDXnXb.d.Y $.8.6.6.6.8.8.8.8.8.8.M.(.cXaXd.2 2 PXPXPXPXPXPXPXPXPXPXPXPXPXPXPXPXPXPXPXPXPXPXPXPXPXPXPXPXPXPXPXPXPXPXPXPXPXPXPXPXPXPXPXPXPXPXPXPXPXPXPXPXPXPXPXPXPXPXPXPXPXPXPX",
"PXPXPXPXPXPXPXPXPXPXPXPXPXPXPXPXPXPXPXPXPXPXPXPXPXPXPXPXPXPXPXPXPXPXPXPXPXPXPXPXPXPXPXPXPXPXPXPXPXPXPXPXPXPXPXPXPXPXPXPXPXPXPXPXPXz m m.aX<Xl.{ T R 4 R 7 m 4 m m R T S m A g.,XxXvXVXvXvXvXzXVXVXzXVXVXVXVXVXVXVXCXVXVXVXCXVXCXCXCXCXCXCXCXCXCXZXCXZXCXSXZXZXZXZXZXCXSXDXSXDXSXSXSXFXSXSXZXSXSXZXSXSXSXSXSXSXSXSXSXZXZXZXSXZXSXSXSXZXSXZXSXSXDXGXpXg.Y Y 6.6.6.6.8.8.8.8.8.x.8.M.R.hXgXg.z 2 PXPXPXPXPXPXPXPXPXPXPXPXPXPXPXPXPXPXPXPXPXPXPXPXPXPXPXPXPXPXPXPXPXPXPXPXPXPXPXPXPXPXPXPXPXPXPXPXPXPXPXPXPXPXPXPXPXPXPXPXPXPXPXPXPX",
"PXPXPXPXPXPXPXPXPXPXPXPXPXPXPXPXPXPXPXPXPXPXPXPXPXPXPXPXPXPXPXPXPXPXPXPXPXPXPXPXPXPXPXPXPXPXPXPXPXPXPXPXPXPXPXPXPXPXPXPXPXPXPXPXPXPXPXz A h.2XT.%.I I R I R I R I U { #.#...U F d.;XsXAXCXCXVXVXVXVXVXVXVXVXVXVXVXCXCXCXCXCXCXCXCXCXCXCXCXCXCXCXCXCXZXZXCXFXFXZXFXZXZXFXZXZXZXSXFXCXSXSXSXZXSXZXSXZXZXSXSXZXZXSXZXSXSXSXSXSXZXSXSXSXSXDXSXSXpXh.d.T  .7.8.8.6.8.8.8.8.x.x.x.9.E.yXbXb.Z 2 PXPXPXPXPXPXPXPXPXPXPXPXPXPXPXPXPXPXPXPXPXPXPXPXPXPXPXPXPXPXPXPXPXPXPXPXPXPXPXPXPXPXPXPXPXPXPXPXPXPXPXPXPXPXPXPXPXPXPXPXPXPXPXPXPXPXPX",
"PXPXPXPXPXPXPXPXPXPXPXPXPXPXPXPXPXPXPXPXPXPXPXPXPXPXPXPXPXPXPXPXPXPXPXPXPXPXPXPXPXPXPXPXPXPXPXPXPXPXPXPXPXPXPXPXPXPXPXPXPXPXPXPXPXPXPXPXx z A b.<XT.j.{ U U U U U #.#.#.<.<.0.;. .T F s.:XxXVXSXCXCXVXVXCXCXCXVXCXCXCXCXCXCXCXCXCXCXCXFXFXCXFXZXZXZXCXFXZXZXSXZXZXZXSXFXZXSXSXCXSXSXZXSXSXZXSXSXSXSXSXSXSXSXSXSXSXZXZXSXSXZXZXSXJXDXFXsXb.d.Y { #.6.6.6.8.8.8.8.8.x.8.9.M.E.dXbX;XA 3 3 PXPXPXPXPXPXPXPXPXPXPXPXPXPXPXPXPXPXPXPXPXPXPXPXPXPXPXPXPXPXPXPXPXPXPXPXPXPXPXPXPXPXPXPXPXPXPXPXPXPXPXPXPXPXPXPXPXPXPXPXPXPXPXPXPXPXPXPX",
"PXPXPXPXPXPXPXPXPXPXPXPXPXPXPXPXPXPXPXPXPXPXPXPXPXPXPXPXPXPXPXPXPXPXPXPXPXPXPXPXPXPXPXPXPXPXPXPXPXPXPXPXPXPXPXPXPXPXPXPXPXPXPXPXPXPXPXPXPXPXz x A h.2XT.l.#.#.#.#.#.#.<.<.<.2.2.2.2.:. .U F g.:XsXGXDXFXFXCXCXCXCXCXCXCXZXCXZXCXZXZXZXCXCXFXSXCXFXZXSXZXZXZXFXSXSXSXSXSXZXSXSXSXSXZXSXSXSXSXZXSXSXSXSXZXSXSXSXZXSXSXSXSXDXDXDXGXpXb.d.R X.$.7.6.6.8.6.9.9.8.x.8.8.8.M.).yXjX:XA 2 , PXPXPXPXPXPXPXPXPXPXPXPXPXPXPXPXPXPXPXPXPXPXPXPXPXPXPXPXPXPXPXPXPXPXPXPXPXPXPXPXPXPXPXPXPXPXPXPXPXPXPXPXPXPXPXPXPXPXPXPXPXPXPXPXPXPXPXPXPXPX",
"PXPXPXPXPXPXPXPXPXPXPXPXPXPXPXPXPXPXPXPXPXPXPXPXPXPXPXPXPXPXPXPXPXPXPXPXPXPXPXPXPXPXPXPXPXPXPXPXPXPXPXPXPXPXPXPXPXPXPXPXPXPXPXPXPXPXPXPXPXPXPXPX3 z R h.2X<XL.6.:.:.<.<.2.2.,.2.,.,.,.,.,.-.{ K F d.b.pXnXCXSXSXSXSXZXZXCXFXZXZXSXCXCXSXFXCXZXSXZXZXSXZXSXFXSXSXSXSXZXCXSXSXSXSXSXSXZXZXZXZXSXSXSXSXSXZXSXSXSXSXSXDXDXGXnX,Xh.d.Y { $.7.$.6.6.6.8.8.8.8.x.x.9.9.M.(.jXxXb.L , 3 PXPXPXPXPXPXPXPXPXPXPXPXPXPXPXPXPXPXPXPXPXPXPXPXPXPXPXPXPXPXPXPXPXPXPXPXPXPXPXPXPXPXPXPXPXPXPXPXPXPXPXPXPXPXPXPXPXPXPXPXPXPXPXPXPXPXPXPXPXPXPXPX",
"PXPXPXPXPXPXPXPXPXPXPXPXPXPXPXPXPXPXPXPXPXPXPXPXPXPXPXPXPXPXPXPXPXPXPXPXPXPXPXPXPXPXPXPXPXPXPXPXPXPXPXPXPXPXPXPXPXPXPXPXPXPXPXPXPXPXPXPXPXPXPXPXPXPXz 4 A h.2XeX!.p.>.>.,.,.;.;.,.;.;.;.-.-.-.,.&.| ` F F g.b.,XsXCXSXSXDXSXSXZXFXSXZXZXSXSXSXCXSXZXFXSXSXZXSXSXZXSXSXSXSXZXCXSXZXSXSXSXSXSXSXZXSXSXSXSXDXDXSXGXsX;Xh.d.R ` { #.7.7.7.7.6.6.6.6.8.8.8.x.9.x.L.1XjXgXb.Z 4 , PXPXPXPXPXPXPXPXPXPXPXPXPXPXPXPXPXPXPXPXPXPXPXPXPXPXPXPXPXPXPXPXPXPXPXPXPXPXPXPXPXPXPXPXPXPXPXPXPXPXPXPXPXPXPXPXPXPXPXPXPXPXPXPXPXPXPXPXPXPXPXPXPXPX",
"PXPXPXPXPXPXPXPXPXPXPXPXPXPXPXPXPXPXPXPXPXPXPXPXPXPXPXPXPXPXPXPXPXPXPXPXPXPXPXPXPXPXPXPXPXPXPXPXPXPXPXPXPXPXPXPXPXPXPXPXPXPXPXPXPXPXPXPXPXPXPXPXPXPXPXPXx z Z s.2XdX1XD.,.-.;.;.;.;.;.-.-.-.O.-.&.-.*.O.O.] [ D F d.s.;X:XsXGXGXFXDXFXJXDXSXDXSXSXSXSXSXSXSXFXSXSXSXCXDXSXSXFXDXDXDXDXDXDXDXDXDXSXAXnXpX:Xh.s.d.Y U { ..@.7.7.7.7.6.6.6.8.8.x.8.8.8.8.M.E.qXcX2Xg.Z , 3 PXPXPXPXPXPXPXPXPXPXPXPXPXPXPXPXPXPXPXPXPXPXPXPXPXPXPXPXPXPXPXPXPXPXPXPXPXPXPXPXPXPXPXPXPXPXPXPXPXPXPXPXPXPXPXPXPXPXPXPXPXPXPXPXPXPXPXPXPXPXPXPXPXPXPXPX",
"PXPXPXPXPXPXPXPXPXPXPXPXPXPXPXPXPXPXPXPXPXPXPXPXPXPXPXPXPXPXPXPXPXPXPXPXPXPXPXPXPXPXPXPXPXPXPXPXPXPXPXPXPXPXPXPXPXPXPXPXPXPXPXPXPXPXPXPXPXPXPXPXPXPXPXPXPXPXPXv x d.T.gXeX!.x.;.*.*.-.-.*.+.-.-.+.O.O.O.O.O.O.o.o.! [ K D F F d.s.b.;X:XpXsXnXGXCXFXZXSXFXDXSXSXSXDXSXDXSXSXFXGXGXnXnXsXpX;Xb.g.d.a.R T U {  .| @.:.7.7.7.7.7.7.6.6.6.8.8.8.8.8.M.L.(.hXlX:Xa.z , PXPXPXPXPXPXPXPXPXPXPXPXPXPXPXPXPXPXPXPXPXPXPXPXPXPXPXPXPXPXPXPXPXPXPXPXPXPXPXPXPXPXPXPXPXPXPXPXPXPXPXPXPXPXPXPXPXPXPXPXPXPXPXPXPXPXPXPXPXPXPXPXPXPXPXPXPXPXPX",
"PXPXPXPXPXPXPXPXPXPXPXPXPXPXPXPXPXPXPXPXPXPXPXPXPXPXPXPXPXPXPXPXPXPXPXPXPXPXPXPXPXPXPXPXPXPXPXPXPXPXPXPXPXPXPXPXPXPXPXPXPXPXPXPXPXPXPXPXPXPXPXPXPXPXPXPXPXPXPXPXPXz z G m.<XdX1XE.w.-.O.O.O.+.+.O.O.O.O.o.o.o.o.o.( o.( o.o.} [ K K K K D F Y F F d.d.s.s.g.h.g.h.s.s.s.s.s.s.d.d.R F D D U ` `  .| +.| @.+.#.7.7.7.$.7.$.7.6.6.6.8.8.8.8.x.L.(.dXzX2Xg.A 2 2 PXPXPXPXPXPXPXPXPXPXPXPXPXPXPXPXPXPXPXPXPXPXPXPXPXPXPXPXPXPXPXPXPXPXPXPXPXPXPXPXPXPXPXPXPXPXPXPXPXPXPXPXPXPXPXPXPXPXPXPXPXPXPXPXPXPXPXPXPXPXPXPXPXPXPXPXPXPXPXPXPX",
"PXPXPXPXPXPXPXPXPXPXPXPXPXPXPXPXPXPXPXPXPXPXPXPXPXPXPXPXPXPXPXPXPXPXPXPXPXPXPXPXPXPXPXPXPXPXPXPXPXPXPXPXPXPXPXPXPXPXPXPXPXPXPXPXPXPXPXPXPXPXPXPXPXPXPXPXPXPXPXPXPXPXPXPXz x F b.2XwX1XD.6.-.( ( O.o.O.O.o.o.o.o.o.o.] } ] } ] } ] ] ] ! ] ] ! ~ [ [ ` ` [ J H ` ` ` ` ` [ ` [ ] ' ]  .o. .| | +.| | | @.| 7.7.$.7.7.7.7.8.6.8.8.8.9.x.L.(.eXjX2Xh.F z 2 PXPXPXPXPXPXPXPXPXPXPXPXPXPXPXPXPXPXPXPXPXPXPXPXPXPXPXPXPXPXPXPXPXPXPXPXPXPXPXPXPXPXPXPXPXPXPXPXPXPXPXPXPXPXPXPXPXPXPXPXPXPXPXPXPXPXPXPXPXPXPXPXPXPXPXPXPXPXPXPXPXPXPXPX",
"PXPXPXPXPXPXPXPXPXPXPXPXPXPXPXPXPXPXPXPXPXPXPXPXPXPXPXPXPXPXPXPXPXPXPXPXPXPXPXPXPXPXPXPXPXPXPXPXPXPXPXPXPXPXPXPXPXPXPXPXPXPXPXPXPXPXPXPXPXPXPXPXPXPXPXPXPXPXPXPXPXPXPXPXPXPXz z x F b.2XrX0X).z.+.o.( ! o.o.o.! } } } } ] } ! ] ] ] ] ] ] ] ] ] ] ] ] ] ] ] ] } ] } } } ] } ..]  .| ] ..| | | | | ..@.| 7.7.7.7.7.6.6.7.6.6.9.x.R.1XhXxXaXb.L Z 2 2 PXPXPXPXPXPXPXPXPXPXPXPXPXPXPXPXPXPXPXPXPXPXPXPXPXPXPXPXPXPXPXPXPXPXPXPXPXPXPXPXPXPXPXPXPXPXPXPXPXPXPXPXPXPXPXPXPXPXPXPXPXPXPXPXPXPXPXPXPXPXPXPXPXPXPXPXPXPXPXPXPXPXPXPXPXPX",
"PXPXPXPXPXPXPXPXPXPXPXPXPXPXPXPXPXPXPXPXPXPXPXPXPXPXPXPXPXPXPXPXPXPXPXPXPXPXPXPXPXPXPXPXPXPXPXPXPXPXPXPXPXPXPXPXPXPXPXPXPXPXPXPXPXPXPXPXPXPXPXPXPXPXPXPXPXPXPXPXPXPXPXPXPXPXPXPXPXz z x F s.4X3X3X1Xn.z.+.! o.! J } ] o.] ] ] ] ] ] ] ] ] ] ] ] ] [ ] ] ] ] ] ] ] ]  .]  .] } |  .+.o...| | | $.$.7.$.7.$.7.7.$.6.$.8.x.L.(.wXjXgXpXs.F z , , PXPXPXPXPXPXPXPXPXPXPXPXPXPXPXPXPXPXPXPXPXPXPXPXPXPXPXPXPXPXPXPXPXPXPXPXPXPXPXPXPXPXPXPXPXPXPXPXPXPXPXPXPXPXPXPXPXPXPXPXPXPXPXPXPXPXPXPXPXPXPXPXPXPXPXPXPXPXPXPXPXPXPXPXPXPXPXPXPX",
"PXPXPXPXPXPXPXPXPXPXPXPXPXPXPXPXPXPXPXPXPXPXPXPXPXPXPXPXPXPXPXPXPXPXPXPXPXPXPXPXPXPXPXPXPXPXPXPXPXPXPXPXPXPXPXPXPXPXPXPXPXPXPXPXPXPXPXPXPXPXPXPXPXPXPXPXPXPXPXPXPXPXPXPXPXPXPXPXPXPXPXPXz z x Z d.b.4X3X3X1Xn.z.z.o.] J J ] ! ! ] ] ] ! ] [ ' ' ] ] [ ] ]  .] ] ..] ..} } .. .| | | | @.| 7.| 7.7.@.$.:.7.6.z.L.R.(.wXdXgX2Xb.a.Z 3 , 3 PXPXPXPXPXPXPXPXPXPXPXPXPXPXPXPXPXPXPXPXPXPXPXPXPXPXPXPXPXPXPXPXPXPXPXPXPXPXPXPXPXPXPXPXPXPXPXPXPXPXPXPXPXPXPXPXPXPXPXPXPXPXPXPXPXPXPXPXPXPXPXPXPXPXPXPXPXPXPXPXPXPXPXPXPXPXPXPXPXPXPXPX",
"PXPXPXPXPXPXPXPXPXPXPXPXPXPXPXPXPXPXPXPXPXPXPXPXPXPXPXPXPXPXPXPXPXPXPXPXPXPXPXPXPXPXPXPXPXPXPXPXPXPXPXPXPXPXPXPXPXPXPXPXPXPXPXPXPXPXPXPXPXPXPXPXPXPXPXPXPXPXPXPXPXPXPXPXPXPXPXPXPXPXPXPXPXPXPXPXj z z A d.m.4X3XwX3X1X).n.z.@.} ] ] J ! ! J ~ ~ ] ] ] ] ] ] ]  .] ] | ]  .} | | | | +. .| | 7.$.6.x.c.(.1X0XhXgXgX,Xb.P A 3 2 2 PXPXPXPXPXPXPXPXPXPXPXPXPXPXPXPXPXPXPXPXPXPXPXPXPXPXPXPXPXPXPXPXPXPXPXPXPXPXPXPXPXPXPXPXPXPXPXPXPXPXPXPXPXPXPXPXPXPXPXPXPXPXPXPXPXPXPXPXPXPXPXPXPXPXPXPXPXPXPXPXPXPXPXPXPXPXPXPXPXPXPXPXPXPXPXPX",
"PXPXPXPXPXPXPXPXPXPXPXPXPXPXPXPXPXPXPXPXPXPXPXPXPXPXPXPXPXPXPXPXPXPXPXPXPXPXPXPXPXPXPXPXPXPXPXPXPXPXPXPXPXPXPXPXPXPXPXPXPXPXPXPXPXPXPXPXPXPXPXPXPXPXPXPXPXPXPXPXPXPXPXPXPXPXPXPXPXPXPXPXPXPXPXPXPXPXPXPXz z z Z G P m.b.2XrXgX3X3X1XR.n.n.z.z.z.@...o.@...o...| ..+.| ......6.z.c.c.c.R.).1X3XwXfXgXgXaX:Xh.d.A x 3 2 2 PXPXPXPXPXPXPXPXPXPXPXPXPXPXPXPXPXPXPXPXPXPXPXPXPXPXPXPXPXPXPXPXPXPXPXPXPXPXPXPXPXPXPXPXPXPXPXPXPXPXPXPXPXPXPXPXPXPXPXPXPXPXPXPXPXPXPXPXPXPXPXPXPXPXPXPXPXPXPXPXPXPXPXPXPXPXPXPXPXPXPXPXPXPXPXPXPXPXPXPX",
"PXPXPXPXPXPXPXPXPXPXPXPXPXPXPXPXPXPXPXPXPXPXPXPXPXPXPXPXPXPXPXPXPXPXPXPXPXPXPXPXPXPXPXPXPXPXPXPXPXPXPXPXPXPXPXPXPXPXPXPXPXPXPXPXPXPXPXPXPXPXPXPXPXPXPXPXPXPXPXPXPXPXPXPXPXPXPXPXPXPXPXPXPXPXPXPXPXPXPXPXPXPXPXPXPXz z z z Z A d.s.m.b.4X2X3X3XgXrXdX3XwX3X3X3XrXwX3XgXgXwXdXgXdXgXgX2X2X4X:Xb.s.d.A Z z 3 , , PXPXPXPXPXPXPXPXPXPXPXPXPXPXPXPXPXPXPXPXPXPXPXPXPXPXPXPXPXPXPXPXPXPXPXPXPXPXPXPXPXPXPXPXPXPXPXPXPXPXPXPXPXPXPXPXPXPXPXPXPXPXPXPXPXPXPXPXPXPXPXPXPXPXPXPXPXPXPXPXPXPXPXPXPXPXPXPXPXPXPXPXPXPXPXPXPXPXPXPXPXPXPXPXPX",
"PXPXPXPXPXPXPXPXPXPXPXPXPXPXPXPXPXPXPXPXPXPXPXPXPXPXPXPXPXPXPXPXPXPXPXPXPXPXPXPXPXPXPXPXPXPXPXPXPXPXPXPXPXPXPXPXPXPXPXPXPXPXPXPXPXPXPXPXPXPXPXPXPXPXPXPXPXPXPXPXPXPXPXPXPXPXPXPXPXPXPXPXPXPXPXPXPXPXPXPXPXPXPXPXPXPXPXPXPXPXPX3 3 z 3 z z Z Z A F P P P d.d.s.s.s.s.d.d.F P F A A Z Z z 3 3 2 2 , PXPXPXPXPXPXPXPXPXPXPXPXPXPXPXPXPXPXPXPXPXPXPXPXPXPXPXPXPXPXPXPXPXPXPXPXPXPXPXPXPXPXPXPXPXPXPXPXPXPXPXPXPXPXPXPXPXPXPXPXPXPXPXPXPXPXPXPXPXPXPXPXPXPXPXPXPXPXPXPXPXPXPXPXPXPXPXPXPXPXPXPXPXPXPXPXPXPXPXPXPXPXPXPXPXPXPXPXPXPXPX",
"PXPXPXPXPXPXPXPXPXPXPXPXPXPXPXPXPXPXPXPXPXPXPXPXPXPXPXPXPXPXPXPXPXPXPXPXPXPXPXPXPXPXPXPXPXPXPXPXPXPXPXPXPXPXPXPXPXPXPXPXPXPXPXPXPXPXPXPXPXPXPXPXPXPXPXPXPXPXPXPXPXPXPXPXPXPXPXPXPXPXPXPXPXPXPXPXPXPXPXPXPXPXPXPXPXPXPXPXPXPXPXPXPXPXPXPXPXPXPXPXPX, 3 , , z , z , 2 , 3 3 3 3 PXPXPXPXPXPXPXPXPXPXPXPXPXPXPXPXPXPXPXPXPXPXPXPXPXPXPXPXPXPXPXPXPXPXPXPXPXPXPXPXPXPXPXPXPXPXPXPXPXPXPXPXPXPXPXPXPXPXPXPXPXPXPXPXPXPXPXPXPXPXPXPXPXPXPXPXPXPXPXPXPXPXPXPXPXPXPXPXPXPXPXPXPXPXPXPXPXPXPXPXPXPXPXPXPXPXPXPXPXPXPXPXPXPXPXPXPXPXPXPXPX",
"PXPXPXPXPXPXPXPXPXPXPXPXPXPXPXPXPXPXPXPXPXPXPXPXPXPXPXPXPXPXPXPXPXPXPXPXPXPXPXPXPXPXPXPXPXPXPXPXPXPXPXPXPXPXPXPXPXPXPXPXPXPXPXPXPXPXPXPXPXPXPXPXPXPXPXPXPXPXPXPXPXPXPXPXPXPXPXPXPXPXPXPXPXPXPXPXPXPXPXPXPXPXPXPXPXPXPXPXPXPXPXPXPXPXPXPXPXPXPXPXPXPXPXPXPXPXPXPXPXPXPXPXPXPXPXPXPXPXPXPXPXPXPXPXPXPXPXPXPXPXPXPXPXPXPXPXPXPXPXPXPXPXPXPXPXPXPXPXPXPXPXPXPXPXPXPXPXPXPXPXPXPXPXPXPXPXPXPXPXPXPXPXPXPXPXPXPXPXPXPXPXPXPXPXPXPXPXPXPXPXPXPXPXPXPXPXPXPXPXPXPXPXPXPXPXPXPXPXPXPXPXPXPXPXPXPXPXPXPXPXPXPXPXPXPXPXPXPXPXPXPXPXPXPXPXPX",
"PXPXPXPXPXPXPXPXPXPXPXPXPXPXPXPXPXPXPXPXPXPXPXPXPXPXPXPXPXPXPXPXPXPXPXPXPXPXPXPXPXPXPXPXPXPXPXPXPXPXPXPXPXPXPXPXPXPXPXPXPXPXPXPXPXPXPXPXPXPXPXPXPXPXPXPXPXPXPXPXPXPXPXPXPXPXPXPXPXPXPXPXPXPXPXPXPXPXPXPXPXPXPXPXPXPXPXPXPXPXPXPXPXPXPXPXPXPXPXPXPXPXPXPXPXPXPXPXPXPXPXPXPXPXPXPXPXPXPXPXPXPXPXPXPXPXPXPXPXPXPXPXPXPXPXPXPXPXPXPXPXPXPXPXPXPXPXPXPXPXPXPXPXPXPXPXPXPXPXPXPXPXPXPXPXPXPXPXPXPXPXPXPXPXPXPXPXPXPXPXPXPXPXPXPXPXPXPXPXPXPXPXPXPXPXPXPXPXPXPXPXPXPXPXPXPXPXPXPXPXPXPXPXPXPXPXPXPXPXPXPXPXPXPXPXPXPXPXPXPXPXPXPXPXPXPX",
"PXPXPXPXPXPXPXPXPXPXPXPXPXPXPXPXPXPXPXPXPXPXPXPXPXPXPXPXPXPXPXPXPXPXPXPXPXPXPXPXPXPXPXPXPXPXPXPXPXPXPXPXPXPXPXPXPXPXPXPXPXPXPXPXPXPXPXPXPXPXPXPXPXPXPXPXPXPXPXPXPXPXPXPXPXPXPXPXPXPXPXPXPXPXPXPXPXPXPXPXPXPXPXPXPXPXPXPXPXPXPXPXPXPXPXPXPXPXPXPXPXPXPXPXPXPXPXPXPXPXPXPXPXPXPXPXPXPXPXPXPXPXPXPXPXPXPXPXPXPXPXPXPXPXPXPXPXPXPXPXPXPXPXPXPXPXPXPXPXPXPXPXPXPXPXPXPXPXPXPXPXPXPXPXPXPXPXPXPXPXPXPXPXPXPXPXPXPXPXPXPXPXPXPXPXPXPXPXPXPXPXPXPXPXPXPXPXPXPXPXPXPXPXPXPXPXPXPXPXPXPXPXPXPXPXPXPXPXPXPXPXPXPXPXPXPXPXPXPXPXPXPXPXPXPXPX",
"PXPXPXPXPXPXPXPXPXPXPXPXPXPXPXPXPXPXPXPXPXPXPXPXPXPXPXPXPXPXPXPXPXPXPXPXPXPXPXPXPXPXPXPXPXPXPXPXPXPXPXPXPXPXPXPXPXPXPXPXPXPXPXPXPXPXPXPXPXPXPXPXPXPXPXPXPXPXPXPXPXPXPXPXPXPXPXPXPXPXPXPXPXPXPXPXPXPXPXPXPXPXPXPXPXPXPXPXPXPXPXPXPXPXPXPXPXPXPXPXPXPXPXPXPXPXPXPXPXPXPXPXPXPXPXPXPXPXPXPXPXPXPXPXPXPXPXPXPXPXPXPXPXPXPXPXPXPXPXPXPXPXPXPXPXPXPXPXPXPXPXPXPXPXPXPXPXPXPXPXPXPXPXPXPXPXPXPXPXPXPXPXPXPXPXPXPXPXPXPXPXPXPXPXPXPXPXPXPXPXPXPXPXPXPXPXPXPXPXPXPXPXPXPXPXPXPXPXPXPXPXPXPXPXPXPXPXPXPXPXPXPXPXPXPXPXPXPXPXPXPXPXPXPXPXPX"
};
